;FLAVOR:Marlin
;TIME:7726
;Filament used: 5.16546m
;Layer height: 0.2
;MINX:12.815
;MINY:11.192
;MINZ:0.3
;MAXX:208.484
;MAXY:202.804
;MAXZ:11.5
;Generated with Cura_SteamEngine 4.9.1
M140 S70
M105
M190 S70
M104 S200
M105
M109 S200
M82 ;absolute extrusion mode
; Ender 3 Custom Start G-code
G92 E0 ; Reset Extruder
G28 ; Home all axes
G1 Z2.0 F3000 ; Move Z Axis up little to prevent scratching of Heat Bed
G1 X0.1 Y20 Z0.3 F5000.0 ; Move to start position
G1 X0.1 Y200.0 Z0.3 F1500.0 E15 ; Draw the first line
G1 X0.4 Y200.0 Z0.3 F5000.0 ; Move to side a little
G1 X0.4 Y20 Z0.3 F1500.0 E30 ; Draw the second line
G92 E0 ; Reset Extruder
G1 Z2.0 F3000 ; Move Z Axis up little to prevent scratching of Heat Bed
G1 X5 Y20 Z0.3 F5000.0 ; Move over to prevent blob squish
G92 E0
G92 E0
G1 F3000 E-6
;LAYER_COUNT:32
;LAYER:0
M106 S255
G0 F6000 X179.902 Y18.353 Z0.3
;TYPE:SKIRT
G1 F3000 E0
G1 F1200 X180.037 Y17.654 E0.03552
G1 X180.119 Y17.332 E0.0521
G1 X180.298 Y16.753 E0.08233
G1 X180.351 Y16.608 E0.09003
G1 X180.626 Y15.973 E0.12456
G1 X180.972 Y15.373 E0.15911
G1 X181.385 Y14.817 E0.19367
G1 X181.699 Y14.47 E0.21701
G1 X181.955 Y14.212 E0.23515
G1 X182.111 Y14.061 E0.24598
G1 X182.636 Y13.609 E0.28054
G1 X183.209 Y13.22 E0.31509
G1 X183.823 Y12.9 E0.34964
G1 X184.283 Y12.715 E0.37437
G1 X184.594 Y12.605 E0.39083
G1 X185.55 Y12.354 E0.44014
G1 X185.68 Y12.331 E0.44673
G1 X186.554 Y12.241 E0.49056
G1 X186.905 Y12.231 E0.50808
G1 X187.075 Y12.229 E0.51656
G1 X198.746 Y12.228 E1.09883
G1 X199.513 Y12.239 E1.1371
G1 X200.536 Y12.342 E1.1884
G1 X200.727 Y12.378 E1.19809
G1 X201.538 Y12.59 E1.23991
G1 X201.748 Y12.661 E1.25097
G1 X202.39 Y12.92 E1.28551
G1 X202.998 Y13.252 E1.32007
G1 X203.522 Y13.619 E1.35199
G1 X203.733 Y13.784 E1.36535
G1 X204.385 Y14.375 E1.40925
G1 X204.54 Y14.538 E1.42048
G1 X204.987 Y15.067 E1.45503
G1 X205.371 Y15.644 E1.48961
G1 X205.686 Y16.261 E1.52417
G1 X205.835 Y16.634 E1.54421
G1 X205.938 Y16.919 E1.55933
G1 X206.18 Y17.789 E1.60438
G1 X206.21 Y17.94 E1.61206
G1 X206.323 Y18.939 E1.66222
G1 X206.333 Y19.292 E1.67984
G1 X206.335 Y19.461 E1.68827
G1 X206.335 Y31.182 E2.27303
G1 X206.325 Y31.895 E2.30861
G1 X206.276 Y32.586 E2.34317
G1 X206.145 Y33.274 E2.37811
G1 X206.059 Y33.616 E2.3957
G1 X205.851 Y34.277 E2.43027
G1 X205.569 Y34.909 E2.4648
G1 X205.223 Y35.495 E2.49875
G1 X205.052 Y35.75 E2.51407
G1 X204.634 Y36.302 E2.54861
G1 X204.202 Y36.757 E2.57992
G1 X204.021 Y36.929 E2.59237
G1 X203.492 Y37.377 E2.62696
G1 X202.916 Y37.76 E2.66147
G1 X202.116 Y38.151 E2.70589
G1 X201.819 Y38.264 E2.72175
G1 X201.596 Y38.342 E2.73353
G1 X200.812 Y38.557 E2.77409
G1 X200.645 Y38.591 E2.78259
G1 X199.627 Y38.709 E2.83372
G1 X199.292 Y38.719 E2.85044
G1 X199.114 Y38.722 E2.85932
G1 X187.341 Y38.722 E3.44668
G1 X186.664 Y38.712 E3.48046
G1 X185.974 Y38.662 E3.51497
G1 X185.273 Y38.528 E3.55058
G1 X184.939 Y38.443 E3.56777
G1 X184.279 Y38.233 E3.60233
G1 X183.647 Y37.949 E3.6369
G1 X183.047 Y37.591 E3.67175
G1 X182.763 Y37.398 E3.68889
G1 X182.213 Y36.976 E3.72347
G1 X181.796 Y36.579 E3.7522
G1 X181.647 Y36.423 E3.76296
G1 X181.198 Y35.896 E3.7975
G1 X180.814 Y35.32 E3.83204
G1 X180.498 Y34.704 E3.86658
G1 X180.335 Y34.295 E3.88854
G1 X180.233 Y34.009 E3.90369
G1 X180.003 Y33.184 E3.94642
G1 X179.971 Y33.026 E3.95446
G1 X179.854 Y32.008 E4.00559
G1 X179.844 Y31.661 E4.02291
G1 X179.842 Y31.489 E4.03149
G1 X179.842 Y19.698 E4.61974
G1 X179.852 Y19.043 E4.65242
G1 X179.902 Y18.353 E4.68694
G0 F6000 X180.302 Y18.382
G1 F1200 X180.424 Y17.753 E4.7189
G1 X180.506 Y17.431 E4.73548
G1 X180.673 Y16.891 E4.76368
G1 X180.726 Y16.746 E4.77138
G1 X180.993 Y16.132 E4.80479
G1 X181.331 Y15.555 E4.83815
G1 X181.736 Y15.022 E4.87155
G1 X181.985 Y14.75 E4.88994
G1 X182.233 Y14.499 E4.90755
G1 X182.389 Y14.348 E4.91838
G1 X182.897 Y13.912 E4.95178
G1 X183.453 Y13.54 E4.98515
G1 X184.049 Y13.237 E5.01851
G1 X184.417 Y13.093 E5.03823
G1 X184.728 Y12.983 E5.05468
G1 X185.619 Y12.748 E5.10066
G1 X185.749 Y12.725 E5.10724
G1 X186.566 Y12.641 E5.14822
G1 X186.917 Y12.631 E5.16574
G1 X187.076 Y12.629 E5.17367
G1 X198.747 Y12.628 E5.75594
G1 X199.508 Y12.639 E5.79391
G1 X200.462 Y12.735 E5.84174
G1 X200.653 Y12.771 E5.85144
G1 X201.41 Y12.969 E5.89048
G1 X201.62 Y13.04 E5.90154
G1 X202.239 Y13.292 E5.93488
G1 X202.825 Y13.616 E5.96829
G1 X203.276 Y13.934 E5.99582
G1 X203.487 Y14.099 E6.00918
G1 X204.095 Y14.651 E6.05015
G1 X204.25 Y14.814 E6.06137
G1 X204.681 Y15.326 E6.09476
G1 X205.049 Y15.885 E6.12815
G1 X205.459 Y16.77 E6.17681
G1 X205.562 Y17.055 E6.19193
G1 X205.788 Y17.867 E6.23398
G1 X205.818 Y18.018 E6.24166
G1 X205.923 Y18.95 E6.28845
G1 X205.933 Y19.303 E6.30607
G1 X205.935 Y19.462 E6.31401
G1 X205.935 Y31.177 E6.89847
G1 X205.925 Y31.89 E6.93404
G1 X205.876 Y32.557 E6.96741
G1 X205.757 Y33.177 E6.99891
G1 X205.671 Y33.519 E7.0165
G1 X205.469 Y34.157 E7.04989
G1 X205.193 Y34.766 E7.08325
G1 X204.891 Y35.272 E7.11265
G1 X204.72 Y35.527 E7.12796
G1 X204.315 Y36.059 E7.16132
G1 X203.927 Y36.467 E7.18941
G1 X203.746 Y36.639 E7.20187
G1 X203.234 Y37.071 E7.23529
G1 X202.675 Y37.437 E7.26862
G1 X201.968 Y37.779 E7.30781
G1 X201.687 Y37.886 E7.32281
G1 X201.464 Y37.964 E7.33459
G1 X200.732 Y38.165 E7.37247
G1 X200.565 Y38.199 E7.38097
G1 X199.615 Y38.31 E7.42869
G1 X199.28 Y38.32 E7.44541
G1 X199.113 Y38.322 E7.45374
G1 X187.347 Y38.322 E8.04075
G1 X186.67 Y38.312 E8.07453
G1 X186.003 Y38.263 E8.10789
G1 X185.372 Y38.14 E8.13997
G1 X185.038 Y38.055 E8.15716
G1 X184.401 Y37.852 E8.19052
G1 X183.792 Y37.574 E8.22391
G1 X183.271 Y37.26 E8.25426
G1 X182.987 Y37.067 E8.27139
G1 X182.458 Y36.658 E8.30475
G1 X182.085 Y36.303 E8.33044
G1 X181.936 Y36.147 E8.34121
G1 X181.504 Y35.636 E8.37459
G1 X181.136 Y35.078 E8.40794
G1 X180.836 Y34.479 E8.44136
G1 X180.711 Y34.16 E8.45845
G1 X180.609 Y33.874 E8.4736
G1 X180.395 Y33.105 E8.51343
G1 X180.363 Y32.947 E8.52147
G1 X180.254 Y31.996 E8.56922
G1 X180.244 Y31.649 E8.58654
G1 X180.242 Y31.488 E8.59458
G1 X180.242 Y19.705 E9.18243
G1 X180.252 Y19.05 E9.21511
G1 X180.302 Y18.382 E9.24853
G0 F6000 X180.701 Y18.413
G1 F1200 X180.812 Y17.852 E9.27707
G1 X180.894 Y17.53 E9.29364
G1 X181.049 Y17.028 E9.31985
G1 X181.102 Y16.883 E9.32756
G1 X181.36 Y16.292 E9.35973
G1 X181.69 Y15.738 E9.3919
G1 X182.271 Y15.03 E9.43759
G1 X182.511 Y14.787 E9.45463
G1 X182.667 Y14.636 E9.46546
G1 X183.158 Y14.217 E9.49767
G1 X183.696 Y13.862 E9.52983
G1 X184.55 Y13.47 E9.57671
G1 X184.861 Y13.36 E9.59316
G1 X185.689 Y13.142 E9.63588
G1 X185.819 Y13.119 E9.64247
G1 X186.577 Y13.041 E9.68048
G1 X186.928 Y13.031 E9.698
G1 X187.076 Y13.029 E9.70539
G1 X198.747 Y13.028 E10.28765
G1 X199.502 Y13.039 E10.32533
G1 X200.388 Y13.128 E10.36975
G1 X200.579 Y13.164 E10.37945
G1 X201.281 Y13.348 E10.41565
G1 X201.491 Y13.419 E10.42671
G1 X202.088 Y13.663 E10.45889
G1 X202.65 Y13.979 E10.49106
G1 X203.029 Y14.249 E10.51427
G1 X203.24 Y14.414 E10.52764
G1 X203.805 Y14.927 E10.56571
G1 X203.96 Y15.09 E10.57693
G1 X204.375 Y15.583 E10.60908
G1 X204.725 Y16.125 E10.64127
G1 X205.082 Y16.906 E10.68411
G1 X205.185 Y17.191 E10.69923
G1 X205.395 Y17.945 E10.73828
G1 X205.425 Y18.096 E10.74596
G1 X205.523 Y18.962 E10.78944
G1 X205.533 Y19.315 E10.80706
G1 X205.535 Y19.462 E10.81439
G1 X205.535 Y31.171 E11.39856
G1 X205.525 Y31.884 E11.43413
G1 X205.477 Y32.527 E11.4663
G1 X205.369 Y33.079 E11.49436
G1 X205.283 Y33.421 E11.51196
G1 X205.087 Y34.035 E11.54411
G1 X204.817 Y34.621 E11.5763
G1 X204.559 Y35.049 E11.60123
G1 X204.388 Y35.304 E11.61655
G1 X203.996 Y35.816 E11.64872
G1 X203.651 Y36.177 E11.67363
G1 X203.47 Y36.349 E11.68609
G1 X202.976 Y36.764 E11.71828
G1 X202.435 Y37.114 E11.75043
G1 X201.819 Y37.408 E11.78448
G1 X201.555 Y37.508 E11.79856
G1 X201.332 Y37.586 E11.81035
G1 X200.652 Y37.773 E11.84554
G1 X200.485 Y37.807 E11.85404
G1 X199.603 Y37.91 E11.89834
G1 X199.268 Y37.92 E11.91506
G1 X199.113 Y37.922 E11.92279
G1 X187.353 Y37.922 E12.5095
G1 X186.676 Y37.912 E12.54328
G1 X186.033 Y37.863 E12.57546
G1 X185.471 Y37.752 E12.60404
G1 X185.137 Y37.667 E12.62123
G1 X184.523 Y37.47 E12.6534
G1 X183.938 Y37.198 E12.68559
G1 X183.496 Y36.929 E12.7114
G1 X183.212 Y36.736 E12.72853
G1 X182.703 Y36.341 E12.76068
G1 X182.375 Y36.027 E12.78333
G1 X182.226 Y35.871 E12.79409
G1 X181.81 Y35.378 E12.82627
G1 X181.459 Y34.837 E12.85845
G1 X181.088 Y34.026 E12.90294
G1 X180.986 Y33.74 E12.91809
G1 X180.787 Y33.025 E12.95512
G1 X180.755 Y32.867 E12.96316
G1 X180.654 Y31.985 E13.00745
G1 X180.644 Y31.638 E13.02477
G1 X180.642 Y31.488 E13.03225
G1 X180.642 Y19.711 E13.61981
G1 X180.652 Y19.056 E13.65249
G1 X180.701 Y18.413 E13.68467
G1 F3000 E7.68467
;MESH:2.2.5-flatMX.stl(15)
G0 F6000 X185.177 Y19.194
G0 X186.46 Y19.193
G0 X186.686 Y31.985
G0 X186.637 Y32.071
;TYPE:WALL-INNER
G1 F3000 E13.68467
G1 F1200 X186.493 Y31.942 E13.69431
G1 X186.442 Y31.786 E13.7025
G1 X186.441 Y19.19 E14.33092
G1 X186.493 Y19.023 E14.33964
G1 X186.622 Y18.879 E14.34929
G1 X186.775 Y18.829 E14.35732
G1 X199.376 Y18.828 E14.98598
G1 X199.54 Y18.879 E14.99455
G1 X199.685 Y19.009 E15.00427
G1 X199.735 Y19.163 E15.01235
G1 X199.736 Y31.763 E15.64096
G1 X199.685 Y31.927 E15.64953
G1 X199.556 Y32.071 E15.65918
G1 X199.4 Y32.122 E15.66737
G1 X186.804 Y32.123 E16.29578
G1 X186.637 Y32.071 E16.30451
G0 F6000 X186.435 Y32.427
;TYPE:WALL-OUTER
G1 F1200 X186.151 Y32.173 E16.32352
G1 X186.062 Y31.929 E16.33647
G1 X186.042 Y31.824 E16.34181
G1 X186.041 Y19.127 E16.97526
G1 X186.137 Y18.822 E16.99122
G1 X186.391 Y18.536 E17.0103
G1 X186.637 Y18.448 E17.02333
G1 X186.74 Y18.429 E17.02856
G1 X199.437 Y18.428 E17.66202
G1 X199.742 Y18.523 E17.67795
G1 X200.027 Y18.778 E17.69703
G1 X200.115 Y19.02 E17.70988
G1 X200.135 Y19.126 E17.71526
G1 X200.136 Y31.823 E18.34872
G1 X200.041 Y32.13 E18.36475
G1 X199.787 Y32.413 E18.38372
G1 X199.543 Y32.502 E18.39668
G1 X199.438 Y32.522 E18.40201
G1 X186.741 Y32.523 E19.03547
G1 X186.435 Y32.427 E19.05147
G0 F6000 X186.652 Y32.045
G0 X186.832 Y31.723
;TYPE:SKIN
G1 F1200 X186.831 Y19.248 E19.67385
G1 X186.841 Y19.219 E19.67538
G1 X199.318 Y19.218 E20.29786
G1 X199.345 Y19.228 E20.29929
G1 X199.346 Y31.705 E20.92177
G1 X199.337 Y31.732 E20.92319
G1 X186.862 Y31.733 E21.54557
G1 X186.832 Y31.723 E21.54715
G0 F6000 X187.135 Y31.572
G1 F1200 X186.99 Y31.426 E21.55742
G0 F6000 X186.99 Y30.86
G1 F1200 X187.701 Y31.572 E21.60762
G0 F6000 X188.267 Y31.572
G1 F1200 X186.99 Y30.295 E21.69772
G0 F6000 X186.99 Y29.729
G1 F1200 X188.832 Y31.572 E21.82772
G0 F6000 X189.398 Y31.572
G1 F1200 X186.99 Y29.163 E21.99765
G0 F6000 X186.99 Y28.598
G1 F1200 X189.964 Y31.572 E22.20748
G0 F6000 X190.529 Y31.572
G1 F1200 X186.99 Y28.032 E22.45721
G0 F6000 X186.99 Y27.466
G1 F1200 X191.095 Y31.572 E22.74688
G0 F6000 X191.661 Y31.572
G1 F1200 X186.99 Y26.901 E23.07644
G0 F6000 X186.99 Y26.335
G1 F1200 X192.226 Y31.572 E23.4459
G0 F6000 X192.792 Y31.572
G1 F1200 X186.99 Y25.769 E23.8553
G0 F6000 X186.99 Y25.204
G1 F1200 X193.358 Y31.572 E24.3046
G0 F6000 X193.924 Y31.572
G1 F1200 X186.99 Y24.638 E24.79383
G0 F6000 X186.99 Y24.072
G1 F1200 X194.489 Y31.572 E25.32296
G0 F6000 X195.055 Y31.572
G1 F1200 X186.99 Y23.507 E25.89199
G0 F6000 X186.99 Y22.941
G1 F1200 X195.621 Y31.572 E26.50095
G0 F6000 X196.186 Y31.572
G1 F1200 X186.99 Y22.375 E27.14982
G0 F6000 X186.99 Y21.81
G1 F1200 X196.752 Y31.572 E27.83858
G0 F6000 X197.318 Y31.572
G1 F1200 X186.99 Y21.244 E28.56727
G0 F6000 X186.99 Y20.678
G1 F1200 X197.883 Y31.572 E29.33587
G0 F6000 X198.449 Y31.572
G1 F1200 X186.99 Y20.112 E30.1444
G0 F6000 X186.99 Y19.547
G1 F1200 X199.015 Y31.572 E30.99283
G0 F6000 X199.184 Y31.176
G1 F1200 X187.387 Y19.378 E31.8252
G0 F6000 X187.953 Y19.378
G1 F1200 X199.184 Y30.61 E32.61765
G0 F6000 X199.184 Y30.044
G1 F1200 X188.518 Y19.378 E33.37019
G0 F6000 X189.084 Y19.378
G1 F1200 X199.184 Y29.479 E34.08284
G0 F6000 X199.184 Y28.913
G1 F1200 X189.65 Y19.378 E34.75555
G0 F6000 X190.215 Y19.378
G1 F1200 X199.184 Y28.347 E35.38836
G0 F6000 X199.184 Y27.782
G1 F1200 X190.781 Y19.378 E35.98127
G0 F6000 X191.347 Y19.378
G1 F1200 X199.184 Y27.216 E36.53425
G0 F6000 X199.184 Y26.65
G1 F1200 X191.913 Y19.378 E37.04729
G0 F6000 X192.478 Y19.378
G1 F1200 X199.184 Y26.085 E37.52047
G0 F6000 X199.184 Y25.519
G1 F1200 X193.044 Y19.378 E37.95372
G0 F6000 X193.61 Y19.378
G1 F1200 X199.184 Y24.953 E38.34703
G0 F6000 X199.184 Y24.388
G1 F1200 X194.175 Y19.378 E38.70048
G0 F6000 X194.741 Y19.378
G1 F1200 X199.184 Y23.822 E39.01399
G0 F6000 X199.184 Y23.256
G1 F1200 X195.307 Y19.378 E39.28757
G0 F6000 X195.872 Y19.378
G1 F1200 X199.184 Y22.691 E39.52128
G0 F6000 X199.184 Y22.125
G1 F1200 X196.438 Y19.378 E39.71506
G0 F6000 X197.004 Y19.378
G1 F1200 X199.184 Y21.559 E39.86891
G0 F6000 X199.184 Y20.994
G1 F1200 X197.569 Y19.378 E39.98289
G0 F6000 X198.135 Y19.378
G1 F1200 X199.184 Y20.428 E40.05694
G0 F6000 X199.184 Y19.862
G1 F1200 X198.701 Y19.378 E40.09105
;MESH:NONMESH
G0 F300 X198.701 Y19.378 Z0.5
G0 F6000 X186.686 Y31.985
G0 X186.458 Y32.596
;TIME_ELAPSED:49.302223
;LAYER:1
;TYPE:WALL-INNER
;MESH:2.2.5-flatMX.stl(15)
G1 F2100 X186.233 Y32.473 E40.09958
G1 X185.995 Y32.176 E40.11224
G1 X185.941 Y31.916 E40.12107
G1 X185.922 Y31.796 E40.12511
G1 X185.921 Y19.155 E40.54555
G1 X185.969 Y18.83 E40.55648
G1 X186.092 Y18.618 E40.56463
G1 X186.386 Y18.382 E40.57717
G1 X186.648 Y18.327 E40.58608
G1 X186.768 Y18.308 E40.59012
G1 X199.404 Y18.307 E41.01039
G1 X199.734 Y18.356 E41.02149
G1 X199.944 Y18.477 E41.02955
G1 X200.081 Y18.614 E41.03599
G1 X200.212 Y18.854 E41.04509
G1 X200.256 Y19.154 E41.05517
G1 X200.257 Y31.79 E41.47545
G1 X200.21 Y32.103 E41.48597
G1 X200.087 Y32.331 E41.49459
G1 X199.952 Y32.466 E41.50094
G1 X199.71 Y32.598 E41.51011
G1 X199.41 Y32.642 E41.52019
G1 X186.77 Y32.643 E41.9406
G1 X186.458 Y32.596 E41.9511
G0 F10500 X186.334 Y32.984
;TYPE:WALL-OUTER
G1 F2100 X186.06 Y32.835 E41.96147
G1 X185.983 Y32.789 E41.96445
G1 X185.775 Y32.58 E41.97426
G1 X185.642 Y32.366 E41.98264
G1 X185.58 Y32.228 E41.98767
G1 X185.545 Y31.974 E41.9962
G1 X185.522 Y31.827 E42.00115
G1 X185.521 Y19.122 E42.42372
G1 X185.546 Y18.978 E42.42858
G1 X185.58 Y18.721 E42.4372
G1 X185.64 Y18.587 E42.44209
G1 X185.778 Y18.366 E42.45075
G1 X185.982 Y18.162 E42.46035
G1 X186.198 Y18.028 E42.4688
G1 X186.336 Y17.966 E42.47383
G1 X186.59 Y17.931 E42.48236
G1 X186.737 Y17.908 E42.48731
G1 X199.441 Y17.907 E42.90985
G1 X199.585 Y17.933 E42.91471
G1 X199.842 Y17.967 E42.92334
G1 X199.981 Y18.029 E42.9284
G1 X200.195 Y18.162 E42.93678
G1 X200.404 Y18.371 E42.94661
G1 X200.598 Y18.726 E42.96007
G1 X200.633 Y18.976 E42.96846
G1 X200.656 Y19.123 E42.97341
G1 X200.657 Y31.827 E43.39595
G1 X200.631 Y31.971 E43.40081
G1 X200.597 Y32.228 E43.40944
G1 X200.449 Y32.504 E43.41985
G1 X200.403 Y32.581 E43.42284
G1 X200.194 Y32.789 E43.43264
G1 X199.838 Y32.984 E43.44614
G1 X199.588 Y33.019 E43.45454
G1 X199.441 Y33.042 E43.45949
G1 X186.736 Y33.043 E43.88206
G1 X186.592 Y33.018 E43.88692
G1 X186.334 Y32.984 E43.89557
G0 F10500 X186.47 Y32.566
G0 X186.583 Y32.22
;TYPE:SKIN
G1 F2100 X186.488 Y32.168 E43.89918
G1 X186.358 Y32.006 E43.90609
G1 X186.312 Y31.762 E43.91434
G1 X186.311 Y19.183 E44.33272
G1 X186.344 Y18.96 E44.34022
G1 X186.556 Y18.745 E44.35026
G1 X186.803 Y18.698 E44.35863
G1 X199.374 Y18.697 E44.77674
G1 X199.606 Y18.731 E44.78454
G1 X199.762 Y18.845 E44.79096
G1 X199.836 Y18.981 E44.79611
G1 X199.866 Y19.184 E44.80294
G1 X199.867 Y31.758 E45.22115
G1 X199.834 Y31.979 E45.22858
G1 X199.721 Y32.147 E45.23532
G1 X199.583 Y32.222 E45.24054
G1 X199.381 Y32.252 E45.24733
G1 X186.802 Y32.253 E45.66571
G1 X186.583 Y32.22 E45.67308
G0 F10500 X199.272 Y32.092
G1 F2100 X199.705 Y31.659 E45.69345
G0 F10500 X199.705 Y31.094
G1 F2100 X198.706 Y32.092 E45.74041
G0 F10500 X198.141 Y32.092
G1 F2100 X199.705 Y30.528 E45.81398
G0 F10500 X199.705 Y29.962
G1 F2100 X197.575 Y32.092 E45.91417
G0 F10500 X197.009 Y32.092
G1 F2100 X199.705 Y29.397 E46.04096
G0 F10500 X199.705 Y28.831
G1 F2100 X196.444 Y32.092 E46.19434
G0 F10500 X195.878 Y32.092
G1 F2100 X199.705 Y28.265 E46.37435
G0 F10500 X199.705 Y27.7
G1 F2100 X195.312 Y32.092 E46.58096
