;FLAVOR:Marlin
;TIME:7884
;Filament used: 5.0903m
;Layer height: 0.2
;MINX:10.456
;MINY:9.623
;MINZ:0.3
;MAXX:209.78
;MAXY:207.167
;MAXZ:11.5
;Generated with Cura_SteamEngine 4.9.1
M140 S70
M105
M190 S70
M104 S200
M105
M109 S200
M82 ;absolute extrusion mode
; Ender 3 Custom Start G-code
G92 E0 ; Reset Extruder
G28 ; Home all axes
G1 Z2.0 F3000 ; Move Z Axis up little to prevent scratching of Heat Bed
G1 X0.1 Y20 Z0.3 F5000.0 ; Move to start position
G1 X0.1 Y200.0 Z0.3 F1500.0 E15 ; Draw the first line
G1 X0.4 Y200.0 Z0.3 F5000.0 ; Move to side a little
G1 X0.4 Y20 Z0.3 F1500.0 E30 ; Draw the second line
G92 E0 ; Reset Extruder
G1 Z2.0 F3000 ; Move Z Axis up little to prevent scratching of Heat Bed
G1 X5 Y20 Z0.3 F5000.0 ; Move over to prevent blob squish
G92 E0
G92 E0
G1 F3600 E-7
;LAYER_COUNT:32
;LAYER:0
M106 S255
G0 F6000 X186.091 Y181.179 Z0.3
;TYPE:SKIRT
G1 F3600 E0
G1 F1200 X186.248 Y181.028 E0.01087
G1 X186.757 Y180.594 E0.04424
G1 X187.314 Y180.223 E0.07763
G1 X187.912 Y179.922 E0.11103
G1 X188.24 Y179.793 E0.12861
G1 X188.53 Y179.689 E0.14398
G1 X189.35 Y179.463 E0.18642
G1 X189.499 Y179.434 E0.19399
G1 X190.41 Y179.333 E0.23972
G1 X190.761 Y179.323 E0.25724
G1 X190.92 Y179.321 E0.26517
G1 X202.592 Y179.32 E0.84749
G1 X203.352 Y179.331 E0.88541
G1 X204.019 Y179.38 E0.91878
G1 X204.65 Y179.503 E0.95085
G1 X204.984 Y179.588 E0.96805
G1 X205.544 Y179.762 E0.9973
G1 X205.682 Y179.813 E1.00464
G1 X206.295 Y180.082 E1.03804
G1 X206.871 Y180.422 E1.07141
G1 X207.645 Y181.051 E1.12117
G1 X207.923 Y181.326 E1.14068
G1 X208.073 Y181.482 E1.15147
G1 X208.507 Y181.991 E1.18484
G1 X208.877 Y182.548 E1.21821
G1 X209.178 Y183.145 E1.25156
G1 X209.304 Y183.462 E1.26858
G1 X209.409 Y183.753 E1.28401
G1 X209.635 Y184.57 E1.32631
G1 X209.664 Y184.717 E1.33378
G1 X209.768 Y185.642 E1.38022
G1 X209.778 Y185.995 E1.39784
G1 X209.78 Y186.154 E1.40577
G1 X209.78 Y197.869 E1.99024
G1 X209.77 Y198.582 E2.02581
G1 X209.721 Y199.249 E2.05918
G1 X209.61 Y199.836 E2.08898
G1 X209.536 Y200.138 E2.10449
G1 X209.358 Y200.724 E2.13505
G1 X209.296 Y200.894 E2.14408
G1 X209.03 Y201.507 E2.17741
G1 X208.692 Y202.085 E2.21082
G1 X208.288 Y202.618 E2.24419
G1 X208.05 Y202.879 E2.26181
G1 X207.776 Y203.156 E2.28125
G1 X207.618 Y203.308 E2.29219
G1 X207.109 Y203.742 E2.32556
G1 X206.552 Y204.112 E2.35892
G1 X205.955 Y204.414 E2.3923
G1 X205.599 Y204.553 E2.41136
G1 X205.29 Y204.662 E2.42771
G1 X204.403 Y204.895 E2.47346
G1 X204.273 Y204.918 E2.48005
G1 X203.462 Y205.002 E2.52073
G1 X203.122 Y205.012 E2.5377
G1 X202.957 Y205.014 E2.54593
G1 X191.191 Y205.014 E3.13294
G1 X190.514 Y205.004 E3.16672
G1 X189.847 Y204.955 E3.20008
G1 X189.255 Y204.842 E3.23015
G1 X188.947 Y204.766 E3.24598
G1 X188.309 Y204.567 E3.27932
G1 X187.698 Y204.294 E3.31271
G1 X187.229 Y204.019 E3.33983
G1 X186.921 Y203.818 E3.35818
G1 X186.383 Y203.419 E3.3916
G1 X185.957 Y203.023 E3.42062
G1 X185.806 Y202.867 E3.43145
G1 X185.37 Y202.359 E3.46485
G1 X184.998 Y201.803 E3.49822
G1 X184.695 Y201.207 E3.53158
G1 X184.551 Y200.84 E3.55125
G1 X184.442 Y200.532 E3.56755
G1 X184.206 Y199.637 E3.61373
G1 X184.182 Y199.501 E3.62062
G1 X184.099 Y198.687 E3.66144
G1 X184.089 Y198.334 E3.67906
G1 X184.087 Y198.175 E3.68699
G1 X184.087 Y186.421 E4.2734
G1 X184.097 Y185.744 E4.30718
G1 X184.146 Y185.077 E4.34054
G1 X184.263 Y184.469 E4.37143
G1 X184.339 Y184.165 E4.38707
G1 X184.54 Y183.527 E4.42044
G1 X184.815 Y182.917 E4.45382
G1 X185.082 Y182.463 E4.4801
G1 X185.283 Y182.155 E4.49845
G1 X185.682 Y181.617 E4.53186
G1 X186.091 Y181.179 E4.56176
G0 F6000 X186.368 Y181.467
G1 F1200 X186.525 Y181.316 E4.57263
G1 X187.017 Y180.899 E4.60481
G1 X187.556 Y180.546 E4.63695
G1 X188.375 Y180.169 E4.68193
G1 X188.665 Y180.065 E4.6973
G1 X189.427 Y179.856 E4.73672
G1 X189.576 Y179.827 E4.7443
G1 X190.421 Y179.733 E4.78671
G1 X190.772 Y179.723 E4.80423
G1 X190.92 Y179.721 E4.81162
G1 X202.592 Y179.72 E5.39393
G1 X203.346 Y179.731 E5.43156
G1 X203.989 Y179.78 E5.46373
G1 X204.551 Y179.891 E5.49231
G1 X204.885 Y179.976 E5.5095
G1 X205.406 Y180.137 E5.53671
G1 X205.544 Y180.188 E5.54405
G1 X206.133 Y180.449 E5.57619
G1 X206.686 Y180.78 E5.60834
G1 X207.366 Y181.338 E5.65223
G1 X207.634 Y181.603 E5.67103
G1 X207.784 Y181.759 E5.68183
G1 X208.201 Y182.25 E5.71397
G1 X208.555 Y182.79 E5.74618
G1 X208.927 Y183.598 E5.79056
G1 X209.032 Y183.889 E5.80599
G1 X209.243 Y184.648 E5.8453
G1 X209.272 Y184.795 E5.85277
G1 X209.368 Y185.654 E5.89589
G1 X209.378 Y186.007 E5.91351
G1 X209.38 Y186.154 E5.92085
G1 X209.38 Y197.863 E6.50501
G1 X209.37 Y198.576 E6.54059
G1 X209.322 Y199.219 E6.57276
G1 X209.222 Y199.741 E6.59927
G1 X209.148 Y200.043 E6.61478
G1 X208.982 Y200.587 E6.64316
G1 X208.92 Y200.757 E6.65219
G1 X208.662 Y201.347 E6.68431
G1 X208.333 Y201.902 E6.7165
G1 X207.763 Y202.6 E6.76146
G1 X207.499 Y202.867 E6.78019
G1 X207.341 Y203.019 E6.79113
G1 X206.85 Y203.437 E6.8233
G1 X206.31 Y203.79 E6.85549
G1 X205.466 Y204.176 E6.90179
G1 X205.157 Y204.285 E6.91814
G1 X204.333 Y204.501 E6.96064
G1 X204.203 Y204.524 E6.96722
G1 X203.45 Y204.602 E7.00499
G1 X203.11 Y204.612 E7.02196
G1 X202.957 Y204.614 E7.0296
G1 X191.197 Y204.614 E7.6163
G1 X190.52 Y204.604 E7.65008
G1 X189.877 Y204.555 E7.68226
G1 X189.351 Y204.454 E7.70898
G1 X189.043 Y204.378 E7.72481
G1 X188.428 Y204.185 E7.75696
G1 X187.842 Y203.917 E7.78911
G1 X187.447 Y203.684 E7.81199
G1 X187.139 Y203.483 E7.83034
G1 X186.622 Y203.098 E7.8625
G1 X186.245 Y202.745 E7.88827
G1 X186.094 Y202.589 E7.8991
G1 X185.675 Y202.098 E7.9313
G1 X185.32 Y201.56 E7.96346
G1 X184.928 Y200.707 E8.01029
G1 X184.819 Y200.399 E8.02659
G1 X184.6 Y199.568 E8.06947
G1 X184.576 Y199.432 E8.07636
G1 X184.499 Y198.675 E8.11432
G1 X184.489 Y198.322 E8.13194
G1 X184.487 Y198.175 E8.13927
G1 X184.487 Y186.427 E8.72538
G1 X184.497 Y185.75 E8.75916
G1 X184.546 Y185.107 E8.79133
G1 X184.651 Y184.566 E8.81883
G1 X184.727 Y184.262 E8.83446
G1 X184.922 Y183.647 E8.86665
G1 X185.191 Y183.062 E8.89877
G1 X185.417 Y182.681 E8.92087
G1 X185.618 Y182.373 E8.93922
G1 X186.003 Y181.856 E8.97138
G1 X186.368 Y181.467 E8.99799
G1 F3600 E1.99799
;MESH:2.2.5-flatMX.stl(15)
G0 F6000 X189.164 Y185.236
G0 X190.305 Y185.885
G0 X190.385 Y198.466
G0 X190.287 Y198.481
;TYPE:WALL-INNER
G1 F3600 E8.99799
G1 F1200 X190.286 Y185.882 E9.62656
G1 X190.338 Y185.715 E9.63529
G1 X190.468 Y185.569 E9.64504
G1 X190.621 Y185.521 E9.65304
G1 X203.218 Y185.52 E10.28151
G1 X203.386 Y185.573 E10.2903
G1 X203.532 Y185.702 E10.30002
G1 X203.58 Y185.855 E10.30802
G1 X203.581 Y198.452 E10.93648
G1 X203.529 Y198.619 E10.94521
G1 X203.4 Y198.764 E10.95489
G1 X203.247 Y198.814 E10.96292
G1 X190.648 Y198.815 E11.59149
G1 X190.481 Y198.763 E11.60022
G1 X190.337 Y198.634 E11.60986
G1 X190.287 Y198.481 E11.61789
G0 F6000 X189.906 Y198.619
;TYPE:WALL-OUTER
G1 F1200 X189.887 Y198.516 E11.62312
G1 X189.886 Y185.819 E12.25657
G1 X189.982 Y185.514 E12.27252
G1 X190.236 Y185.228 E12.29161
G1 X190.478 Y185.141 E12.30444
G1 X190.584 Y185.121 E12.30982
G1 X203.281 Y185.12 E12.94328
G1 X203.587 Y185.216 E12.95928
G1 X203.873 Y185.47 E12.97836
G1 X203.96 Y185.712 E12.99119
G1 X203.98 Y185.818 E12.99657
G1 X203.981 Y198.515 E13.63003
G1 X203.885 Y198.821 E13.64603
G1 X203.631 Y199.107 E13.66511
G1 X203.385 Y199.195 E13.67814
G1 X203.282 Y199.214 E13.68337
G1 X190.585 Y199.215 E14.31683
G1 X190.28 Y199.119 E14.33278
G1 X189.994 Y198.865 E14.35186
G1 X189.906 Y198.619 E14.3649
G0 F6000 X190.33 Y198.505
G0 X190.677 Y198.415
;TYPE:SKIN
G1 F1200 X190.676 Y185.942 E14.98718
G1 X190.686 Y185.911 E14.9888
G1 X203.159 Y185.91 E15.61108
G1 X203.19 Y185.92 E15.61271
G1 X203.191 Y198.391 E16.23489
G1 X203.181 Y198.424 E16.23661
G1 X190.706 Y198.425 E16.85899
G1 X190.677 Y198.415 E16.86052
G0 F6000 X190.91 Y198.264
G1 F1200 X190.836 Y198.19 E16.86574
G0 F6000 X190.836 Y197.624
G1 F1200 X191.476 Y198.264 E16.9109
G0 F6000 X192.041 Y198.264
G1 F1200 X190.836 Y197.058 E16.99595
G0 F6000 X190.836 Y196.492
G1 F1200 X192.607 Y198.264 E17.12094
G0 F6000 X193.173 Y198.264
G1 F1200 X190.836 Y195.927 E17.28583
G0 F6000 X190.836 Y195.361
G1 F1200 X193.738 Y198.264 E17.49061
G0 F6000 X194.304 Y198.264
G1 F1200 X190.836 Y194.795 E17.73534
G0 F6000 X190.836 Y194.23
G1 F1200 X194.87 Y198.264 E18.01996
G0 F6000 X195.435 Y198.264
G1 F1200 X190.836 Y193.664 E18.34448
G0 F6000 X190.836 Y193.098
G1 F1200 X196.001 Y198.264 E18.70893
G0 F6000 X196.567 Y198.264
G1 F1200 X190.836 Y192.533 E19.11328
G0 F6000 X190.835 Y191.966
G1 F1200 X197.132 Y198.264 E19.55761
G0 F6000 X197.698 Y198.264
G1 F1200 X190.835 Y191.401 E20.04183
G0 F6000 X190.835 Y190.835
G1 F1200 X198.264 Y198.264 E20.56598
G0 F6000 X198.829 Y198.264
G1 F1200 X190.835 Y190.269 E21.13004
G0 F6000 X190.835 Y189.704
G1 F1200 X199.395 Y198.264 E21.73399
G0 F6000 X199.961 Y198.264
G1 F1200 X190.835 Y189.138 E22.37788
G0 F6000 X190.835 Y188.572
G1 F1200 X200.526 Y198.264 E23.06167
G0 F6000 X201.092 Y198.264
G1 F1200 X190.835 Y188.006 E23.78539
G0 F6000 X190.835 Y187.441
G1 F1200 X201.658 Y198.264 E24.54901
G0 F6000 X202.224 Y198.264
G1 F1200 X190.835 Y186.875 E25.35257
G0 F6000 X190.835 Y186.309
G1 F1200 X202.789 Y198.264 E26.19602
G0 F6000 X203.03 Y197.938
G1 F1200 X191.162 Y186.07 E27.03337
G0 F6000 X191.727 Y186.07
G1 F1200 X203.03 Y197.373 E27.83086
G0 F6000 X203.03 Y196.807
G1 F1200 X192.293 Y186.07 E28.58841
G0 F6000 X192.859 Y186.07
G1 F1200 X203.03 Y196.241 E29.30603
G0 F6000 X203.03 Y195.676
G1 F1200 X193.424 Y186.07 E29.98379
G0 F6000 X193.99 Y186.07
G1 F1200 X203.03 Y195.11 E30.62161
G0 F6000 X203.03 Y194.544
G1 F1200 X194.556 Y186.07 E31.2195
G0 F6000 X195.121 Y186.07
G1 F1200 X203.03 Y193.979 E31.77752
G0 F6000 X203.03 Y193.413
G1 F1200 X195.687 Y186.07 E32.29561
G0 F6000 X196.253 Y186.07
G1 F1200 X203.03 Y192.847 E32.77376
G0 F6000 X203.03 Y192.282
G1 F1200 X196.818 Y186.07 E33.21205
G0 F6000 X197.384 Y186.07
G1 F1200 X203.03 Y191.716 E33.61041
G0 F6000 X203.03 Y191.15
G1 F1200 X197.95 Y186.07 E33.96883
G0 F6000 X198.515 Y186.07
G1 F1200 X203.03 Y190.585 E34.28739
G0 F6000 X203.03 Y190.019
G1 F1200 X199.081 Y186.07 E34.56601
G0 F6000 X199.647 Y186.07
G1 F1200 X203.03 Y189.453 E34.8047
G0 F6000 X203.03 Y188.888
G1 F1200 X200.213 Y186.07 E35.00349
G0 F6000 X200.778 Y186.07
G1 F1200 X203.03 Y188.322 E35.16238
G0 F6000 X203.03 Y187.756
G1 F1200 X201.344 Y186.07 E35.28133
G0 F6000 X201.91 Y186.07
G1 F1200 X203.03 Y187.19 E35.36036
G0 F6000 X203.03 Y186.625
G1 F1200 X202.475 Y186.07 E35.39952
G1 F3600 E28.39952
;MESH:NONMESH
G0 F300 X202.475 Y186.07 Z0.5
G0 F6000 X190.427 Y198.588
G0 X189.81 Y198.789
;TIME_ELAPSED:45.476091
;LAYER:1
;TYPE:WALL-INNER
;MESH:2.2.5-flatMX.stl(15)
G1 F3600 E35.39952
G1 F2100 X189.767 Y198.488 E35.40963
G1 X189.766 Y185.847 E35.83007
G1 X189.812 Y185.539 E35.84043
G1 X189.903 Y185.37 E35.84681
G1 X190.082 Y185.17 E35.85574
G1 X190.312 Y185.044 E35.86446
G1 X190.612 Y185.001 E35.87454
G1 X203.253 Y185 E36.29498
G1 X203.562 Y185.046 E36.30537
G1 X203.731 Y185.137 E36.31176
G1 X203.931 Y185.316 E36.32068
G1 X204.057 Y185.546 E36.32941
G1 X204.1 Y185.846 E36.33949
G1 X204.101 Y198.487 E36.75993
G1 X204.055 Y198.796 E36.77032
G1 X203.964 Y198.965 E36.7767
G1 X203.785 Y199.165 E36.78563
G1 X203.555 Y199.291 E36.79435
G1 X203.254 Y199.334 E36.80447
G1 X190.613 Y199.335 E37.22491
G1 X190.305 Y199.289 E37.23526
G1 X190.135 Y199.197 E37.24169
G1 X189.936 Y199.019 E37.25057
G1 X189.81 Y198.789 E37.2593
G0 F10500 X189.424 Y198.917
;TYPE:WALL-OUTER
G1 F2100 X189.39 Y198.666 E37.26772
G1 X189.367 Y198.519 E37.27267
G1 X189.366 Y185.814 E37.69524
G1 X189.391 Y185.67 E37.7001
G1 X189.425 Y185.414 E37.70869
G1 X189.574 Y185.138 E37.71912
G1 X189.829 Y184.852 E37.73187
G1 X190.184 Y184.658 E37.74532
G1 X190.434 Y184.624 E37.75371
G1 X190.581 Y184.601 E37.75866
G1 X203.286 Y184.6 E38.18123
G1 X203.43 Y184.625 E38.18609
G1 X203.687 Y184.659 E38.19472
G1 X203.963 Y184.808 E38.20515
G1 X204.249 Y185.063 E38.21789
G1 X204.443 Y185.418 E38.23135
G1 X204.477 Y185.668 E38.23974
G1 X204.5 Y185.815 E38.24469
G1 X204.501 Y198.52 E38.66726
G1 X204.476 Y198.664 E38.67212
G1 X204.442 Y198.921 E38.68074
G1 X204.293 Y199.197 E38.69117
G1 X204.038 Y199.483 E38.70392
G1 X203.683 Y199.677 E38.71737
G1 X203.432 Y199.711 E38.7258
G1 X203.285 Y199.734 E38.73075
G1 X190.58 Y199.735 E39.15332
G1 X190.436 Y199.71 E39.15818
G1 X190.18 Y199.676 E39.16677
G1 X189.904 Y199.527 E39.1772
G1 X189.618 Y199.272 E39.18994
G1 X189.424 Y198.917 E39.2034
G0 F10500 X189.842 Y198.78
G0 X190.186 Y198.664
;TYPE:SKIN
G1 F2100 X190.157 Y198.461 E39.21022
G1 X190.156 Y185.879 E39.6287
G1 X190.224 Y185.595 E39.63841
G1 X190.437 Y185.42 E39.64758
G1 X190.639 Y185.391 E39.65437
G1 X203.222 Y185.39 E40.07288
G1 X203.507 Y185.46 E40.08264
G1 X203.681 Y185.671 E40.09174
G1 X203.71 Y185.873 E40.09852
G1 X203.711 Y198.456 E40.51704
G1 X203.641 Y198.741 E40.5268
G1 X203.43 Y198.915 E40.53589
G1 X203.227 Y198.944 E40.54271
G1 X190.645 Y198.945 E40.96119
G1 X190.36 Y198.876 E40.97095
G1 X190.186 Y198.664 E40.98007
G0 F10500 X190.325 Y185.855
G1 F2100 X190.626 Y185.554 E40.99423
G0 F10500 X191.196 Y185.55
G1 F2100 X190.315 Y186.43 E41.03564
G0 F10500 X190.315 Y186.996
G1 F2100 X191.761 Y185.55 E41.10366
G0 F10500 X192.327 Y185.55
G1 F2100 X190.315 Y187.562 E41.1983
G0 F10500 X190.315 Y188.127
G1 F2100 X192.893 Y185.55 E41.31953
G0 F10500 X193.458 Y185.55
G1 F2100 X190.315 Y188.693 E41.46737
G0 F10500 X190.315 Y189.259
G1 F2100 X194.024 Y185.55 E41.64183
G0 F10500 X194.59 Y185.55
G1 F2100 X190.315 Y189.824 E41.84289
G0 F10500 X190.316 Y190.389
G1 F2100 X195.155 Y185.55 E42.0705
G0 F10500 X195.721 Y185.55
G1 F2100 X190.316 Y190.955 E42.32474
G0 F10500 X190.316 Y191.521
G1 F2100 X196.287 Y185.55 E42.60559
G0 F10500 X196.852 Y185.55
G1 F2100 X190.316 Y192.086 E42.91303
G0 F10500 X190.316 Y192.652
G1 F2100 X197.419 Y185.549 E43.24713
G0 F10500 X197.984 Y185.549
G1 F2100 X190.316 Y193.218 E43.60783
G0 F10500 X190.316 Y193.784
G1 F2100 X198.55 Y185.549 E43.99516
G0 F10500 X199.116 Y185.549
G1 F2100 X190.317 Y194.349 E44.40906
G0 F10500 X190.317 Y194.914
G1 F2100 X199.682 Y185.549 E44.84956
G0 F10500 X200.247 Y185.549
G1 F2100 X190.317 Y195.48 E45.31666
G0 F10500 X190.317 Y196.046
G1 F2100 X200.813 Y185.549 E45.81038
G0 F10500 X201.379 Y185.549
G1 F2100 X190.317 Y196.611 E46.33071
G0 F10500 X190.317 Y197.177
G1 F2100 X201.944 Y185.549 E46.87763
G0 F10500 X202.51 Y185.549
G1 F2100 X190.317 Y197.743 E47.45117
G0 F10500 X190.317 Y198.308
G1 F2100 X203.076 Y185.549 E48.05132
G0 F10500 X203.494 Y185.696
G1 F2100 X190.457 Y198.734 E48.66456
G0 F10500 X190.973 Y198.783
G1 F2100 X203.549 Y186.208 E49.25608
G0 F10500 X203.549 Y186.773
G1 F2100 X191.538 Y198.783 E49.82101
G0 F10500 X192.104 Y198.783
G1 F2100 X203.549 Y187.339 E50.35933
G0 F10500 X203.549 Y187.905
G1 F2100 X192.67 Y198.783 E50.87102
G0 F10500 X193.236 Y198.783
G1 F2100 X203.549 Y188.47 E51.35611
G0 F10500 X203.549 Y189.036
G1 F2100 X193.801 Y198.783 E51.8146
G0 F10500 X194.367 Y198.783
G1 F2100 X203.549 Y189.602 E52.24647
G0 F10500 X203.549 Y190.167
G1 F2100 X194.933 Y198.783 E52.65174
G0 F10500 X195.498 Y198.783
G1 F2100 X203.549 Y190.733 E53.03041
G0 F10500 X203.549 Y191.299
G1 F2100 X196.064 Y198.783 E53.38246
G0 F10500 X196.63 Y198.783
G1 F2100 X203.549 Y191.864 E53.70791
G0 F10500 X203.549 Y192.429
G1 F2100 X197.195 Y198.783 E54.00678
G0 F10500 X197.761 Y198.783
G1 F2100 X203.549 Y192.995 E54.27903
G0 F10500 X203.549 Y193.561
G1 F2100 X198.327 Y198.783 E54.52466
G0 F10500 X198.892 Y198.783
G1 F2100 X203.549 Y194.126 E54.74371
G0 F10500 X203.549 Y194.692
G1 F2100 X199.458 Y198.783 E54.93614
G0 F10500 X200.024 Y198.783
G1 F2100 X203.549 Y195.258 E55.10194
G0 F10500 X203.549 Y195.824
G1 F2100 X200.589 Y198.783 E55.24115
G0 F10500 X201.155 Y198.783
G1 F2100 X203.549 Y196.389 E55.35376
G0 F10500 X203.549 Y196.955
G1 F2100 X201.721 Y198.783 E55.43974
G0 F10500 X202.286 Y198.783
G1 F2100 X203.549 Y197.521 E55.49912
G0 F10500 X203.549 Y198.086
G1 F2100 X202.852 Y198.783 E55.53191
G0 F10500 X203.733 Y185.458
;TYPE:SKIN
G1 F2100 X203.788 Y185.402 E55.53321
G0 F10500 X203.621 Y185.583
