;FLAVOR:Marlin
;TIME:7236
;Filament used: 5.08185m
;Layer height: 0.2
;MINX:9.124
;MINY:12.241
;MINZ:0.3
;MAXX:209.595
;MAXY:206.738
;MAXZ:11.5
;Generated with Cura_SteamEngine 4.9.0
M140 S70
M105
M190 S70
M104 S200
M105
M109 S200
M82 ;absolute extrusion mode
; Ender 3 Custom Start G-code
G92 E0 ; Reset Extruder
G28 ; Home all axes
G1 Z2.0 F3000 ; Move Z Axis up little to prevent scratching of Heat Bed
G1 X0.1 Y20 Z0.3 F5000.0 ; Move to start position
G1 X0.1 Y200.0 Z0.3 F1500.0 E15 ; Draw the first line
G1 X0.4 Y200.0 Z0.3 F5000.0 ; Move to side a little
G1 X0.4 Y20 Z0.3 F1500.0 E30 ; Draw the second line
G92 E0 ; Reset Extruder
G1 Z2.0 F3000 ; Move Z Axis up little to prevent scratching of Heat Bed
G1 X5 Y20 Z0.3 F5000.0 ; Move over to prevent blob squish
G92 E0
G92 E0
G1 F3000 E-7
;LAYER_COUNT:32
;LAYER:0
M106 S255
G0 F18000 X182.016 Y17.995 Z0.3
;TYPE:SKIRT
G1 F3000 E0
G1 F1500 X182.138 Y17.366 E0.03197
G1 X182.22 Y17.044 E0.04854
G1 X182.395 Y16.483 E0.07786
G1 X182.449 Y16.337 E0.08563
G1 X182.718 Y15.725 E0.11898
G1 X183.058 Y15.149 E0.15235
G1 X183.465 Y14.618 E0.18573
G1 X183.7 Y14.362 E0.20307
G1 X183.947 Y14.112 E0.2206
G1 X184.103 Y13.961 E0.23143
G1 X184.611 Y13.525 E0.26483
G1 X185.167 Y13.153 E0.2982
G1 X185.763 Y12.85 E0.33156
G1 X186.131 Y12.706 E0.35128
G1 X186.442 Y12.596 E0.36773
G1 X187.333 Y12.361 E0.41371
G1 X187.463 Y12.338 E0.42029
G1 X188.274 Y12.254 E0.46097
G1 X188.614 Y12.244 E0.47794
G1 X188.779 Y12.242 E0.48617
G1 X200.462 Y12.241 E1.06904
G1 X201.222 Y12.252 E1.10696
G1 X201.889 Y12.301 E1.14033
G1 X202.481 Y12.414 E1.17039
G1 X202.789 Y12.49 E1.18622
G1 X203.381 Y12.672 E1.21712
G1 X203.544 Y12.732 E1.22579
G1 X204.157 Y13 E1.25916
G1 X204.734 Y13.339 E1.29255
G1 X205.266 Y13.745 E1.32594
G1 X205.518 Y13.976 E1.34299
G1 X205.82 Y14.275 E1.3642
G1 X205.961 Y14.423 E1.37439
G1 X206.392 Y14.934 E1.40775
G1 X206.76 Y15.493 E1.44114
G1 X207.173 Y16.383 E1.49009
G1 X207.276 Y16.668 E1.5052
G1 X207.502 Y17.48 E1.54726
G1 X207.532 Y17.631 E1.55494
G1 X207.637 Y18.563 E1.60173
G1 X207.647 Y18.916 E1.61935
G1 X207.649 Y19.075 E1.62728
G1 X207.649 Y30.79 E2.21174
G1 X207.639 Y31.503 E2.24732
G1 X207.59 Y32.17 E2.28068
G1 X207.466 Y32.808 E2.31311
G1 X207.376 Y33.161 E2.33128
G1 X207.173 Y33.798 E2.36464
G1 X206.894 Y34.406 E2.39801
G1 X206.538 Y34.988 E2.43205
G1 X206.356 Y35.248 E2.44788
G1 X205.94 Y35.773 E2.4813
G1 X205.628 Y36.094 E2.50364
G1 X205.463 Y36.251 E2.515
G1 X204.952 Y36.682 E2.54835
G1 X204.393 Y37.05 E2.58174
G1 X203.485 Y37.468 E2.63161
G1 X203.202 Y37.569 E2.6466
G1 X202.398 Y37.79 E2.6882
G1 X202.245 Y37.82 E2.69598
G1 X201.326 Y37.923 E2.74212
G1 X200.975 Y37.933 E2.75963
G1 X200.816 Y37.935 E2.76757
G1 X189.061 Y37.935 E3.35403
G1 X188.384 Y37.925 E3.38781
G1 X187.717 Y37.876 E3.42117
G1 X187.086 Y37.753 E3.45325
G1 X186.752 Y37.668 E3.47044
G1 X186.115 Y37.465 E3.50379
G1 X185.506 Y37.187 E3.53719
G1 X184.985 Y36.873 E3.56754
G1 X184.701 Y36.68 E3.58467
G1 X184.172 Y36.271 E3.61803
G1 X183.799 Y35.916 E3.64372
G1 X183.65 Y35.76 E3.65449
G1 X183.218 Y35.249 E3.68787
G1 X182.85 Y34.691 E3.72122
G1 X182.55 Y34.092 E3.75464
G1 X182.425 Y33.773 E3.77173
G1 X182.323 Y33.487 E3.78688
G1 X182.109 Y32.718 E3.82671
G1 X182.077 Y32.56 E3.83475
G1 X181.968 Y31.609 E3.8825
G1 X181.958 Y31.262 E3.89982
G1 X181.956 Y31.101 E3.90786
G1 X181.956 Y19.318 E4.49571
G1 X181.966 Y18.663 E4.52839
G1 X182.016 Y17.995 E4.56181
G0 F18000 X182.415 Y18.026
G1 F1500 X182.526 Y17.465 E4.59035
G1 X182.608 Y17.143 E4.60692
G1 X182.77 Y16.622 E4.63414
G1 X182.824 Y16.476 E4.64191
G1 X183.085 Y15.887 E4.67405
G1 X183.416 Y15.334 E4.7062
G1 X183.986 Y14.642 E4.75093
G1 X184.225 Y14.4 E4.7679
G1 X184.381 Y14.249 E4.77873
G1 X184.872 Y13.83 E4.81094
G1 X185.41 Y13.475 E4.84309
G1 X186.264 Y13.083 E4.88997
G1 X186.575 Y12.973 E4.90643
G1 X187.403 Y12.755 E4.94915
G1 X187.533 Y12.732 E4.95573
G1 X188.286 Y12.654 E4.9935
G1 X188.626 Y12.644 E5.01047
G1 X188.779 Y12.642 E5.01811
G1 X200.462 Y12.641 E5.60097
G1 X201.216 Y12.652 E5.6386
G1 X201.859 Y12.701 E5.67077
G1 X202.385 Y12.802 E5.69749
G1 X202.693 Y12.878 E5.71332
G1 X203.243 Y13.047 E5.74202
G1 X203.406 Y13.107 E5.75069
G1 X203.996 Y13.367 E5.78285
G1 X204.55 Y13.698 E5.81505
G1 X205.239 Y14.262 E5.85947
G1 X205.53 Y14.551 E5.87993
G1 X205.671 Y14.699 E5.89013
G1 X206.086 Y15.193 E5.92232
G1 X206.436 Y15.734 E5.95447
G1 X206.796 Y16.519 E5.99755
G1 X206.899 Y16.804 E6.01267
G1 X207.109 Y17.558 E6.05172
G1 X207.139 Y17.709 E6.0594
G1 X207.237 Y18.575 E6.10288
G1 X207.247 Y18.928 E6.1205
G1 X207.249 Y19.075 E6.12784
G1 X207.249 Y30.784 E6.712
G1 X207.239 Y31.497 E6.74757
G1 X207.191 Y32.14 E6.77974
G1 X207.079 Y32.709 E6.80868
G1 X206.989 Y33.062 E6.82685
G1 X206.791 Y33.675 E6.85899
G1 X206.519 Y34.26 E6.89118
G1 X206.21 Y34.759 E6.92046
G1 X206.028 Y35.019 E6.93629
G1 X205.626 Y35.523 E6.96845
G1 X205.352 Y35.804 E6.98803
G1 X205.187 Y35.961 E6.9994
G1 X204.694 Y36.376 E7.03155
G1 X204.153 Y36.726 E7.06369
G1 X203.351 Y37.091 E7.10766
G1 X203.068 Y37.192 E7.12265
G1 X202.321 Y37.398 E7.16131
G1 X202.168 Y37.428 E7.16908
G1 X201.315 Y37.523 E7.2119
G1 X200.964 Y37.533 E7.22942
G1 X200.816 Y37.535 E7.23681
G1 X189.067 Y37.535 E7.82297
G1 X188.39 Y37.525 E7.85675
G1 X187.747 Y37.476 E7.88892
G1 X187.185 Y37.365 E7.9175
G1 X186.851 Y37.28 E7.93469
G1 X186.237 Y37.083 E7.96686
G1 X185.652 Y36.811 E7.99905
G1 X185.21 Y36.542 E8.02486
G1 X184.926 Y36.349 E8.042
G1 X184.417 Y35.954 E8.07414
G1 X184.089 Y35.64 E8.09679
G1 X183.94 Y35.484 E8.10755
G1 X183.524 Y34.991 E8.13974
G1 X183.173 Y34.45 E8.17191
G1 X182.802 Y33.639 E8.2164
G1 X182.7 Y33.353 E8.23155
G1 X182.501 Y32.638 E8.26858
G1 X182.469 Y32.48 E8.27662
G1 X182.368 Y31.598 E8.32091
G1 X182.358 Y31.251 E8.33823
G1 X182.356 Y31.101 E8.34572
G1 X182.356 Y19.324 E8.93327
G1 X182.366 Y18.669 E8.96596
G1 X182.415 Y18.026 E8.99813
G1 F3000 E1.99813
;MESH:CE3_2.2.4-flatMX.3mf(15)
G0 F18000 X186.891 Y18.807
G0 X188.174 Y18.806
G0 X188.4 Y31.598
G0 X188.351 Y31.684
;TYPE:WALL-INNER
G1 F3000 E8.99813
G1 F1500 X188.207 Y31.555 E9.00777
G1 X188.156 Y31.399 E9.01596
G1 X188.155 Y18.803 E9.64438
G1 X188.207 Y18.636 E9.65311
G1 X188.336 Y18.492 E9.66275
G1 X188.489 Y18.442 E9.67078
G1 X201.088 Y18.441 E10.29935
G1 X201.254 Y18.493 E10.30803
G1 X201.399 Y18.623 E10.31774
G1 X201.449 Y18.776 E10.32577
G1 X201.45 Y31.376 E10.95439
G1 X201.399 Y31.54 E10.96296
G1 X201.269 Y31.685 E10.97267
G1 X201.115 Y31.735 E10.98075
G1 X188.518 Y31.736 E11.60922
G1 X188.351 Y31.684 E11.61794
G0 F18000 X188.149 Y32.04
;TYPE:WALL-OUTER
G1 F1500 X187.865 Y31.786 E11.63695
G1 X187.776 Y31.542 E11.64991
G1 X187.756 Y31.437 E11.65524
G1 X187.755 Y18.74 E12.2887
G1 X187.851 Y18.435 E12.30465
G1 X188.105 Y18.149 E12.32374
G1 X188.351 Y18.061 E12.33677
G1 X188.454 Y18.042 E12.342
G1 X201.151 Y18.041 E12.97545
G1 X201.456 Y18.137 E12.9914
G1 X201.741 Y18.391 E13.01045
G1 X201.829 Y18.633 E13.0233
G1 X201.849 Y18.739 E13.02868
G1 X201.85 Y31.436 E13.66213
G1 X201.755 Y31.743 E13.67817
G1 X201.5 Y32.027 E13.69721
G1 X201.258 Y32.115 E13.71006
G1 X201.152 Y32.135 E13.71544
G1 X188.455 Y32.136 E14.34889
G1 X188.149 Y32.04 E14.36489
G0 F18000 X188.366 Y31.658
G0 X188.546 Y31.336
;TYPE:SKIN
G1 F1500 X188.545 Y18.861 E14.98727
G1 X188.555 Y18.832 E14.9888
G1 X201.029 Y18.831 E15.61114
G1 X201.059 Y18.842 E15.61273
G1 X201.06 Y31.318 E16.23516
G1 X201.05 Y31.345 E16.2366
G1 X188.576 Y31.346 E16.85893
G1 X188.546 Y31.336 E16.8605
G0 F18000 X189.011 Y31.185
G1 F1500 X188.704 Y30.878 E16.88216
G0 F18000 X188.704 Y30.312
G1 F1500 X189.577 Y31.185 E16.94376
G0 F18000 X190.143 Y31.185
G1 F1500 X188.704 Y29.747 E17.04525
G0 F18000 X188.704 Y29.181
G1 F1500 X190.708 Y31.185 E17.18665
G0 F18000 X191.274 Y31.185
G1 F1500 X188.704 Y28.615 E17.36797
G0 F18000 X188.704 Y28.05
G1 F1500 X191.84 Y31.185 E17.5892
G0 F18000 X192.405 Y31.185
G1 F1500 X188.704 Y27.484 E17.85033
G0 F18000 X188.704 Y26.918
G1 F1500 X192.971 Y31.185 E18.15139
G0 F18000 X193.537 Y31.185
G1 F1500 X188.704 Y26.353 E18.49234
G0 F18000 X188.704 Y25.787
G1 F1500 X194.102 Y31.185 E18.8732
G0 F18000 X194.668 Y31.185
G1 F1500 X188.704 Y25.221 E19.29399
G0 F18000 X188.704 Y24.655
G1 F1500 X195.233 Y31.184 E19.75465
G0 F18000 X195.799 Y31.184
G1 F1500 X188.704 Y24.089 E20.25524
G0 F18000 X188.704 Y23.524
G1 F1500 X196.364 Y31.184 E20.7957
G0 F18000 X196.93 Y31.184
G1 F1500 X188.704 Y22.958 E21.37608
G0 F18000 X188.704 Y22.392
G1 F1500 X197.496 Y31.184 E21.99641
G0 F18000 X198.062 Y31.184
G1 F1500 X188.704 Y21.826 E22.65667
G0 F18000 X188.704 Y21.261
G1 F1500 X198.627 Y31.184 E23.35679
G0 F18000 X199.193 Y31.184
G1 F1500 X188.704 Y20.695 E24.09684
G0 F18000 X188.704 Y20.129
G1 F1500 X199.759 Y31.184 E24.87683
G0 F18000 X200.324 Y31.184
G1 F1500 X188.704 Y19.564 E25.69669
G0 F18000 X188.704 Y18.998
G1 F1500 X200.89 Y31.184 E26.55647
G0 F18000 X200.898 Y30.627
G1 F1500 X189.262 Y18.991 E27.37746
G0 F18000 X189.828 Y18.991
G1 F1500 X200.898 Y30.061 E28.15851
G0 F18000 X200.898 Y29.496
G1 F1500 X190.394 Y18.991 E28.89965
G0 F18000 X190.959 Y18.991
G1 F1500 X200.898 Y28.93 E29.6009
G0 F18000 X200.898 Y28.364
G1 F1500 X191.525 Y18.991 E30.26222
G0 F18000 X192.091 Y18.991
G1 F1500 X200.898 Y27.799 E30.88364
G0 F18000 X200.898 Y27.233
G1 F1500 X192.656 Y18.991 E31.46515
G0 F18000 X193.222 Y18.991
G1 F1500 X200.898 Y26.667 E32.00674
G0 F18000 X200.898 Y26.102
G1 F1500 X193.788 Y18.991 E32.50842
G0 F18000 X194.353 Y18.991
G1 F1500 X200.898 Y25.536 E32.97021
G0 F18000 X200.898 Y24.97
G1 F1500 X194.919 Y18.991 E33.39206
G0 F18000 X195.485 Y18.991
G1 F1500 X200.898 Y24.405 E33.77401
G0 F18000 X200.898 Y23.839
G1 F1500 X196.051 Y18.991 E34.11603
G0 F18000 X196.616 Y18.991
G1 F1500 X200.898 Y23.273 E34.41814
G0 F18000 X200.898 Y22.708
G1 F1500 X197.182 Y18.991 E34.68036
G0 F18000 X197.748 Y18.991
G1 F1500 X200.898 Y22.142 E34.90265
G0 F18000 X200.898 Y21.576
G1 F1500 X198.313 Y18.991 E35.08503
G0 F18000 X198.879 Y18.991
G1 F1500 X200.898 Y21.01 E35.22749
G0 F18000 X200.898 Y20.445
G1 F1500 X199.445 Y18.991 E35.33004
G0 F18000 X200.01 Y18.991
G1 F1500 X200.898 Y19.879 E35.39269
G0 F18000 X200.898 Y19.313
G1 F1500 X200.576 Y18.991 E35.41541
G1 F3000 E28.41541
;MESH:NONMESH
G0 F300 X200.576 Y18.991 Z0.5
G0 F18000 X188.4 Y31.598
G0 X188.175 Y32.21
;TIME_ELAPSED:38.430931
;LAYER:1
;TYPE:WALL-INNER
;MESH:CE3_2.2.4-flatMX.3mf(15)
G1 F3000 E35.41541
G1 F2550 X187.945 Y32.084 E35.42413
G1 X187.71 Y31.79 E35.43665
G1 X187.655 Y31.529 E35.44552
G1 X187.636 Y31.409 E35.44956
G1 X187.635 Y18.768 E35.87001
G1 X187.683 Y18.443 E35.88093
G1 X187.806 Y18.231 E35.88908
G1 X188.1 Y17.995 E35.90162
G1 X188.361 Y17.941 E35.91049
G1 X188.481 Y17.922 E35.91453
G1 X201.123 Y17.921 E36.335
G1 X201.431 Y17.967 E36.34536
G1 X201.6 Y18.058 E36.35175
G1 X201.8 Y18.237 E36.36067
G1 X201.926 Y18.467 E36.36939
G1 X201.97 Y18.767 E36.37948
G1 X201.971 Y31.403 E36.79975
G1 X201.922 Y31.734 E36.81088
G1 X201.801 Y31.944 E36.81894
G1 X201.664 Y32.081 E36.82539
G1 X201.424 Y32.212 E36.83448
G1 X201.124 Y32.255 E36.84456
G1 X188.483 Y32.256 E37.265
G1 X188.175 Y32.21 E37.27536
G0 F18000 X188.05 Y32.597
;TYPE:WALL-OUTER
G1 F2550 X187.774 Y32.448 E37.28579
G1 X187.696 Y32.401 E37.28882
G1 X187.489 Y32.193 E37.29858
G1 X187.356 Y31.979 E37.30696
G1 X187.294 Y31.841 E37.312
G1 X187.259 Y31.587 E37.32052
G1 X187.236 Y31.44 E37.32547
G1 X187.235 Y18.735 E37.74804
G1 X187.26 Y18.591 E37.7529
G1 X187.294 Y18.334 E37.76153
G1 X187.354 Y18.2 E37.76641
G1 X187.492 Y17.979 E37.77507
G1 X187.696 Y17.775 E37.78467
G1 X187.912 Y17.641 E37.79312
G1 X188.05 Y17.579 E37.79816
G1 X188.304 Y17.545 E37.80668
G1 X188.451 Y17.522 E37.81163
G1 X201.156 Y17.521 E38.2342
G1 X201.3 Y17.546 E38.23906
G1 X201.556 Y17.58 E38.24765
G1 X201.832 Y17.729 E38.25808
G1 X202.118 Y17.984 E38.27083
G1 X202.312 Y18.339 E38.28428
G1 X202.347 Y18.589 E38.29268
G1 X202.37 Y18.736 E38.29763
G1 X202.371 Y31.44 E38.72016
G1 X202.345 Y31.584 E38.72503
G1 X202.311 Y31.842 E38.73368
G1 X202.249 Y31.981 E38.73875
G1 X202.116 Y32.195 E38.74713
G1 X201.907 Y32.404 E38.75696
G1 X201.552 Y32.598 E38.77041
G1 X201.302 Y32.632 E38.7788
G1 X201.155 Y32.655 E38.78375
G1 X188.45 Y32.656 E39.20632
G1 X188.306 Y32.631 E39.21118
G1 X188.05 Y32.597 E39.21977
G0 F18000 X188.185 Y32.179
G0 X188.3 Y31.834
;TYPE:SKIN
G1 F2550 X188.201 Y31.78 E39.22352
G1 X188.073 Y31.62 E39.23034
G1 X188.026 Y31.375 E39.23864
G1 X188.025 Y18.796 E39.65702
G1 X188.058 Y18.573 E39.66451
G1 X188.27 Y18.358 E39.67456
G1 X188.516 Y18.312 E39.68288
G1 X201.091 Y18.311 E40.10113
G1 X201.375 Y18.379 E40.11084
G1 X201.55 Y18.591 E40.11998
G1 X201.58 Y18.796 E40.12687
G1 X201.581 Y31.374 E40.54522
G1 X201.547 Y31.606 E40.55302
G1 X201.433 Y31.762 E40.55944
G1 X201.296 Y31.836 E40.56462
G1 X201.097 Y31.865 E40.57131
G1 X188.515 Y31.866 E40.98979
G1 X188.3 Y31.834 E40.99702
G0 F18000 X200.79 Y31.705
G1 F2550 X201.419 Y31.077 E41.02658
G0 F18000 X201.419 Y30.511
G1 F2550 X200.225 Y31.705 E41.08275
G0 F18000 X199.659 Y31.705
G1 F2550 X201.419 Y29.945 E41.16553
G0 F18000 X201.419 Y29.38
G1 F2550 X199.093 Y31.705 E41.27492
G0 F18000 X198.528 Y31.705
G1 F2550 X201.419 Y28.814 E41.4109
G0 F18000 X201.419 Y28.248
G1 F2550 X197.962 Y31.705 E41.57351
G0 F18000 X197.396 Y31.705
G1 F2550 X201.419 Y27.683 E41.76271
G0 F18000 X201.419 Y27.117
G1 F2550 X196.83 Y31.705 E41.97854
G0 F18000 X196.265 Y31.705
G1 F2550 X201.419 Y26.551 E42.22097
G0 F18000 X201.419 Y25.986
G1 F2550 X195.699 Y31.705 E42.49
G0 F18000 X195.133 Y31.705
G1 F2550 X201.419 Y25.42 E42.78565
G0 F18000 X201.419 Y24.854
G1 F2550 X194.568 Y31.705 E43.1079
G0 F18000 X194.002 Y31.705
G1 F2550 X201.419 Y24.289 E43.45675
G0 F18000 X201.419 Y23.723
G1 F2550 X193.436 Y31.705 E43.83222
G0 F18000 X192.871 Y31.705
G1 F2550 X201.419 Y23.157 E44.23429
G0 F18000 X201.419 Y22.592
G1 F2550 X192.305 Y31.705 E44.66296
G0 F18000 X191.739 Y31.705
G1 F2550 X201.419 Y22.026 E45.11826
G0 F18000 X201.419 Y21.46
G1 F2550 X191.174 Y31.705 E45.60015
G0 F18000 X190.608 Y31.705
G1 F2550 X201.419 Y20.895 E46.10864
G0 F18000 X201.419 Y20.329
G1 F2550 X190.042 Y31.705 E46.64376
G0 F18000 X189.477 Y31.705
G1 F2550 X201.419 Y19.763 E47.20547
G0 F18000 X201.419 Y19.197
G1 F2550 X188.911 Y31.705 E47.79381
G0 F18000 X188.369 Y31.682
G1 F2550 X201.396 Y18.655 E48.40656
G0 F18000 X201.014 Y18.471
G1 F2550 X188.185 Y31.3 E49.01
G0 F18000 X188.185 Y30.735
G1 F2550 X200.449 Y18.471 E49.58686
G0 F18000 X199.883 Y18.471
G1 F2550 X188.185 Y30.169 E50.1371
G0 F18000 X188.185 Y29.603
G1 F2550 X199.317 Y18.471 E50.66071
G0 F18000 X198.752 Y18.471
G1 F2550 X188.185 Y29.038 E51.15775
G0 F18000 X188.185 Y28.472
G1 F2550 X198.186 Y18.471 E51.62817
G0 F18000 X197.62 Y18.471
G1 F2550 X188.185 Y27.906 E52.07196
G0 F18000 X188.185 Y27.34
G1 F2550 X197.055 Y18.471 E52.48916
G0 F18000 X196.489 Y18.471
G1 F2550 X188.185 Y26.775 E52.87975
G0 F18000 X188.185 Y26.209
G1 F2550 X195.923 Y18.471 E53.24372
G0 F18000 X195.358 Y18.471
G1 F2550 X188.185 Y25.643 E53.58109
G0 F18000 X188.185 Y25.078
G1 F2550 X194.792 Y18.471 E53.89187
G0 F18000 X194.226 Y18.471
G1 F2550 X188.185 Y24.512 E54.17602
G0 F18000 X188.185 Y23.946
G1 F2550 X193.66 Y18.471 E54.43354
G0 F18000 X193.095 Y18.471
G1 F2550 X188.185 Y23.381 E54.6645
G0 F18000 X188.185 Y22.815
G1 F2550 X192.529 Y18.471 E54.86882
G0 F18000 X191.963 Y18.471
G1 F2550 X188.185 Y22.249 E55.04653
G0 F18000 X188.185 Y21.684
G1 F2550 X191.398 Y18.471 E55.19766
G0 F18000 X190.832 Y18.471
G1 F2550 X188.185 Y21.118 E55.32217
G0 F18000 X188.185 Y20.552
G1 F2550 X190.266 Y18.471 E55.42005
G0 F18000 X189.701 Y18.471
G1 F2550 X188.185 Y19.987 E55.49136
G0 F18000 X188.185 Y19.421
G1 F2550 X189.135 Y18.471 E55.53604
G0 F18000 X188.569 Y18.471
G1 F2550 X188.185 Y18.855 E55.55411
G0 F18000 X201.633 Y18.418
;TYPE:SKIN
G1 F2550 X201.688 Y18.363 E55.5554
G0 F18000 X188.218 Y18.073
G0 X188.153 Y17.756
G1 F2550 X188.077 Y17.831 E55.55717
G0 F18000 X188.13 Y18.091
G0 X187.919 Y31.892
G0 X187.714 Y32.054
G1 F2550 X187.655 Y32.113 E55.55856
G0 F18000 X188.159 Y31.711
G1 F3000 E48.55856
;MESH:NONMESH
