;FLAVOR:Marlin
;TIME:7215
;Filament used: 5.0829m
;Layer height: 0.2
;MINX:13.262
;MINY:9.123
;MINZ:0.3
;MAXX:207.758
;MAXY:209.595
;MAXZ:11.5
;Generated with Cura_SteamEngine 4.9.0
M140 S70
M105
M190 S70
M104 S200
M105
M109 S200
M82 ;absolute extrusion mode
; Ender 3 Custom Start G-code
G92 E0 ; Reset Extruder
G28 ; Home all axes
G1 Z2.0 F3000 ; Move Z Axis up little to prevent scratching of Heat Bed
G1 X0.1 Y20 Z0.3 F5000.0 ; Move to start position
G1 X0.1 Y200.0 Z0.3 F1500.0 E15 ; Draw the first line
G1 X0.4 Y200.0 Z0.3 F5000.0 ; Move to side a little
G1 X0.4 Y20 Z0.3 F1500.0 E30 ; Draw the second line
G92 E0 ; Reset Extruder
G1 Z2.0 F3000 ; Move Z Axis up little to prevent scratching of Heat Bed
G1 X5 Y20 Z0.3 F5000.0 ; Move over to prevent blob squish
G92 E0
G92 E0
G1 F3000 E-7
;LAYER_COUNT:32
;LAYER:0
M106 S255
G0 F18000 X184.076 Y183.807 Z0.3
;TYPE:SKIRT
G1 F3000 E0
G1 F1500 X184.237 Y183.653 E0.01112
G1 X184.747 Y183.22 E0.04449
G1 X185.306 Y182.852 E0.07788
G1 X185.904 Y182.552 E0.11126
G1 X186.226 Y182.426 E0.12851
G1 X186.509 Y182.325 E0.1435
G1 X187.232 Y182.12 E0.18099
G1 X187.388 Y182.087 E0.18895
G1 X188.383 Y181.968 E0.23894
G1 X188.724 Y181.958 E0.25596
G1 X188.888 Y181.956 E0.26415
G1 X200.571 Y181.955 E0.84701
G1 X201.331 Y181.966 E0.88493
G1 X201.998 Y182.015 E0.9183
G1 X202.59 Y182.128 E0.94837
G1 X202.898 Y182.204 E0.9642
G1 X203.462 Y182.375 E0.9936
G1 X203.625 Y182.434 E1.00225
G1 X204.239 Y182.699 E1.03561
G1 X204.818 Y183.035 E1.06901
G1 X205.352 Y183.438 E1.10239
G1 X205.637 Y183.699 E1.12167
G1 X205.899 Y183.959 E1.14008
G1 X206.052 Y184.118 E1.15109
G1 X206.486 Y184.627 E1.18446
G1 X206.857 Y185.184 E1.21785
G1 X207.158 Y185.781 E1.25121
G1 X207.295 Y186.129 E1.26987
G1 X207.4 Y186.425 E1.28553
G1 X207.628 Y187.274 E1.32939
G1 X207.654 Y187.414 E1.3365
G1 X207.746 Y188.278 E1.37985
G1 X207.756 Y188.631 E1.39746
G1 X207.758 Y188.79 E1.4054
G1 X207.758 Y200.503 E1.98976
G1 X207.748 Y201.217 E2.02539
G1 X207.699 Y201.885 E2.0588
G1 X207.586 Y202.481 E2.08907
G1 X207.51 Y202.789 E2.10489
G1 X207.328 Y203.381 E2.13579
G1 X207.268 Y203.544 E2.14446
G1 X207 Y204.157 E2.17784
G1 X206.661 Y204.734 E2.21122
G1 X206.255 Y205.266 E2.24461
G1 X206.024 Y205.518 E2.26167
G1 X205.726 Y205.818 E2.28276
G1 X205.576 Y205.961 E2.2931
G1 X205.065 Y206.393 E2.32649
G1 X204.506 Y206.761 E2.35987
G1 X203.908 Y207.06 E2.39323
G1 X203.594 Y207.182 E2.41004
G1 X203.311 Y207.283 E2.42503
G1 X202.507 Y207.504 E2.46663
G1 X202.354 Y207.534 E2.47441
G1 X201.435 Y207.637 E2.52054
G1 X201.084 Y207.647 E2.53806
G1 X200.925 Y207.649 E2.54599
G1 X189.17 Y207.649 E3.13245
G1 X188.493 Y207.639 E3.16623
G1 X187.826 Y207.59 E3.1996
G1 X187.192 Y207.466 E3.23183
G1 X186.839 Y207.376 E3.25
G1 X186.202 Y207.173 E3.28336
G1 X185.594 Y206.894 E3.31673
G1 X185 Y206.529 E3.35151
G1 X184.74 Y206.346 E3.36738
G1 X184.217 Y205.929 E3.40075
G1 X183.927 Y205.649 E3.42086
G1 X183.775 Y205.491 E3.4318
G1 X183.341 Y204.982 E3.46517
G1 X182.971 Y204.425 E3.49853
G1 X182.664 Y203.815 E3.5326
G1 X182.643 Y203.766 E3.53526
G1 X182.508 Y203.422 E3.5537
G1 X182.422 Y203.178 E3.5666
G1 X182.205 Y202.372 E3.60825
G1 X182.176 Y202.221 E3.61592
G1 X182.077 Y201.326 E3.66084
G1 X182.067 Y200.978 E3.67821
G1 X182.065 Y200.817 E3.68624
G1 X182.065 Y189.051 E4.27325
G1 X182.075 Y188.383 E4.30658
G1 X182.125 Y187.716 E4.33995
G1 X182.247 Y187.086 E4.37197
G1 X182.332 Y186.752 E4.38916
G1 X182.535 Y186.115 E4.42252
G1 X182.813 Y185.506 E4.45592
G1 X183.115 Y185.004 E4.48514
G1 X183.303 Y184.725 E4.50193
G1 X183.709 Y184.193 E4.53532
G1 X184.076 Y183.807 E4.56189
G0 F18000 X184.353 Y184.096
G1 F1500 X184.514 Y183.942 E4.573
G1 X185.006 Y183.526 E4.60515
G1 X185.547 Y183.175 E4.63732
G1 X186.36 Y182.803 E4.68193
G1 X186.643 Y182.702 E4.69692
G1 X187.315 Y182.512 E4.73176
G1 X187.471 Y182.479 E4.73971
G1 X188.395 Y182.368 E4.78614
G1 X188.736 Y182.358 E4.80316
G1 X188.888 Y182.356 E4.81075
G1 X200.571 Y182.355 E5.39361
G1 X201.325 Y182.366 E5.43124
G1 X201.968 Y182.415 E5.46341
G1 X202.494 Y182.516 E5.49013
G1 X202.802 Y182.592 E5.50596
G1 X203.326 Y182.751 E5.53328
G1 X203.489 Y182.81 E5.54193
G1 X204.08 Y183.067 E5.57408
G1 X204.635 Y183.395 E5.60624
G1 X205.357 Y183.985 E5.65276
G1 X205.611 Y184.236 E5.67057
G1 X205.764 Y184.395 E5.68158
G1 X206.181 Y184.887 E5.71376
G1 X206.535 Y185.426 E5.74593
G1 X206.918 Y186.263 E5.79185
G1 X207.023 Y186.559 E5.80752
G1 X207.235 Y187.348 E5.84828
G1 X207.261 Y187.488 E5.85539
G1 X207.346 Y188.29 E5.89562
G1 X207.356 Y188.643 E5.91324
G1 X207.358 Y188.79 E5.92057
G1 X207.358 Y200.498 E6.50469
G1 X207.348 Y201.212 E6.54031
G1 X207.3 Y201.855 E6.57248
G1 X207.198 Y202.385 E6.59941
G1 X207.122 Y202.693 E6.61524
G1 X206.953 Y203.243 E6.64394
G1 X206.893 Y203.406 E6.65261
G1 X206.633 Y203.996 E6.68478
G1 X206.302 Y204.55 E6.71697
G1 X205.738 Y205.239 E6.76139
G1 X205.45 Y205.529 E6.78178
G1 X205.3 Y205.672 E6.79212
G1 X204.807 Y206.087 E6.82427
G1 X204.266 Y206.438 E6.85645
G1 X203.46 Y206.805 E6.90063
G1 X203.177 Y206.906 E6.91562
G1 X202.43 Y207.112 E6.95428
G1 X202.277 Y207.142 E6.96206
G1 X201.424 Y207.237 E7.00488
G1 X201.073 Y207.247 E7.0224
G1 X200.925 Y207.249 E7.02978
G1 X189.176 Y207.249 E7.61594
G1 X188.499 Y207.239 E7.64972
G1 X187.856 Y207.19 E7.68189
G1 X187.291 Y207.079 E7.71062
G1 X186.938 Y206.989 E7.7288
G1 X186.325 Y206.791 E7.76093
G1 X185.74 Y206.519 E7.79312
G1 X185.23 Y206.202 E7.82308
G1 X184.97 Y206.019 E7.83894
G1 X184.467 Y205.616 E7.8711
G1 X184.216 Y205.372 E7.88856
G1 X184.064 Y205.214 E7.8995
G1 X183.646 Y204.723 E7.93167
G1 X183.293 Y204.183 E7.96386
G1 X183.031 Y203.657 E7.99317
G1 X183.01 Y203.608 E7.99583
G1 X182.886 Y203.289 E8.01291
G1 X182.8 Y203.045 E8.02582
G1 X182.597 Y202.297 E8.06448
G1 X182.568 Y202.146 E8.07216
G1 X182.477 Y201.314 E8.11391
G1 X182.467 Y200.966 E8.13128
G1 X182.465 Y200.817 E8.13871
G1 X182.465 Y189.057 E8.72542
G1 X182.475 Y188.389 E8.75875
G1 X182.524 Y187.746 E8.79093
G1 X182.635 Y187.185 E8.81946
G1 X182.72 Y186.851 E8.83665
G1 X182.917 Y186.237 E8.86882
G1 X183.189 Y185.652 E8.90101
G1 X183.447 Y185.227 E8.92581
G1 X183.635 Y184.948 E8.9426
G1 X184.027 Y184.437 E8.97473
G1 X184.353 Y184.096 E8.99827
G1 F3000 E1.99827
;MESH:CE3_2.2.4-flatMX.3mf(15)
G0 F18000 X187.14 Y187.878
G0 X188.283 Y188.521
G0 X188.363 Y201.1
G0 X188.265 Y201.115
;TYPE:WALL-INNER
G1 F3000 E8.99827
G1 F1500 X188.264 Y188.518 E9.62673
G1 X188.316 Y188.351 E9.63546
G1 X188.445 Y188.207 E9.6451
G1 X188.601 Y188.156 E9.65329
G1 X201.197 Y188.155 E10.28171
G1 X201.364 Y188.207 E10.29043
G1 X201.508 Y188.336 E10.30008
G1 X201.558 Y188.489 E10.30811
G1 X201.559 Y201.088 E10.93668
G1 X201.507 Y201.254 E10.94536
G1 X201.377 Y201.399 E10.95507
G1 X201.224 Y201.449 E10.9631
G1 X188.624 Y201.45 E11.59172
G1 X188.46 Y201.399 E11.60029
G1 X188.315 Y201.269 E11.61
G1 X188.265 Y201.115 E11.61808
G0 F18000 X187.885 Y201.258
;TYPE:WALL-OUTER
G1 F1500 X187.865 Y201.152 E11.62346
G1 X187.864 Y188.455 E12.25692
G1 X187.96 Y188.149 E12.27292
G1 X188.214 Y187.865 E12.29193
G1 X188.458 Y187.776 E12.30489
G1 X188.563 Y187.756 E12.31022
G1 X201.26 Y187.755 E12.94367
G1 X201.565 Y187.851 E12.95963
G1 X201.851 Y188.105 E12.97871
G1 X201.939 Y188.351 E12.99174
G1 X201.958 Y188.454 E12.99697
G1 X201.959 Y201.151 E13.63043
G1 X201.863 Y201.456 E13.64638
G1 X201.609 Y201.741 E13.66542
G1 X201.367 Y201.829 E13.67827
G1 X201.261 Y201.849 E13.68365
G1 X188.564 Y201.85 E14.31711
G1 X188.257 Y201.755 E14.33314
G1 X187.973 Y201.5 E14.35218
G1 X187.885 Y201.258 E14.36503
G0 F18000 X188.309 Y201.142
G0 X188.655 Y201.05
;TYPE:SKIN
G1 F1500 X188.654 Y188.576 E14.98736
G1 X188.664 Y188.546 E14.98894
G1 X201.139 Y188.545 E15.61132
G1 X201.168 Y188.555 E15.61285
G1 X201.169 Y201.029 E16.23518
G1 X201.158 Y201.059 E16.23677
G1 X188.682 Y201.06 E16.8592
G1 X188.655 Y201.05 E16.86064
G0 F18000 X189.019 Y200.898
G1 F1500 X188.814 Y200.693 E16.8751
G0 F18000 X188.814 Y200.128
G1 F1500 X189.585 Y200.898 E16.92947
G0 F18000 X190.15 Y200.898
G1 F1500 X188.814 Y199.562 E17.02373
G0 F18000 X188.814 Y198.996
G1 F1500 X190.716 Y200.898 E17.15793
G0 F18000 X191.282 Y200.898
G1 F1500 X188.814 Y198.431 E17.33202
G0 F18000 X188.814 Y197.865
G1 F1500 X191.847 Y200.898 E17.54602
G0 F18000 X192.413 Y200.898
G1 F1500 X188.814 Y197.299 E17.79994
G0 F18000 X188.813 Y196.733
G1 F1500 X192.979 Y200.898 E18.09384
G0 F18000 X193.545 Y200.898
G1 F1500 X188.813 Y196.167 E18.42768
G0 F18000 X188.813 Y195.601
G1 F1500 X194.11 Y200.898 E18.80141
G0 F18000 X194.676 Y200.898
G1 F1500 X188.813 Y195.036 E19.21504
G0 F18000 X188.813 Y194.47
G1 F1500 X195.242 Y200.898 E19.6686
G0 F18000 X195.807 Y200.898
G1 F1500 X188.813 Y193.904 E20.16207
G0 F18000 X188.813 Y193.339
G1 F1500 X196.373 Y200.898 E20.69543
G0 F18000 X196.939 Y200.898
G1 F1500 X188.813 Y192.773 E21.26873
G0 F18000 X188.813 Y192.207
G1 F1500 X197.504 Y200.898 E21.88193
G0 F18000 X198.07 Y200.898
G1 F1500 X188.813 Y191.641 E22.53506
G0 F18000 X188.813 Y191.075
G1 F1500 X198.636 Y200.898 E23.22812
G0 F18000 X199.201 Y200.898
G1 F1500 X188.813 Y190.51 E23.96105
G0 F18000 X188.813 Y189.944
G1 F1500 X199.767 Y200.898 E24.73392
G0 F18000 X200.333 Y200.898
G1 F1500 X188.813 Y189.378 E25.54672
G0 F18000 X188.813 Y188.813
G1 F1500 X200.898 Y200.898 E26.39938
G0 F18000 X201.007 Y200.442
G1 F1500 X189.271 Y188.705 E27.22745
G0 F18000 X189.836 Y188.705
G1 F1500 X201.007 Y199.876 E28.01563
G0 F18000 X201.007 Y199.31
G1 F1500 X190.402 Y188.705 E28.76387
G0 F18000 X190.968 Y188.705
G1 F1500 X201.007 Y198.745 E29.47221
G0 F18000 X201.007 Y198.179
G1 F1500 X191.534 Y188.705 E30.14061
G0 F18000 X192.099 Y188.705
G1 F1500 X201.007 Y197.613 E30.76912
G0 F18000 X201.007 Y197.048
G1 F1500 X192.665 Y188.705 E31.35773
G0 F18000 X193.231 Y188.705
G1 F1500 X201.007 Y196.482 E31.9064
G0 F18000 X201.007 Y195.916
G1 F1500 X193.796 Y188.705 E32.41518
G0 F18000 X194.362 Y188.705
G1 F1500 X201.007 Y195.35 E32.88402
G0 F18000 X201.007 Y194.785
G1 F1500 X194.928 Y188.705 E33.31296
G0 F18000 X195.493 Y188.705
G1 F1500 X201.007 Y194.219 E33.702
G0 F18000 X201.007 Y193.653
G1 F1500 X196.059 Y188.705 E34.05111
G0 F18000 X196.625 Y188.705
G1 F1500 X201.007 Y193.088 E34.36032
G0 F18000 X201.007 Y192.522
G1 F1500 X197.19 Y188.705 E34.62963
G0 F18000 X197.756 Y188.705
G1 F1500 X201.007 Y191.956 E34.85901
G0 F18000 X201.007 Y191.391
G1 F1500 X198.322 Y188.705 E35.04848
G0 F18000 X198.887 Y188.705
G1 F1500 X201.007 Y190.825 E35.19806
G0 F18000 X201.007 Y190.259
G1 F1500 X199.453 Y188.705 E35.3077
G0 F18000 X200.019 Y188.705
G1 F1500 X201.007 Y189.694 E35.37745
G0 F18000 X201.007 Y189.128
G1 F1500 X200.584 Y188.705 E35.40729
G1 F3000 E28.40729
;MESH:NONMESH
G0 F300 X200.584 Y188.705 Z0.5
G0 F18000 X188.398 Y201.215
G0 X187.788 Y201.424
;TIME_ELAPSED:38.497124
;LAYER:1
;TYPE:WALL-INNER
;MESH:CE3_2.2.4-flatMX.3mf(15)
G1 F3000 E35.40729
G1 F2550 X187.745 Y201.124 E35.41737
G1 X187.744 Y188.483 E35.83781
G1 X187.79 Y188.175 E35.84817
G1 X187.916 Y187.945 E35.85689
G1 X188.209 Y187.71 E35.86939
G1 X188.471 Y187.655 E35.87829
G1 X188.591 Y187.636 E35.88233
G1 X201.232 Y187.635 E36.30277
G1 X201.557 Y187.683 E36.3137
G1 X201.769 Y187.806 E36.32185
G1 X202.005 Y188.1 E36.33439
G1 X202.059 Y188.361 E36.34326
G1 X202.078 Y188.481 E36.3473
G1 X202.079 Y201.123 E36.76777
G1 X202.033 Y201.431 E36.77813
G1 X201.942 Y201.6 E36.78451
G1 X201.763 Y201.8 E36.79344
G1 X201.533 Y201.926 E36.80216
G1 X201.233 Y201.97 E36.81225
G1 X188.597 Y201.971 E37.23252
G1 X188.266 Y201.922 E37.24365
G1 X188.056 Y201.801 E37.25171
G1 X187.919 Y201.664 E37.25816
G1 X187.788 Y201.424 E37.26725
G0 F18000 X187.402 Y201.552
;TYPE:WALL-OUTER
G1 F2550 X187.368 Y201.302 E37.27564
G1 X187.345 Y201.155 E37.28059
G1 X187.344 Y188.45 E37.70316
G1 X187.369 Y188.306 E37.70802
G1 X187.403 Y188.05 E37.71661
G1 X187.552 Y187.774 E37.72704
G1 X187.599 Y187.696 E37.73007
G1 X187.807 Y187.489 E37.73983
G1 X188.021 Y187.356 E37.74821
G1 X188.159 Y187.294 E37.75324
G1 X188.413 Y187.259 E37.76177
G1 X188.56 Y187.236 E37.76672
G1 X201.265 Y187.235 E38.18929
G1 X201.409 Y187.26 E38.19415
G1 X201.666 Y187.294 E38.20277
G1 X201.8 Y187.354 E38.20766
G1 X202.021 Y187.492 E38.21632
G1 X202.225 Y187.696 E38.22592
G1 X202.359 Y187.912 E38.23437
G1 X202.421 Y188.05 E38.23941
G1 X202.455 Y188.304 E38.24793
G1 X202.478 Y188.451 E38.25288
G1 X202.479 Y201.156 E38.67545
G1 X202.454 Y201.3 E38.68031
G1 X202.42 Y201.556 E38.6889
G1 X202.271 Y201.832 E38.69933
G1 X202.016 Y202.118 E38.71207
G1 X201.661 Y202.312 E38.72553
G1 X201.411 Y202.347 E38.73393
G1 X201.264 Y202.37 E38.73887
G1 X188.56 Y202.371 E39.16141
G1 X188.416 Y202.345 E39.16628
G1 X188.158 Y202.311 E39.17493
G1 X188.019 Y202.249 E39.18
G1 X187.805 Y202.116 E39.18838
G1 X187.596 Y201.907 E39.19821
G1 X187.402 Y201.552 E39.21166
G0 F18000 X187.82 Y201.415
G0 X188.164 Y201.296
;TYPE:SKIN
G1 F2550 X188.135 Y201.097 E39.21835
G1 X188.134 Y188.515 E39.63683
G1 X188.166 Y188.3 E39.64406
G1 X188.221 Y188.2 E39.64786
G1 X188.379 Y188.073 E39.6546
G1 X188.626 Y188.026 E39.66296
G1 X201.204 Y188.025 E40.08131
G1 X201.427 Y188.058 E40.0888
G1 X201.642 Y188.27 E40.09885
G1 X201.688 Y188.516 E40.10717
G1 X201.689 Y201.091 E40.52542
G1 X201.621 Y201.375 E40.53513
G1 X201.409 Y201.55 E40.54427
G1 X201.204 Y201.58 E40.55116
G1 X188.626 Y201.581 E40.96951
G1 X188.394 Y201.547 E40.97731
G1 X188.238 Y201.433 E40.98373
G1 X188.164 Y201.296 E40.98891
G0 F18000 X188.307 Y188.439
G1 F2550 X188.542 Y188.203 E40.99999
G0 F18000 X189.127 Y188.185
G1 F2550 X188.294 Y189.017 E41.03915
G0 F18000 X188.294 Y189.583
G1 F2550 X189.692 Y188.185 E41.10491
G0 F18000 X190.258 Y188.185
G1 F2550 X188.294 Y190.148 E41.19726
G0 F18000 X188.294 Y190.714
G1 F2550 X190.824 Y188.185 E41.31624
G0 F18000 X191.389 Y188.185
G1 F2550 X188.294 Y191.28 E41.46182
G0 F18000 X188.294 Y191.845
G1 F2550 X191.955 Y188.185 E41.634
G0 F18000 X192.521 Y188.185
G1 F2550 X188.294 Y192.411 E41.8328
G0 F18000 X188.294 Y192.977
G1 F2550 X193.086 Y188.185 E42.0582
G0 F18000 X193.652 Y188.185
G1 F2550 X188.294 Y193.542 E42.3102
G0 F18000 X188.294 Y194.108
G1 F2550 X194.218 Y188.185 E42.58883
G0 F18000 X194.783 Y188.185
G1 F2550 X188.294 Y194.674 E42.89405
G0 F18000 X188.295 Y195.239
G1 F2550 X195.349 Y188.185 E43.22585
G0 F18000 X195.915 Y188.185
G1 F2550 X188.295 Y195.804 E43.58425
G0 F18000 X188.295 Y196.37
G1 F2550 X196.48 Y188.185 E43.96924
G0 F18000 X197.046 Y188.185
G1 F2550 X188.295 Y196.936 E44.38086
G0 F18000 X188.295 Y197.501
G1 F2550 X197.612 Y188.185 E44.81908
G0 F18000 X198.177 Y188.185
G1 F2550 X188.295 Y198.067 E45.2839
G0 F18000 X188.295 Y198.633
G1 F2550 X198.743 Y188.185 E45.77535
G0 F18000 X199.309 Y188.185
G1 F2550 X188.295 Y199.199 E46.29341
G0 F18000 X188.295 Y199.764
G1 F2550 X199.875 Y188.185 E46.83807
G0 F18000 X200.44 Y188.185
G1 F2550 X188.295 Y200.33 E47.40934
G0 F18000 X188.295 Y200.896
G1 F2550 X201.006 Y188.185 E48.00722
G0 F18000 X201.451 Y188.306
G1 F2550 X188.402 Y201.355 E48.62101
G0 F18000 X188.902 Y201.42
G1 F2550 X201.526 Y188.796 E49.2148
G0 F18000 X201.526 Y189.361
G1 F2550 X189.468 Y201.42 E49.782
G0 F18000 X190.034 Y201.42
G1 F2550 X201.526 Y189.927 E50.32257
G0 F18000 X201.526 Y190.493
G1 F2550 X190.599 Y201.42 E50.83654
G0 F18000 X191.165 Y201.42
G1 F2550 X201.526 Y191.058 E51.32392
G0 F18000 X201.526 Y191.624
G1 F2550 X191.731 Y201.42 E51.78467
G0 F18000 X192.296 Y201.42
G1 F2550 X201.526 Y192.19 E52.21882
G0 F18000 X201.526 Y192.755
G1 F2550 X192.862 Y201.42 E52.62637
G0 F18000 X193.428 Y201.42
G1 F2550 X201.526 Y193.321 E53.0073
G0 F18000 X201.526 Y193.887
G1 F2550 X193.994 Y201.42 E53.3616
G0 F18000 X194.559 Y201.42
G1 F2550 X201.526 Y194.452 E53.68933
G0 F18000 X201.527 Y195.017
G1 F2550 X195.125 Y201.42 E53.99049
G0 F18000 X195.691 Y201.42
G1 F2550 X201.527 Y195.583 E54.26502
G0 F18000 X201.527 Y196.149
G1 F2550 X196.256 Y201.42 E54.51295
G0 F18000 X196.822 Y201.42
G1 F2550 X201.527 Y196.714 E54.73428
G0 F18000 X201.527 Y197.28
G1 F2550 X197.388 Y201.42 E54.92899
G0 F18000 X197.953 Y201.42
G1 F2550 X201.527 Y197.846 E55.0971
G0 F18000 X201.527 Y198.412
