;FLAVOR:Marlin
;TIME:9250
;Filament used: 5.0995m
;Layer height: 0.2
;MINX:12.247
;MINY:8.903
;MINZ:0.3
;MAXX:207.298
;MAXY:211.7
;MAXZ:11.5
;Generated with Cura_SteamEngine 4.9.0
M140 S70
M105
M190 S70
M104 S190
M105
M109 S190
M82 ;absolute extrusion mode
; Ender 3 Custom Start G-code
G92 E0 ; Reset Extruder
G28 ; Home all axes
G1 Z2.0 F3000 ; Move Z Axis up little to prevent scratching of Heat Bed
G1 X0.1 Y20 Z0.3 F5000.0 ; Move to start position
G1 X0.1 Y200.0 Z0.3 F1500.0 E15 ; Draw the first line
G1 X0.4 Y200.0 Z0.3 F5000.0 ; Move to side a little
G1 X0.4 Y20 Z0.3 F1500.0 E30 ; Draw the second line
G92 E0 ; Reset Extruder
G1 Z2.0 F3000 ; Move Z Axis up little to prevent scratching of Heat Bed
G1 X5 Y20 Z0.3 F5000.0 ; Move over to prevent blob squish
G92 E0
G92 E0
G1 F3600 E-6
;LAYER_COUNT:32
;LAYER:0
M107
G0 F6000 X183.596 Y187.219 Z0.3
;TYPE:SKIRT
G1 F3600 E0
G1 F1200 X183.752 Y187.068 E0.01083
G1 X184.26 Y186.632 E0.04423
G1 X184.816 Y186.26 E0.07761
G1 X185.412 Y185.957 E0.11096
G1 X185.78 Y185.813 E0.13068
G1 X186.091 Y185.703 E0.14714
G1 X186.982 Y185.468 E0.19311
G1 X187.112 Y185.445 E0.19969
G1 X187.923 Y185.361 E0.24037
G1 X188.263 Y185.351 E0.25734
G1 X188.428 Y185.349 E0.26557
G1 X200.111 Y185.348 E0.84844
G1 X200.871 Y185.359 E0.88636
G1 X201.538 Y185.408 E0.91973
G1 X202.13 Y185.521 E0.9498
G1 X202.438 Y185.597 E0.96562
G1 X203.03 Y185.779 E0.99652
G1 X203.193 Y185.839 E1.00519
G1 X203.806 Y186.107 E1.03857
G1 X204.383 Y186.446 E1.07195
G1 X204.915 Y186.852 E1.10534
G1 X205.163 Y187.079 E1.12211
G1 X205.439 Y187.352 E1.14148
G1 X205.592 Y187.511 E1.15249
G1 X206.026 Y188.02 E1.18586
G1 X206.397 Y188.577 E1.21925
G1 X206.698 Y189.174 E1.25261
G1 X206.844 Y189.548 E1.27264
G1 X206.955 Y189.866 E1.28944
G1 X207.189 Y190.776 E1.33632
G1 X207.209 Y190.894 E1.34229
G1 X207.286 Y191.671 E1.38124
G1 X207.296 Y192.024 E1.39886
G1 X207.298 Y192.183 E1.4068
G1 X207.298 Y203.896 E1.99116
G1 X207.288 Y204.61 E2.02678
G1 X207.191 Y205.575 E2.07517
G1 X207.155 Y205.765 E2.08482
G1 X206.966 Y206.493 E2.12234
G1 X206.899 Y206.694 E2.13291
G1 X206.65 Y207.315 E2.16629
G1 X206.328 Y207.902 E2.1997
G1 X206.034 Y208.325 E2.2254
G1 X205.865 Y208.546 E2.23928
G1 X205.277 Y209.201 E2.28319
G1 X205.112 Y209.358 E2.29455
G1 X204.601 Y209.789 E2.3279
G1 X204.042 Y210.157 E2.36129
G1 X203.134 Y210.575 E2.41116
G1 X202.851 Y210.676 E2.42615
G1 X202.047 Y210.897 E2.46775
G1 X201.894 Y210.927 E2.47553
G1 X200.975 Y211.03 E2.52167
G1 X200.624 Y211.04 E2.53919
G1 X200.465 Y211.042 E2.54712
G1 X188.711 Y211.042 E3.13353
G1 X188.033 Y211.032 E3.16736
G1 X187.366 Y210.983 E3.20073
G1 X186.735 Y210.86 E3.2328
G1 X186.401 Y210.775 E3.24999
G1 X185.764 Y210.572 E3.28335
G1 X185.155 Y210.294 E3.31675
G1 X184.664 Y210 E3.3453
G1 X184.385 Y209.813 E3.36206
G1 X183.853 Y209.408 E3.39541
G1 X183.434 Y209.008 E3.42431
G1 X183.278 Y208.843 E3.43564
G1 X182.848 Y208.331 E3.469
G1 X182.482 Y207.77 E3.50242
G1 X182.134 Y207.04 E3.54276
G1 X182.041 Y206.794 E3.55588
G1 X181.963 Y206.571 E3.56767
G1 X181.759 Y205.826 E3.60621
G1 X181.725 Y205.657 E3.61481
G1 X181.617 Y204.7 E3.66286
G1 X181.605 Y204.172 E3.6892
G1 X181.605 Y192.444 E4.27432
G1 X181.616 Y191.732 E4.30984
G1 X181.666 Y191.065 E4.34321
G1 X181.807 Y190.365 E4.37884
G1 X181.878 Y190.101 E4.39248
G1 X182.053 Y189.561 E4.4208
G1 X182.117 Y189.393 E4.42977
G1 X182.392 Y188.784 E4.4631
G1 X182.738 Y188.211 E4.4965
G1 X183.349 Y187.469 E4.54445
G1 X183.596 Y187.219 E4.56198
G0 F6000 X183.874 Y187.507
G1 F1200 X184.03 Y187.356 E4.57282
G1 X184.521 Y186.937 E4.60502
G1 X185.059 Y186.582 E4.63718
G1 X185.913 Y186.19 E4.68406
G1 X186.224 Y186.08 E4.70051
G1 X187.052 Y185.862 E4.74323
G1 X187.182 Y185.839 E4.74982
G1 X187.935 Y185.761 E4.78759
G1 X188.275 Y185.751 E4.80456
G1 X188.428 Y185.749 E4.81219
G1 X200.111 Y185.748 E5.39506
G1 X200.865 Y185.759 E5.43268
G1 X201.508 Y185.808 E5.46485
G1 X202.034 Y185.909 E5.49157
G1 X202.342 Y185.985 E5.5074
G1 X202.892 Y186.154 E5.53611
G1 X203.055 Y186.214 E5.54477
G1 X203.645 Y186.474 E5.57694
G1 X204.199 Y186.805 E5.60913
G1 X204.884 Y187.366 E5.65331
G1 X205.151 Y187.629 E5.67201
G1 X205.304 Y187.788 E5.68301
G1 X205.721 Y188.28 E5.71519
G1 X206.075 Y188.819 E5.74736
G1 X206.467 Y189.68 E5.79456
G1 X206.578 Y189.998 E5.81136
G1 X206.795 Y190.843 E5.85489
G1 X206.815 Y190.961 E5.86086
G1 X206.886 Y191.683 E5.89705
G1 X206.896 Y192.036 E5.91467
G1 X206.898 Y192.183 E5.92201
G1 X206.898 Y203.891 E6.50612
G1 X206.888 Y204.605 E6.54175
G1 X206.798 Y205.5 E6.58662
G1 X206.762 Y205.69 E6.59627
G1 X206.586 Y206.366 E6.63112
G1 X206.519 Y206.567 E6.64169
G1 X206.278 Y207.165 E6.67386
G1 X205.964 Y207.728 E6.70602
G1 X205.717 Y208.082 E6.72756
G1 X205.548 Y208.303 E6.74144
G1 X205.001 Y208.911 E6.78224
G1 X204.836 Y209.068 E6.7936
G1 X204.343 Y209.483 E6.82575
G1 X203.802 Y209.833 E6.8579
G1 X203 Y210.198 E6.90186
G1 X202.717 Y210.299 E6.91685
G1 X201.97 Y210.505 E6.95551
G1 X201.817 Y210.535 E6.96329
G1 X200.964 Y210.63 E7.00611
G1 X200.613 Y210.64 E7.02362
G1 X200.465 Y210.642 E7.03101
G1 X188.717 Y210.642 E7.61712
G1 X188.039 Y210.632 E7.65095
G1 X187.397 Y210.583 E7.68307
G1 X186.834 Y210.472 E7.7117
G1 X186.5 Y210.387 E7.72889
G1 X185.886 Y210.19 E7.76107
G1 X185.301 Y209.918 E7.79325
G1 X184.887 Y209.668 E7.81738
G1 X184.608 Y209.481 E7.83414
G1 X184.096 Y209.089 E7.86631
G1 X183.724 Y208.733 E7.892
G1 X183.568 Y208.568 E7.90332
G1 X183.155 Y208.073 E7.93549
G1 X182.807 Y207.531 E7.96762
G1 X182.506 Y206.894 E8.00277
G1 X182.341 Y206.439 E8.02692
G1 X182.151 Y205.748 E8.06267
G1 X182.117 Y205.579 E8.07127
G1 X182.017 Y204.689 E8.11595
G1 X182.005 Y204.172 E8.14175
G1 X182.005 Y192.451 E8.72652
G1 X182.016 Y191.739 E8.76204
G1 X182.066 Y191.096 E8.79422
G1 X182.193 Y190.469 E8.82613
G1 X182.264 Y190.205 E8.83977
G1 X182.427 Y189.704 E8.86606
G1 X182.491 Y189.536 E8.87503
G1 X182.757 Y188.949 E8.90718
G1 X183.094 Y188.399 E8.93936
G1 X183.635 Y187.749 E8.98155
G1 X183.874 Y187.507 E8.99852
G1 F3600 E2.99852
;MESH:2.2.3-flatMX.stl(15)
G0 F6000 X186.68 Y191.27
G0 X187.623 Y191.885
G0 X187.805 Y204.507
;TYPE:WALL-INNER
G1 F3600 E8.99852
G1 F1200 X187.804 Y191.913 E9.62684
G1 X187.856 Y191.743 E9.63571
G1 X187.985 Y191.599 E9.64535
G1 X188.138 Y191.549 E9.65338
G1 X200.737 Y191.548 E10.28195
G1 X200.904 Y191.6 E10.29068
G1 X201.048 Y191.729 E10.30032
G1 X201.098 Y191.882 E10.30835
G1 X201.099 Y204.483 E10.93702
G1 X201.048 Y204.647 E10.94559
G1 X200.918 Y204.792 E10.9553
G1 X200.764 Y204.842 E10.96338
G1 X188.167 Y204.843 E11.59185
G1 X188 Y204.791 E11.60057
G1 X187.855 Y204.662 E11.61026
G1 X187.805 Y204.507 E11.61838
G0 F6000 X187.425 Y204.65
;TYPE:WALL-OUTER
G1 F1200 X187.405 Y204.545 E11.62371
G1 X187.404 Y191.854 E12.25687
G1 X187.5 Y191.542 E12.27316
G1 X187.754 Y191.256 E12.29224
G1 X188 Y191.168 E12.30527
G1 X188.103 Y191.149 E12.3105
G1 X200.8 Y191.148 E12.94396
G1 X201.105 Y191.244 E12.95991
G1 X201.391 Y191.498 E12.97899
G1 X201.479 Y191.744 E12.99203
G1 X201.498 Y191.847 E12.99725
G1 X201.499 Y204.544 E13.63071
G1 X201.404 Y204.849 E13.64665
G1 X201.149 Y205.134 E13.66572
G1 X200.907 Y205.222 E13.67857
G1 X200.801 Y205.242 E13.68395
G1 X188.104 Y205.243 E14.31741
G1 X187.798 Y205.147 E14.33341
G1 X187.514 Y204.894 E14.35238
G1 X187.425 Y204.65 E14.36534
G0 F6000 X187.849 Y204.534
G0 X188.195 Y204.443
;TYPE:SKIN
G1 F1200 X188.194 Y191.97 E14.98762
G1 X188.204 Y191.939 E14.98925
G1 X200.679 Y191.938 E15.61163
G1 X200.708 Y191.948 E15.61316
G1 X200.709 Y204.425 E16.23564
G1 X200.699 Y204.452 E16.23708
G1 X188.227 Y204.453 E16.85931
G1 X188.195 Y204.443 E16.86098
G0 F6000 X188.452 Y204.291
G1 F1200 X188.354 Y204.194 E16.86786
G0 F6000 X188.354 Y203.628
G1 F1200 X189.018 Y204.291 E16.91467
G0 F6000 X189.583 Y204.291
G1 F1200 X188.354 Y203.062 E17.00138
G0 F6000 X188.354 Y202.496
G1 F1200 X190.149 Y204.291 E17.12803
G0 F6000 X190.715 Y204.291
G1 F1200 X188.354 Y201.931 E17.29458
G0 F6000 X188.354 Y201.365
G1 F1200 X191.28 Y204.291 E17.50102
G0 F6000 X191.846 Y204.291
G1 F1200 X188.354 Y200.799 E17.7474
G0 F6000 X188.354 Y200.234
G1 F1200 X192.412 Y204.291 E18.03368
G0 F6000 X192.977 Y204.291
G1 F1200 X188.354 Y199.667 E18.35989
G0 F6000 X188.354 Y199.102
G1 F1200 X193.543 Y204.291 E18.726
G0 F6000 X194.109 Y204.291
G1 F1200 X188.354 Y198.536 E19.13205
G0 F6000 X188.354 Y197.97
G1 F1200 X194.674 Y204.29 E19.57796
G0 F6000 X195.239 Y204.29
G1 F1200 X188.354 Y197.405 E20.06374
G0 F6000 X188.354 Y196.839
G1 F1200 X195.805 Y204.29 E20.58944
G0 F6000 X196.371 Y204.29
G1 F1200 X188.354 Y196.273 E21.15509
G0 F6000 X188.353 Y195.707
G1 F1200 X196.937 Y204.29 E21.7607
G0 F6000 X197.502 Y204.29
G1 F1200 X188.353 Y195.141 E22.40621
G0 F6000 X188.353 Y194.575
G1 F1200 X198.068 Y204.29 E23.09166
G0 F6000 X198.634 Y204.29
G1 F1200 X188.353 Y194.01 E23.817
G0 F6000 X188.353 Y193.444
G1 F1200 X199.199 Y204.29 E24.58224
G0 F6000 X199.765 Y204.29
G1 F1200 X188.353 Y192.878 E25.38742
G0 F6000 X188.353 Y192.313
G1 F1200 X200.331 Y204.29 E26.2325
G0 F6000 X200.548 Y203.943
G1 F1200 X188.704 Y192.098 E27.06819
G0 F6000 X189.269 Y192.098
G1 F1200 X200.548 Y203.377 E27.86399
G0 F6000 X200.548 Y202.811
G1 F1200 X189.835 Y192.098 E28.61985
G0 F6000 X190.401 Y192.098
G1 F1200 X200.548 Y202.245 E29.33577
G0 F6000 X200.548 Y201.68
G1 F1200 X190.966 Y192.098 E30.01184
G0 F6000 X191.532 Y192.098
G1 F1200 X200.548 Y201.114 E30.64796
G0 F6000 X200.548 Y200.548
G1 F1200 X192.098 Y192.098 E31.24416
G0 F6000 X192.663 Y192.098
G1 F1200 X200.548 Y199.983 E31.80049
G0 F6000 X200.548 Y199.417
G1 F1200 X193.229 Y192.098 E32.31688
G0 F6000 X193.795 Y192.098
G1 F1200 X200.548 Y198.851 E32.79334
G0 F6000 X200.548 Y198.286
G1 F1200 X194.361 Y192.098 E33.2299
G0 F6000 X194.926 Y192.098
G1 F1200 X200.548 Y197.719 E33.62653
G0 F6000 X200.548 Y197.154
G1 F1200 X195.492 Y192.098 E33.98326
G0 F6000 X196.058 Y192.098
G1 F1200 X200.548 Y196.588 E34.30005
G0 F6000 X200.548 Y196.022
G1 F1200 X196.623 Y192.098 E34.57695
G0 F6000 X197.189 Y192.098
G1 F1200 X200.548 Y195.457 E34.81394
G0 F6000 X200.548 Y194.891
G1 F1200 X197.755 Y192.098 E35.011
G0 F6000 X198.32 Y192.098
G1 F1200 X200.548 Y194.325 E35.16816
G0 F6000 X200.548 Y193.759
G1 F1200 X198.886 Y192.098 E35.28539
G0 F6000 X199.452 Y192.098
G1 F1200 X200.548 Y193.194 E35.36272
G0 F6000 X200.548 Y192.628
G1 F1200 X200.017 Y192.098 E35.40015
G0 F6000 X200.016 Y191.749
G1 F3600 E29.40015
;MESH:NONMESH
G0 F300 X200.016 Y191.749 Z0.5
G0 F6000 X200.017 Y191.658
G0 X188.082 Y191.749
G0 X187.75 Y204.665
G0 X187.329 Y204.817
;TIME_ELAPSED:45.678804
;LAYER:1
M106 S127.5
;TYPE:WALL-INNER
;MESH:2.2.3-flatMX.stl(15)
G1 F3600 E35.40015
G1 F1500 X187.285 Y204.517 E35.41024
G1 X187.284 Y191.877 E35.83064
G1 X187.332 Y191.553 E35.84154
G1 X187.456 Y191.337 E35.84982
G1 X187.749 Y191.102 E35.86231
G1 X188.01 Y191.048 E35.87118
G1 X188.13 Y191.029 E35.87522
G1 X200.772 Y191.028 E36.29569
G1 X201.08 Y191.074 E36.30605
G1 X201.31 Y191.201 E36.31479
G1 X201.545 Y191.493 E36.32726
G1 X201.6 Y191.755 E36.33616
G1 X201.619 Y191.875 E36.3402
G1 X201.62 Y204.511 E36.76048
G1 X201.571 Y204.841 E36.77157
G1 X201.45 Y205.051 E36.77963
G1 X201.155 Y205.289 E36.79224
G1 X200.894 Y205.343 E36.80111
G1 X200.774 Y205.362 E36.80515
G1 X188.132 Y205.363 E37.22562
G1 X187.824 Y205.317 E37.23598
G1 X187.591 Y205.189 E37.24482
G1 X187.461 Y205.059 E37.25094
G1 X187.329 Y204.817 E37.2601
G0 F7500 X186.943 Y204.945
;TYPE:WALL-OUTER
G1 F1500 X186.908 Y204.695 E37.2685
G1 X186.885 Y204.548 E37.27345
G1 X186.884 Y191.843 E37.69602
G1 X186.909 Y191.7 E37.70085
G1 X186.944 Y191.442 E37.70951
G1 X187.006 Y191.303 E37.71457
G1 X187.141 Y191.086 E37.72307
G1 X187.345 Y190.882 E37.73267
G1 X187.561 Y190.748 E37.74112
G1 X187.699 Y190.686 E37.74615
G1 X187.953 Y190.652 E37.75468
G1 X188.1 Y190.629 E37.75962
G1 X200.805 Y190.628 E38.18219
G1 X200.949 Y190.653 E38.18706
G1 X201.205 Y190.687 E38.19564
G1 X201.481 Y190.836 E38.20608
G1 X201.559 Y190.884 E38.20912
G1 X201.766 Y191.091 E38.21886
G1 X201.899 Y191.305 E38.22724
G1 X201.961 Y191.443 E38.23227
G1 X201.996 Y191.697 E38.2408
G1 X202.019 Y191.844 E38.24575
G1 X202.02 Y204.548 E38.66828
G1 X201.994 Y204.692 E38.67315
G1 X201.96 Y204.949 E38.68177
G1 X201.898 Y205.088 E38.68684
G1 X201.765 Y205.302 E38.69522
G1 X201.556 Y205.511 E38.70505
G1 X201.343 Y205.643 E38.71338
G1 X201.205 Y205.705 E38.71841
G1 X200.951 Y205.739 E38.72694
G1 X200.804 Y205.762 E38.73189
G1 X188.099 Y205.763 E39.15446
G1 X187.955 Y205.738 E39.15932
G1 X187.699 Y205.704 E39.16791
G1 X187.423 Y205.555 E39.17834
G1 X187.344 Y205.508 E39.1814
G1 X187.138 Y205.301 E39.19111
G1 X186.943 Y204.945 E39.20461
G0 F7500 X187.36 Y204.807
G0 X187.705 Y204.69
;TYPE:SKIN
G1 F1500 X187.675 Y204.488 E39.2114
G1 X187.674 Y191.907 E39.62985
G1 X187.708 Y191.681 E39.63745
G1 X187.757 Y191.595 E39.64074
G1 X187.919 Y191.465 E39.64765
G1 X188.165 Y191.419 E39.65597
G1 X200.74 Y191.418 E40.07422
G1 X200.953 Y191.45 E40.08138
G1 X201.055 Y191.506 E40.08525
G1 X201.182 Y191.663 E40.09197
G1 X201.229 Y191.91 E40.10033
G1 X201.23 Y204.481 E40.51845
G1 X201.196 Y204.711 E40.52618
G1 X200.982 Y204.926 E40.53627
G1 X200.739 Y204.972 E40.54449
G1 X188.164 Y204.973 E40.96274
G1 X187.948 Y204.941 E40.97
G1 X187.78 Y204.828 E40.97674
G1 X187.705 Y204.69 E40.98196
G0 F7500 X187.428 Y204.73
G0 X187.394 Y192.305
G0 X187.835 Y192.305
G1 F1500 X188.562 Y191.577 E41.01618
G0 F7500 X189.128 Y191.577
G1 F1500 X187.835 Y192.871 E41.07702
G0 F7500 X187.835 Y193.436
G1 F1500 X189.694 Y191.577 E41.16446
G0 F7500 X190.259 Y191.577
G1 F1500 X187.835 Y194.002 E41.27851
G0 F7500 X187.835 Y194.568
G1 F1500 X190.825 Y191.577 E41.41917
G0 F7500 X191.391 Y191.577
G1 F1500 X187.835 Y195.133 E41.58643
G0 F7500 X187.835 Y195.699
G1 F1500 X191.956 Y191.577 E41.7803
G0 F7500 X192.522 Y191.577
G1 F1500 X187.835 Y196.265 E42.00078
G0 F7500 X187.835 Y196.83
G1 F1500 X193.088 Y191.577 E42.24787
G0 F7500 X193.653 Y191.577
G1 F1500 X187.835 Y197.396 E42.52155
G0 F7500 X187.835 Y197.962
G1 F1500 X194.219 Y191.577 E42.82186
G0 F7500 X194.785 Y191.577
G1 F1500 X187.835 Y198.528 E43.14879
G0 F7500 X187.835 Y199.093
G1 F1500 X195.35 Y191.577 E43.50229
G0 F7500 X195.916 Y191.577
G1 F1500 X187.835 Y199.659 E43.88242
G0 F7500 X187.835 Y200.225
G1 F1500 X196.482 Y191.577 E44.28917
G0 F7500 X197.048 Y191.577
G1 F1500 X187.835 Y200.79 E44.72253
G0 F7500 X187.835 Y201.356
G1 F1500 X197.613 Y191.577 E45.18248
G0 F7500 X198.179 Y191.577
G1 F1500 X187.835 Y201.922 E45.66905
G0 F7500 X187.835 Y202.487
G1 F1500 X198.745 Y191.577 E46.18222
G0 F7500 X199.31 Y191.577
G1 F1500 X187.835 Y203.053 E46.722
G0 F7500 X187.835 Y203.619
G1 F1500 X199.876 Y191.577 E47.28839
G0 F7500 X200.442 Y191.577
G1 F1500 X187.835 Y204.184 E47.88139
G0 F7500 X187.89 Y204.694
G1 F1500 X200.951 Y191.634 E48.49571
G0 F7500 X201.067 Y192.083
G1 F1500 X188.338 Y204.812 E49.09444
G0 F7500 X188.904 Y204.812
G1 F1500 X201.067 Y192.649 E49.66655
G0 F7500 X201.067 Y193.214
G1 F1500 X189.469 Y204.812 E50.21209
G0 F7500 X190.035 Y204.812
G1 F1500 X201.067 Y193.78 E50.731
G0 F7500 X201.067 Y194.346
G1 F1500 X190.601 Y204.812 E51.22329
G0 F7500 X191.167 Y204.812
G1 F1500 X201.067 Y194.911 E51.68898
G0 F7500 X201.067 Y195.477
G1 F1500 X191.732 Y204.812 E52.12807
G0 F7500 X192.298 Y204.812
G1 F1500 X201.067 Y196.043 E52.54053
G0 F7500 X201.068 Y196.608
G1 F1500 X192.864 Y204.812 E52.92643
G0 F7500 X193.429 Y204.812
G1 F1500 X201.068 Y197.173 E53.28574
G0 F7500 X201.068 Y197.739
G1 F1500 X193.995 Y204.812 E53.61843
G0 F7500 X194.561 Y204.812
G1 F1500 X201.068 Y198.305 E53.9245
G0 F7500 X201.068 Y198.87
G1 F1500 X195.127 Y204.812 E54.20397
G0 F7500 X195.693 Y204.812
G1 F1500 X201.068 Y199.436 E54.45682
G0 F7500 X201.068 Y200.002
G1 F1500 X196.258 Y204.812 E54.68307
G0 F7500 X196.824 Y204.812
G1 F1500 X201.069 Y200.567 E54.88274
G0 F7500 X201.069 Y201.132
G1 F1500 X197.39 Y204.812 E55.05581
G0 F7500 X197.955 Y204.812
G1 F1500 X201.069 Y201.698 E55.20228
G0 F7500 X201.069 Y202.264
G1 F1500 X198.521 Y204.812 E55.32213
G0 F7500 X199.087 Y204.812
G1 F1500 X201.069 Y202.83 E55.41536
