;FLAVOR:Marlin
;TIME:383
;Filament used: 0.296368m
;Layer height: 0.2
;MINX:96.753
;MINY:96.752
;MINZ:0.3
;MAXX:123.247
;MAXY:123.247
;MAXZ:5.5
;Generated with Cura_SteamEngine 4.9.1
M140 S70
M105
M190 S70
M104 S200
M105
M109 S200
M82 ;absolute extrusion mode
; Ender 3 Custom Start G-code
G92 E0 ; Reset Extruder
G28 ; Home all axes
G1 Z2.0 F3000 ; Move Z Axis up little to prevent scratching of Heat Bed
G1 X0.1 Y20 Z0.3 F5000.0 ; Move to start position
G1 X0.1 Y200.0 Z0.3 F1500.0 E15 ; Draw the first line
G1 X0.4 Y200.0 Z0.3 F5000.0 ; Move to side a little
G1 X0.4 Y20 Z0.3 F1500.0 E30 ; Draw the second line
G92 E0 ; Reset Extruder
G1 Z2.0 F3000 ; Move Z Axis up little to prevent scratching of Heat Bed
G1 X5 Y20 Z0.3 F5000.0 ; Move over to prevent blob squish
G92 E0
G92 E0
G1 F3000 E-6
;LAYER_COUNT:27
;LAYER:0
M106 S255
G0 F6000 X98.858 Y98.744 Z0.3
;TYPE:SKIRT
G1 F3000 E0
G1 F1200 X99.029 Y98.579 E0.01186
G1 X99.554 Y98.128 E0.04639
G1 X100.128 Y97.74 E0.08095
G1 X100.742 Y97.421 E0.11547
G1 X101.177 Y97.247 E0.13884
G1 X101.457 Y97.147 E0.15368
G1 X102.228 Y96.928 E0.19367
G1 X102.388 Y96.894 E0.20183
G1 X103.072 Y96.789 E0.23635
G1 X103.464 Y96.765 E0.25594
G1 X103.815 Y96.755 E0.27346
G1 X103.985 Y96.753 E0.28194
G1 X115.657 Y96.752 E0.86426
G1 X116.465 Y96.764 E0.90458
G1 X117.156 Y96.814 E0.93914
G1 X117.924 Y96.967 E0.97821
G1 X118.193 Y97.039 E0.9921
G1 X118.851 Y97.256 E1.02667
G1 X119.479 Y97.548 E1.06122
G1 X119.801 Y97.734 E1.07978
G1 X120.082 Y97.908 E1.09627
G1 X120.649 Y98.306 E1.13083
G1 X121.256 Y98.859 E1.17179
G1 X121.437 Y99.048 E1.18485
G1 X121.887 Y99.575 E1.21942
G1 X122.272 Y100.15 E1.25395
G1 X122.589 Y100.766 E1.28851
G1 X122.756 Y101.185 E1.31101
G1 X122.855 Y101.463 E1.32573
G1 X123.077 Y102.251 E1.36658
G1 X123.111 Y102.414 E1.37489
G1 X123.213 Y103.099 E1.40944
G1 X123.234 Y103.462 E1.42758
G1 X123.244 Y103.801 E1.4445
G1 X123.247 Y103.977 E1.45328
G1 X123.247 Y115.7 E2.03814
G1 X123.237 Y116.448 E2.07546
G1 X123.188 Y117.139 E2.11002
G1 X123.04 Y117.897 E2.14855
G1 X122.972 Y118.155 E2.16187
G1 X122.757 Y118.814 E2.19645
G1 X122.3 Y119.738 E2.24788
G1 X122.118 Y120.038 E2.26538
G1 X121.725 Y120.608 E2.29993
G1 X121.168 Y121.231 E2.34162
G1 X120.996 Y121.398 E2.35358
G1 X120.472 Y121.851 E2.38814
G1 X119.617 Y122.399 E2.4388
G1 X119.581 Y122.418 E2.44083
G1 X118.79 Y122.765 E2.48393
G1 X118.534 Y122.856 E2.49748
G1 X117.771 Y123.072 E2.53704
G1 X117.611 Y123.106 E2.5452
G1 X116.927 Y123.211 E2.57973
G1 X116.54 Y123.234 E2.59907
G1 X116.2 Y123.244 E2.61604
G1 X116.025 Y123.247 E2.62477
G1 X104.249 Y123.247 E3.21228
G1 X103.535 Y123.236 E3.2479
G1 X102.844 Y123.186 E3.28247
G1 X102.076 Y123.033 E3.32154
G1 X101.807 Y122.961 E3.33543
G1 X101.149 Y122.744 E3.37
G1 X100.521 Y122.452 E3.40455
G1 X100.133 Y122.225 E3.42698
G1 X99.838 Y122.037 E3.44443
G1 X99.277 Y121.632 E3.47895
G1 X98.746 Y121.144 E3.51493
G1 X98.579 Y120.971 E3.52692
G1 X98.128 Y120.446 E3.56145
G1 X97.74 Y119.872 E3.59602
G1 X97.421 Y119.258 E3.63054
G1 X97.239 Y118.803 E3.65499
G1 X97.139 Y118.52 E3.66996
G1 X96.918 Y117.726 E3.71108
G1 X96.885 Y117.565 E3.71928
G1 X96.786 Y116.879 E3.75386
G1 X96.765 Y116.533 E3.77115
G1 X96.755 Y116.186 E3.78847
G1 X96.753 Y116.014 E3.79706
G1 X96.753 Y104.242 E4.38436
G1 X96.764 Y103.53 E4.41989
G1 X96.814 Y102.84 E4.4544
G1 X96.973 Y102.05 E4.49461
G1 X97.045 Y101.785 E4.50831
G1 X97.265 Y101.128 E4.54287
G1 X97.559 Y100.501 E4.57742
G1 X97.778 Y100.129 E4.59896
G1 X97.967 Y99.833 E4.61648
G1 X98.373 Y99.272 E4.65103
G1 X98.858 Y98.744 E4.6868
G0 F6000 X99.136 Y99.032
G1 F1200 X99.307 Y98.867 E4.69865
G1 X99.815 Y98.432 E4.73202
G1 X100.371 Y98.061 E4.76537
G1 X100.968 Y97.759 E4.79875
G1 X101.312 Y97.623 E4.8172
G1 X101.592 Y97.523 E4.83203
G1 X102.311 Y97.319 E4.86932
G1 X102.471 Y97.285 E4.87748
G1 X103.133 Y97.186 E4.91088
G1 X103.476 Y97.165 E4.92802
G1 X103.827 Y97.155 E4.94554
G1 X103.986 Y97.153 E4.95347
G1 X115.658 Y97.152 E5.53579
G1 X116.459 Y97.164 E5.57576
G1 X117.126 Y97.214 E5.60913
G1 X117.821 Y97.353 E5.64449
G1 X118.09 Y97.425 E5.65838
G1 X118.725 Y97.637 E5.69178
G1 X119.59 Y98.074 E5.74013
G1 X119.871 Y98.248 E5.75662
G1 X120.418 Y98.633 E5.78999
G1 X120.967 Y99.136 E5.82714
G1 X121.148 Y99.325 E5.84019
G1 X121.582 Y99.835 E5.8736
G1 X121.951 Y100.393 E5.90698
G1 X122.251 Y100.991 E5.94036
G1 X122.379 Y101.319 E5.95792
G1 X122.478 Y101.597 E5.97265
G1 X122.685 Y102.333 E6.01079
G1 X122.719 Y102.496 E6.0191
G1 X122.835 Y103.474 E6.06823
G1 X122.845 Y103.813 E6.08515
G1 X122.847 Y103.978 E6.09338
G1 X122.847 Y115.695 E6.67795
G1 X122.837 Y116.443 E6.71527
G1 X122.789 Y117.11 E6.74863
G1 X122.653 Y117.795 E6.78347
G1 X122.585 Y118.053 E6.79678
G1 X122.376 Y118.689 E6.83018
G1 X121.958 Y119.531 E6.87708
G1 X121.776 Y119.831 E6.89459
G1 X121.395 Y120.381 E6.92797
G1 X120.889 Y120.944 E6.96573
G1 X120.717 Y121.111 E6.97769
G1 X120.21 Y121.547 E7.01106
G1 X119.43 Y122.046 E7.05725
G1 X119.394 Y122.065 E7.05928
G1 X118.656 Y122.389 E7.09949
G1 X118.4 Y122.48 E7.11305
G1 X117.688 Y122.681 E7.14996
G1 X117.528 Y122.715 E7.15812
G1 X116.866 Y122.814 E7.19151
G1 X116.529 Y122.835 E7.20836
G1 X116.189 Y122.845 E7.22533
G1 X116.024 Y122.847 E7.23356
G1 X104.255 Y122.847 E7.82072
G1 X103.541 Y122.836 E7.85635
G1 X102.874 Y122.786 E7.88972
G1 X102.179 Y122.647 E7.92508
G1 X101.91 Y122.575 E7.93897
G1 X101.275 Y122.363 E7.97237
G1 X100.67 Y122.078 E8.00573
G1 X100.348 Y121.888 E8.02439
G1 X100.053 Y121.7 E8.04184
G1 X99.512 Y121.307 E8.0752
G1 X99.034 Y120.866 E8.10765
G1 X98.867 Y120.693 E8.11964
G1 X98.432 Y120.185 E8.15301
G1 X98.061 Y119.629 E8.18636
G1 X97.758 Y119.032 E8.21976
G1 X97.616 Y118.67 E8.23916
G1 X97.516 Y118.387 E8.25413
G1 X97.31 Y117.645 E8.29255
G1 X97.277 Y117.484 E8.30075
G1 X97.165 Y116.521 E8.34912
G1 X97.155 Y116.174 E8.36644
G1 X97.153 Y116.013 E8.37447
G1 X97.153 Y104.248 E8.96143
G1 X97.164 Y103.536 E8.99695
G1 X97.214 Y102.869 E9.03032
G1 X97.359 Y102.155 E9.06667
G1 X97.431 Y101.89 E9.08037
G1 X97.645 Y101.256 E9.11376
G1 X97.932 Y100.652 E9.14712
G1 X98.115 Y100.344 E9.16499
G1 X98.304 Y100.048 E9.18251
G1 X98.697 Y99.507 E9.21587
G1 X99.136 Y99.032 E9.24814
G0 F6000 X99.413 Y99.32
G1 F1200 X99.584 Y99.155 E9.26
G1 X100.075 Y98.737 E9.29217
G1 X100.614 Y98.383 E9.32434
G1 X101.446 Y98 E9.37004
G1 X101.726 Y97.9 E9.38487
G1 X102.394 Y97.711 E9.4195
G1 X102.554 Y97.677 E9.42767
G1 X103.487 Y97.565 E9.47455
G1 X103.838 Y97.555 E9.49207
G1 X103.986 Y97.553 E9.49945
G1 X115.658 Y97.552 E10.08177
G1 X116.453 Y97.564 E10.12144
G1 X117.096 Y97.613 E10.15361
G1 X117.717 Y97.74 E10.18523
G1 X117.986 Y97.812 E10.19912
G1 X118.598 Y98.017 E10.23132
G1 X119.38 Y98.414 E10.27508
G1 X119.661 Y98.588 E10.29157
G1 X120.187 Y98.961 E10.32374
G1 X120.679 Y99.412 E10.35704
G1 X120.86 Y99.601 E10.37009
G1 X121.276 Y100.094 E10.40227
G1 X121.628 Y100.634 E10.43443
G1 X122.003 Y101.454 E10.47942
G1 X122.102 Y101.732 E10.49414
G1 X122.293 Y102.414 E10.52948
G1 X122.327 Y102.577 E10.53778
G1 X122.435 Y103.486 E10.58345
G1 X122.445 Y103.825 E10.60037
G1 X122.447 Y103.978 E10.60801
G1 X122.448 Y115.69 E11.19232
G1 X122.438 Y116.438 E11.22964
G1 X122.389 Y117.08 E11.26176
G1 X122.266 Y117.693 E11.29296
G1 X122.198 Y117.951 E11.30627
G1 X121.996 Y118.563 E11.33842
G1 X121.616 Y119.323 E11.38081
G1 X121.434 Y119.623 E11.39832
G1 X121.066 Y120.153 E11.43051
G1 X120.61 Y120.657 E11.46442
G1 X120.438 Y120.824 E11.47638
G1 X119.949 Y121.243 E11.50851
G1 X119.243 Y121.692 E11.55025
G1 X119.207 Y121.711 E11.55228
G1 X118.522 Y122.012 E11.58961
G1 X118.266 Y122.103 E11.60316
G1 X117.605 Y122.289 E11.63742
G1 X117.445 Y122.323 E11.64558
G1 X116.517 Y122.435 E11.69221
G1 X116.177 Y122.445 E11.70918
G1 X116.024 Y122.447 E11.71682
G1 X104.261 Y122.447 E12.30368
G1 X103.547 Y122.436 E12.3393
G1 X102.904 Y122.387 E12.37148
G1 X102.283 Y122.26 E12.4031
G1 X102.014 Y122.188 E12.41699
G1 X101.402 Y121.983 E12.44919
G1 X100.563 Y121.55 E12.49629
G1 X100.268 Y121.362 E12.51375
G1 X99.747 Y120.983 E12.54589
G1 X99.322 Y120.589 E12.5748
G1 X99.155 Y120.416 E12.5868
G1 X98.737 Y119.925 E12.61897
G1 X98.382 Y119.386 E12.65117
G1 X97.993 Y118.536 E12.69781
G1 X97.893 Y118.253 E12.71278
G1 X97.702 Y117.565 E12.7484
G1 X97.669 Y117.404 E12.7566
G1 X97.565 Y116.51 E12.8015
G1 X97.555 Y116.163 E12.81882
G1 X97.553 Y116.013 E12.82631
G1 X97.553 Y104.255 E13.41292
G1 X97.564 Y103.543 E13.44844
G1 X97.614 Y102.9 E13.48062
G1 X97.745 Y102.26 E13.51321
G1 X97.817 Y101.995 E13.52691
G1 X98.024 Y101.384 E13.5591
G1 X98.452 Y100.56 E13.60542
G1 X98.641 Y100.264 E13.62294
G1 X99.021 Y99.743 E13.65511
G1 X99.413 Y99.32 E13.68389
G1 F3000 E7.68389
;MESH:choc v1.1.stl
G0 F6000 X102.228 Y103.072
G0 X103.371 Y103.719
G0 X103.731 Y116.55
G0 X103.717 Y116.648
;TYPE:WALL-INNER
G1 F3000 E13.68389
G1 F1200 X103.548 Y116.596 E13.69271
G1 X103.402 Y116.466 E13.70246
G1 X103.353 Y116.311 E13.71057
G1 X103.352 Y103.717 E14.33889
G1 X103.404 Y103.548 E14.34771
G1 X103.534 Y103.402 E14.35746
G1 X103.689 Y103.353 E14.36557
G1 X116.283 Y103.352 E14.99389
G1 X116.452 Y103.404 E15.00271
G1 X116.598 Y103.534 E15.01246
G1 X116.647 Y103.689 E15.02057
G1 X116.648 Y116.283 E15.64889
G1 X116.596 Y116.452 E15.65771
G1 X116.466 Y116.598 E15.66747
G1 X116.311 Y116.647 E15.67558
G1 X103.717 Y116.648 E16.30389
G0 F6000 X103.658 Y117.048
;TYPE:WALL-OUTER
G1 F1200 X103.346 Y116.952 E16.32018
G1 X103.061 Y116.698 E16.33923
G1 X102.973 Y116.454 E16.35217
G1 X102.953 Y116.349 E16.3575
G1 X102.952 Y103.658 E16.99066
G1 X103.048 Y103.346 E17.00694
G1 X103.302 Y103.061 E17.02599
G1 X103.546 Y102.973 E17.03893
G1 X103.651 Y102.953 E17.04426
G1 X116.342 Y102.952 E17.67742
G1 X116.654 Y103.048 E17.6937
G1 X116.939 Y103.302 E17.71275
G1 X117.027 Y103.546 E17.72569
G1 X117.047 Y103.651 E17.73102
G1 X117.048 Y116.342 E18.36418
G1 X116.952 Y116.654 E18.38047
G1 X116.698 Y116.939 E18.39951
G1 X116.454 Y117.027 E18.41245
G1 X116.349 Y117.047 E18.41778
G1 X103.658 Y117.048 E19.05094
G0 F6000 X103.723 Y116.613
G0 X103.776 Y116.258
;TYPE:SKIN
G1 F1200 X103.743 Y116.248 E19.05266
G1 X103.742 Y103.775 E19.67494
G1 X103.752 Y103.743 E19.67661
G1 X116.224 Y103.742 E20.29885
G1 X116.257 Y103.752 E20.30057
G1 X116.258 Y116.224 E20.9228
G1 X116.249 Y116.257 E20.9245
G1 X103.776 Y116.258 E21.54678
G0 F6000 X104.217 Y116.097
G1 F1200 X103.902 Y115.781 E21.56904
G0 F6000 X103.902 Y115.215
G1 F1200 X104.783 Y116.097 E21.63124
G0 F6000 X105.349 Y116.097
G1 F1200 X103.902 Y114.65 E21.73333
G0 F6000 X103.902 Y114.084
G1 F1200 X105.914 Y116.097 E21.87532
G0 F6000 X106.48 Y116.097
G1 F1200 X103.902 Y113.518 E22.05725
G0 F6000 X103.902 Y112.953
G1 F1200 X107.046 Y116.097 E22.27908
G0 F6000 X107.611 Y116.097
G1 F1200 X103.902 Y112.387 E22.5408
G0 F6000 X103.902 Y111.821
G1 F1200 X108.177 Y116.097 E22.84246
G0 F6000 X108.743 Y116.097
G1 F1200 X103.902 Y111.256 E23.18402
G0 F6000 X103.902 Y110.69
G1 F1200 X109.308 Y116.097 E23.56548
G0 F6000 X109.874 Y116.097
G1 F1200 X103.902 Y110.124 E23.98687
G0 F6000 X103.902 Y109.559
G1 F1200 X110.44 Y116.097 E24.44816
G0 F6000 X111.005 Y116.097
G1 F1200 X103.902 Y108.993 E24.94935
G0 F6000 X103.902 Y108.427
G1 F1200 X111.571 Y116.097 E25.49048
G0 F6000 X112.137 Y116.097
G1 F1200 X103.902 Y107.862 E26.0715
G0 F6000 X103.902 Y107.296
G1 F1200 X112.702 Y116.097 E26.69242
G0 F6000 X113.268 Y116.097
G1 F1200 X103.902 Y106.73 E27.35328
G0 F6000 X103.902 Y106.165
G1 F1200 X113.834 Y116.097 E28.05404
G0 F6000 X114.399 Y116.097
G1 F1200 X103.902 Y105.599 E28.79469
G0 F6000 X103.902 Y105.033
G1 F1200 X114.965 Y116.097 E29.57528
G0 F6000 X115.531 Y116.097
G1 F1200 X103.902 Y104.467 E30.39581
G0 F6000 X103.902 Y103.902
G1 F1200 X116.097 Y116.097 E31.25623
G0 F6000 X116.097 Y115.531
G1 F1200 X104.467 Y103.902 E32.07675
G0 F6000 X105.033 Y103.902
G1 F1200 X116.097 Y114.965 E32.85734
G0 F6000 X116.097 Y114.399
G1 F1200 X105.599 Y103.902 E33.598
G0 F6000 X106.165 Y103.902
G1 F1200 X116.097 Y113.834 E34.29875
G0 F6000 X116.097 Y113.268
G1 F1200 X106.73 Y103.902 E34.95961
G0 F6000 X107.296 Y103.902
G1 F1200 X116.097 Y112.702 E35.58053
G0 F6000 X116.097 Y112.137
G1 F1200 X107.862 Y103.902 E36.16156
G0 F6000 X108.427 Y103.902
G1 F1200 X116.097 Y111.571 E36.70268
G0 F6000 X116.097 Y111.005
G1 F1200 X108.993 Y103.902 E37.20387
G0 F6000 X109.559 Y103.902
G1 F1200 X116.097 Y110.44 E37.66516
G0 F6000 X116.097 Y109.874
G1 F1200 X110.124 Y103.902 E38.08656
G0 F6000 X110.69 Y103.902
G1 F1200 X116.097 Y109.308 E38.46801
G0 F6000 X116.097 Y108.743
G1 F1200 X111.256 Y103.902 E38.80957
G0 F6000 X111.821 Y103.902
G1 F1200 X116.097 Y108.177 E39.11123
G0 F6000 X116.097 Y107.611
G1 F1200 X112.387 Y103.902 E39.37296
G0 F6000 X112.953 Y103.902
G1 F1200 X116.097 Y107.046 E39.59478
G0 F6000 X116.097 Y106.48
G1 F1200 X113.518 Y103.902 E39.77671
G0 F6000 X114.084 Y103.902
G1 F1200 X116.097 Y105.914 E39.9187
G0 F6000 X116.097 Y105.349
G1 F1200 X114.65 Y103.902 E40.0208
G0 F6000 X115.215 Y103.902
G1 F1200 X116.097 Y104.783 E40.08299
G0 F6000 X116.097 Y104.217
G1 F1200 X115.781 Y103.902 E40.10525
;MESH:NONMESH
G0 F300 X115.781 Y103.902 Z0.5
G0 F6000 X103.731 Y116.55
G0 X103.685 Y117.168
;TIME_ELAPSED:49.326646
;LAYER:1
;TYPE:WALL-INNER
;MESH:choc v1.1.stl
G1 F2100 X103.355 Y117.119 E40.11635
G1 X103.142 Y116.996 E40.12453
G1 X102.906 Y116.701 E40.13709
G1 X102.852 Y116.441 E40.14593
G1 X102.833 Y116.321 E40.14997
G1 X102.832 Y103.685 E40.57024
G1 X102.881 Y103.355 E40.58134
G1 X103.004 Y103.142 E40.58952
G1 X103.297 Y102.907 E40.60201
G1 X103.559 Y102.852 E40.61092
G1 X103.679 Y102.833 E40.61496
G1 X116.315 Y102.832 E41.03523
G1 X116.645 Y102.881 E41.04633
G1 X116.858 Y103.004 E41.05451
G1 X117.093 Y103.297 E41.067
G1 X117.148 Y103.559 E41.07591
G1 X117.167 Y103.679 E41.07995
G1 X117.168 Y116.315 E41.50022
G1 X117.119 Y116.645 E41.51132
G1 X116.996 Y116.858 E41.5195
G1 X116.703 Y117.093 E41.53199
G1 X116.441 Y117.148 E41.5409
G1 X116.321 Y117.167 E41.54494
G1 X103.685 Y117.168 E41.96521
G0 F10500 X103.648 Y117.568
;TYPE:WALL-OUTER
G1 F2100 X103.504 Y117.542 E41.97008
G1 X103.247 Y117.508 E41.9787
G1 X103.108 Y117.446 E41.98376
G1 X102.891 Y117.311 E41.99226
G1 X102.687 Y117.107 E42.00186
G1 X102.553 Y116.891 E42.01031
G1 X102.491 Y116.753 E42.01535
G1 X102.456 Y116.499 E42.02387
G1 X102.433 Y116.352 E42.02882
G1 X102.432 Y103.648 E42.45136
G1 X102.458 Y103.504 E42.45623
G1 X102.492 Y103.247 E42.46485
G1 X102.554 Y103.108 E42.46991
G1 X102.689 Y102.891 E42.47841
G1 X102.893 Y102.687 E42.48801
G1 X103.109 Y102.553 E42.49646
G1 X103.247 Y102.491 E42.50149
G1 X103.501 Y102.456 E42.51002
G1 X103.648 Y102.433 E42.51497
G1 X116.352 Y102.432 E42.93751
G1 X116.496 Y102.458 E42.94237
G1 X116.753 Y102.492 E42.95099
G1 X116.892 Y102.554 E42.95606
G1 X117.109 Y102.689 E42.96456
G1 X117.313 Y102.893 E42.97415
G1 X117.447 Y103.109 E42.98261
G1 X117.509 Y103.247 E42.98764
G1 X117.544 Y103.501 E42.99617
G1 X117.567 Y103.648 E43.00112
G1 X117.568 Y116.352 E43.42365
G1 X117.542 Y116.496 E43.42852
G1 X117.508 Y116.753 E43.43714
G1 X117.446 Y116.892 E43.4422
G1 X117.311 Y117.109 E43.4507
G1 X117.107 Y117.313 E43.4603
G1 X116.891 Y117.447 E43.46875
G1 X116.753 Y117.509 E43.47379
G1 X116.499 Y117.544 E43.48231
G1 X116.352 Y117.567 E43.48726
G1 X103.648 Y117.568 E43.9098
G0 F10500 X103.687 Y117.13
G0 X103.715 Y116.778
;TYPE:SKIN
G1 F2100 X103.485 Y116.744 E43.91753
G1 X103.269 Y116.531 E43.92762
G1 X103.223 Y116.287 E43.93588
G1 X103.222 Y103.715 E44.35403
G1 X103.256 Y103.485 E44.36176
G1 X103.467 Y103.27 E44.37178
G1 X103.714 Y103.223 E44.38014
G1 X116.285 Y103.222 E44.79825
G1 X116.515 Y103.256 E44.80599
G1 X116.73 Y103.467 E44.81601
G1 X116.777 Y103.714 E44.82437
G1 X116.778 Y116.285 E45.24248
G1 X116.744 Y116.515 E45.25022
G1 X116.533 Y116.73 E45.26023
G1 X116.286 Y116.777 E45.2686
G1 X103.715 Y116.778 E45.68671
G0 F10500 X115.879 Y116.616
G1 F2100 X116.616 Y115.879 E45.72138
G0 F10500 X116.616 Y115.314
G1 F2100 X115.314 Y116.616 E45.78262
G0 F10500 X114.748 Y116.616
G1 F2100 X116.616 Y114.748 E45.87048
G0 F10500 X116.616 Y114.182
G1 F2100 X114.182 Y116.616 E45.98497
