;FLAVOR:Marlin
;TIME:6248
;Filament used: 4.66785m
;Layer height: 0.2
;MINX:10.405
;MINY:9.481
;MINZ:0.3
;MAXX:210.794
;MAXY:211.078
;MAXZ:10.691
;Generated with Cura_SteamEngine 4.9.1
M140 S70
M105
M190 S70
M104 S200
M105
M109 S200
M82 ;absolute extrusion mode
; Ender 3 Custom Start G-code
G92 E0 ; Reset Extruder
G28 ; Home all axes
G1 Z2.0 F3000 ; Move Z Axis up little to prevent scratching of Heat Bed
G1 X0.1 Y20 Z0.3 F5000.0 ; Move to start position
G1 X0.1 Y200.0 Z0.3 F1500.0 E15 ; Draw the first line
G1 X0.4 Y200.0 Z0.3 F5000.0 ; Move to side a little
G1 X0.4 Y20 Z0.3 F1500.0 E30 ; Draw the second line
G92 E0 ; Reset Extruder
G1 Z2.0 F3000 ; Move Z Axis up little to prevent scratching of Heat Bed
G1 X5 Y20 Z0.3 F5000.0 ; Move over to prevent blob squish
G92 E0
G92 E0
G1 F3600 E-7
;LAYER_COUNT:27
;LAYER:0
M106 S255
G0 F6000 X187.115 Y186.979 Z0.3
;TYPE:SKIRT
G1 F3600 E0
G1 F1200 X187.274 Y186.827 E0.01097
G1 X187.785 Y186.395 E0.04436
G1 X188.343 Y186.026 E0.07773
G1 X188.941 Y185.726 E0.11111
G1 X189.262 Y185.601 E0.1283
G1 X189.545 Y185.5 E0.14329
G1 X190.268 Y185.295 E0.18078
G1 X190.424 Y185.262 E0.18874
G1 X191.086 Y185.163 E0.22213
G1 X191.424 Y185.143 E0.23902
G1 X191.776 Y185.133 E0.25659
G1 X191.935 Y185.131 E0.26452
G1 X203.606 Y185.13 E0.84679
G1 X204.407 Y185.142 E0.88676
G1 X205.074 Y185.192 E0.92013
G1 X205.747 Y185.326 E0.95436
G1 X205.99 Y185.39 E0.9669
G1 X206.491 Y185.547 E0.9931
G1 X206.682 Y185.617 E1.00324
G1 X207.295 Y185.884 E1.0366
G1 X207.872 Y186.223 E1.06999
G1 X208.405 Y186.628 E1.10339
G1 X208.673 Y186.874 E1.12154
G1 X208.935 Y187.134 E1.13995
G1 X209.088 Y187.293 E1.15096
G1 X209.522 Y187.802 E1.18433
G1 X209.893 Y188.359 E1.21772
G1 X210.194 Y188.956 E1.25108
G1 X210.331 Y189.304 E1.26973
G1 X210.436 Y189.6 E1.2854
G1 X210.664 Y190.449 E1.32926
G1 X210.69 Y190.589 E1.33637
G1 X210.782 Y191.449 E1.37952
G1 X210.792 Y191.793 E1.39669
G1 X210.794 Y191.956 E1.40482
G1 X210.794 Y203.676 E1.98953
G1 X210.784 Y204.392 E2.02526
G1 X210.735 Y205.059 E2.05862
G1 X210.624 Y205.647 E2.08848
G1 X210.549 Y205.953 E2.10419
G1 X210.351 Y206.592 E2.13757
G1 X210.079 Y207.203 E2.17094
G1 X209.872 Y207.567 E2.19183
G1 X209.695 Y207.853 E2.20861
G1 X209.309 Y208.4 E2.24201
G1 X208.833 Y208.924 E2.27733
G1 X208.663 Y209.089 E2.28915
G1 X208.156 Y209.526 E2.32254
G1 X207.601 Y209.899 E2.3559
G1 X206.766 Y210.301 E2.40214
G1 X206.484 Y210.409 E2.4172
G1 X205.635 Y210.659 E2.46136
G1 X205.464 Y210.695 E2.47007
G1 X204.476 Y210.813 E2.51972
G1 X204.138 Y210.823 E2.53659
G1 X203.972 Y210.825 E2.54487
G1 X192.203 Y210.825 E3.13203
G1 X191.489 Y210.814 E3.16765
G1 X190.822 Y210.764 E3.20102
G1 X190.127 Y210.625 E3.23638
G1 X189.858 Y210.553 E3.25028
G1 X189.223 Y210.341 E3.28368
G1 X188.618 Y210.056 E3.31704
G1 X188.235 Y209.826 E3.33933
G1 X187.924 Y209.622 E3.35788
G1 X187.387 Y209.222 E3.39129
G1 X186.972 Y208.834 E3.41964
G1 X186.82 Y208.677 E3.43054
G1 X186.384 Y208.17 E3.4639
G1 X186.012 Y207.614 E3.49727
G1 X185.708 Y207.017 E3.5307
G1 X185.558 Y206.633 E3.55126
G1 X185.447 Y206.316 E3.56802
G1 X185.209 Y205.393 E3.61558
G1 X185.188 Y205.268 E3.6219
G1 X185.113 Y204.5 E3.6604
G1 X185.103 Y204.151 E3.67782
G1 X185.101 Y203.991 E3.6858
G1 X185.101 Y192.226 E4.27276
G1 X185.111 Y191.555 E4.30624
G1 X185.161 Y190.887 E4.33966
G1 X185.287 Y190.241 E4.37249
G1 X185.372 Y189.911 E4.3895
G1 X185.577 Y189.274 E4.42288
G1 X185.857 Y188.667 E4.45623
G1 X186.156 Y188.171 E4.48512
G1 X186.346 Y187.89 E4.50205
G1 X186.753 Y187.359 E4.53543
G1 X187.115 Y186.979 E4.56161
G0 F6000 X187.392 Y187.268
G1 F1200 X187.551 Y187.116 E4.57258
G1 X188.043 Y186.701 E4.6047
G1 X188.584 Y186.349 E4.6369
G1 X189.396 Y185.978 E4.68144
G1 X189.679 Y185.877 E4.69643
G1 X190.351 Y185.687 E4.73127
G1 X190.507 Y185.654 E4.73922
G1 X191.435 Y185.543 E4.78585
G1 X191.787 Y185.533 E4.80342
G1 X191.935 Y185.531 E4.8108
G1 X203.606 Y185.53 E5.39307
G1 X204.401 Y185.542 E5.43274
G1 X205.044 Y185.591 E5.46491
G1 X205.645 Y185.712 E5.4955
G1 X205.888 Y185.776 E5.50803
G1 X206.353 Y185.923 E5.53237
G1 X206.544 Y185.993 E5.54251
G1 X207.135 Y186.251 E5.57469
G1 X207.689 Y186.581 E5.60686
G1 X208.393 Y187.16 E5.65233
G1 X208.647 Y187.411 E5.67015
G1 X208.8 Y187.57 E5.68116
G1 X209.217 Y188.062 E5.71333
G1 X209.571 Y188.601 E5.74551
G1 X209.954 Y189.438 E5.79143
G1 X210.059 Y189.734 E5.8071
G1 X210.271 Y190.523 E5.84786
G1 X210.297 Y190.663 E5.85496
G1 X210.382 Y191.461 E5.895
G1 X210.392 Y191.805 E5.91217
G1 X210.394 Y191.956 E5.9197
G1 X210.394 Y203.671 E6.50417
G1 X210.384 Y204.387 E6.53989
G1 X210.336 Y205.029 E6.57201
G1 X210.236 Y205.552 E6.59857
G1 X210.161 Y205.858 E6.61429
G1 X209.969 Y206.473 E6.64644
G1 X209.702 Y207.06 E6.67861
G1 X209.532 Y207.357 E6.69568
G1 X209.355 Y207.643 E6.71246
G1 X208.982 Y208.169 E6.74463
G1 X208.555 Y208.637 E6.77624
G1 X208.385 Y208.802 E6.78806
G1 X207.895 Y209.222 E6.82026
G1 X207.357 Y209.578 E6.85244
G1 X206.623 Y209.927 E6.89299
G1 X206.341 Y210.035 E6.90805
G1 X205.552 Y210.267 E6.94908
G1 X205.381 Y210.303 E6.9578
G1 X204.464 Y210.413 E7.00388
G1 X204.126 Y210.423 E7.02075
G1 X203.972 Y210.425 E7.02843
G1 X192.209 Y210.425 E7.61529
G1 X191.495 Y210.414 E7.65092
G1 X190.852 Y210.365 E7.68309
G1 X190.231 Y210.238 E7.71471
G1 X189.962 Y210.166 E7.72861
G1 X189.35 Y209.961 E7.76081
G1 X188.769 Y209.682 E7.79296
G1 X188.454 Y209.491 E7.81134
G1 X188.143 Y209.287 E7.8299
G1 X187.627 Y208.901 E7.86205
G1 X187.259 Y208.556 E7.88721
G1 X187.107 Y208.399 E7.89811
G1 X186.688 Y207.909 E7.93028
G1 X186.333 Y207.371 E7.96244
G1 X185.935 Y206.501 E8.01017
G1 X185.824 Y206.184 E8.02692
G1 X185.604 Y205.327 E8.07107
G1 X185.583 Y205.202 E8.07739
G1 X185.513 Y204.489 E8.11313
G1 X185.503 Y204.14 E8.13055
G1 X185.501 Y203.991 E8.13799
G1 X185.501 Y192.232 E8.72464
G1 X185.511 Y191.561 E8.75812
G1 X185.56 Y190.918 E8.7903
G1 X185.674 Y190.341 E8.81964
G1 X185.759 Y190.011 E8.83664
G1 X185.959 Y189.398 E8.86881
G1 X186.232 Y188.814 E8.90097
G1 X186.487 Y188.395 E8.92544
G1 X186.677 Y188.114 E8.94237
G1 X187.071 Y187.604 E8.97452
G1 X187.392 Y187.268 E8.9977
G1 F3600 E1.9977
;MESH:16 choc 1.1 models.3mf(15)
G0 F6000 X190.176 Y191.053
G0 X191.319 Y191.696
G0 X191.399 Y204.277
G0 X191.301 Y204.292
;TYPE:WALL-INNER
G1 F3600 E8.9977
G1 F1200 X191.3 Y191.693 E9.62627
G1 X191.352 Y191.526 E9.635
G1 X191.481 Y191.382 E9.64464
G1 X191.637 Y191.331 E9.65283
G1 X204.23 Y191.33 E10.2811
G1 X204.399 Y191.382 E10.28992
G1 X204.544 Y191.511 E10.2996
G1 X204.594 Y191.664 E10.30763
G1 X204.595 Y204.263 E10.9362
G1 X204.543 Y204.43 E10.94492
G1 X204.413 Y204.576 E10.95468
G1 X204.259 Y204.625 E10.96274
G1 X191.665 Y204.626 E11.59106
G1 X191.495 Y204.574 E11.59993
G1 X191.351 Y204.445 E11.60957
G1 X191.301 Y204.292 E11.6176
G0 F6000 X190.92 Y204.43
;TYPE:WALL-OUTER
G1 F1200 X190.901 Y204.327 E11.62283
G1 X190.9 Y191.63 E12.25628
G1 X190.996 Y191.324 E12.27228
G1 X191.25 Y191.04 E12.29129
G1 X191.494 Y190.951 E12.30425
G1 X191.599 Y190.931 E12.30958
G1 X204.29 Y190.93 E12.94274
G1 X204.601 Y191.026 E12.95898
G1 X204.887 Y191.28 E12.97806
G1 X204.975 Y191.526 E12.9911
G1 X204.994 Y191.629 E12.99632
G1 X204.995 Y204.326 E13.62978
G1 X204.899 Y204.632 E13.64578
G1 X204.645 Y204.917 E13.66482
G1 X204.402 Y205.005 E13.67772
G1 X204.297 Y205.025 E13.68305
G1 X191.606 Y205.026 E14.31621
G1 X191.294 Y204.93 E14.33249
G1 X191.008 Y204.676 E14.35158
G1 X190.92 Y204.43 E14.36461
G0 F6000 X191.344 Y204.316
G0 X191.691 Y204.226
;TYPE:SKIN
G1 F1200 X191.69 Y191.751 E14.98699
G1 X191.7 Y191.721 E14.98857
G1 X204.171 Y191.72 E15.61075
G1 X204.204 Y191.73 E15.61247
G1 X204.205 Y204.202 E16.2347
G1 X204.196 Y204.235 E16.23641
G1 X191.723 Y204.236 E16.85869
G1 X191.691 Y204.226 E16.86036
G0 F6000 X192.195 Y204.074
G1 F1200 X191.85 Y203.729 E16.8847
G0 F6000 X191.85 Y203.163
G1 F1200 X192.76 Y204.074 E16.94894
G0 F6000 X193.326 Y204.074
G1 F1200 X191.85 Y202.598 E17.05308
G0 F6000 X191.85 Y202.032
G1 F1200 X193.892 Y204.074 E17.19716
G0 F6000 X194.457 Y204.074
G1 F1200 X191.85 Y201.466 E17.38113
G0 F6000 X191.85 Y200.901
G1 F1200 X195.023 Y204.074 E17.605
G0 F6000 X195.589 Y204.074
G1 F1200 X191.85 Y200.335 E17.86881
G0 F6000 X191.85 Y199.769
G1 F1200 X196.154 Y204.074 E18.17251
G0 F6000 X196.72 Y204.074
G1 F1200 X191.85 Y199.204 E18.51612
G0 F6000 X191.85 Y198.638
G1 F1200 X197.286 Y204.074 E18.89966
G0 F6000 X197.852 Y204.074
G1 F1200 X191.85 Y198.072 E19.32313
G0 F6000 X191.85 Y197.506
G1 F1200 X198.417 Y204.074 E19.7865
G0 F6000 X198.983 Y204.074
G1 F1200 X191.85 Y196.941 E20.28977
G0 F6000 X191.85 Y196.375
G1 F1200 X199.549 Y204.074 E20.83298
G0 F6000 X200.114 Y204.074
G1 F1200 X191.85 Y195.809 E21.41609
G0 F6000 X191.85 Y195.244
G1 F1200 X200.68 Y204.074 E22.03909
G0 F6000 X201.246 Y204.074
G1 F1200 X191.85 Y194.678 E22.70203
G0 F6000 X191.85 Y194.112
G1 F1200 X201.811 Y204.074 E23.40487
G0 F6000 X202.377 Y204.074
G1 F1200 X191.85 Y193.547 E24.1476
G0 F6000 X191.85 Y192.981
G1 F1200 X202.943 Y204.074 E24.93027
G0 F6000 X203.508 Y204.074
G1 F1200 X191.85 Y192.415 E25.75284
G0 F6000 X191.879 Y191.879
G1 F1200 X204.044 Y204.044 E26.61115
G0 F6000 X204.044 Y203.479
G1 F1200 X192.445 Y191.879 E27.42956
G0 F6000 X193.011 Y191.879
G1 F1200 X204.044 Y202.913 E28.20803
G0 F6000 X204.044 Y202.347
G1 F1200 X193.576 Y191.879 E28.94661
G0 F6000 X194.142 Y191.879
G1 F1200 X204.044 Y201.782 E29.64528
G0 F6000 X204.044 Y201.216
G1 F1200 X194.708 Y191.879 E30.30402
G0 F6000 X195.273 Y191.879
G1 F1200 X204.044 Y200.65 E30.92286
G0 F6000 X204.044 Y200.085
G1 F1200 X195.839 Y191.879 E31.5018
G0 F6000 X196.405 Y191.879
G1 F1200 X204.044 Y199.519 E32.04081
G0 F6000 X204.044 Y198.953
G1 F1200 X196.97 Y191.879 E32.53992
G0 F6000 X197.536 Y191.879
G1 F1200 X204.044 Y198.387 E32.9991
G0 F6000 X204.044 Y197.821
G1 F1200 X198.102 Y191.879 E33.41834
G0 F6000 X198.668 Y191.879
G1 F1200 X204.044 Y197.255 E33.79764
G0 F6000 X204.044 Y196.69
G1 F1200 X199.233 Y191.879 E34.13708
G0 F6000 X199.799 Y191.879
G1 F1200 X204.044 Y196.124 E34.43659
G0 F6000 X204.044 Y195.558
G1 F1200 X200.365 Y191.879 E34.69616
G0 F6000 X200.93 Y191.879
G1 F1200 X204.044 Y194.993 E34.91587
G0 F6000 X204.044 Y194.427
G1 F1200 X201.496 Y191.879 E35.09565
G0 F6000 X202.062 Y191.879
G1 F1200 X204.044 Y193.861 E35.23549
G0 F6000 X204.044 Y193.296
G1 F1200 X202.627 Y191.879 E35.33547
G0 F6000 X203.193 Y191.879
G1 F1200 X204.044 Y192.73 E35.39551
G0 F6000 X204.044 Y192.164
G1 F1200 X203.759 Y191.879 E35.41562
G1 F3600 E28.41562
;MESH:NONMESH
G0 F300 X203.759 Y191.879 Z0.5
G0 F6000 X191.434 Y204.391
G0 X190.854 Y204.681
;TIME_ELAPSED:45.565091
;LAYER:1
;TYPE:WALL-INNER
;MESH:16 choc 1.1 models.3mf(15)
G1 F3600 E35.41562
G1 F2100 X190.8 Y204.42 E35.42448
G1 X190.781 Y204.3 E35.42852
G1 X190.78 Y191.658 E35.849
G1 X190.826 Y191.35 E35.85936
G1 X190.952 Y191.12 E35.86808
G1 X191.245 Y190.885 E35.88057
G1 X191.507 Y190.83 E35.88948
G1 X191.627 Y190.811 E35.89352
G1 X204.263 Y190.81 E36.31379
G1 X204.593 Y190.859 E36.32489
G1 X204.806 Y190.982 E36.33307
G1 X205.041 Y191.275 E36.34556
G1 X205.095 Y191.536 E36.35443
G1 X205.114 Y191.656 E36.35847
G1 X205.115 Y204.298 E36.77894
G1 X205.069 Y204.606 E36.7893
G1 X204.978 Y204.775 E36.79568
G1 X204.799 Y204.975 E36.80461
G1 X204.569 Y205.101 E36.81333
G1 X204.269 Y205.145 E36.82342
G1 X191.633 Y205.146 E37.24369
G1 X191.302 Y205.097 E37.25482
G1 X191.089 Y204.974 E37.263
G1 X190.854 Y204.681 E37.27549
G0 F10500 X190.438 Y204.731
;TYPE:WALL-OUTER
G1 F2100 X190.404 Y204.477 E37.28402
G1 X190.381 Y204.33 E37.28897
G1 X190.38 Y191.625 E37.71154
G1 X190.405 Y191.481 E37.7164
G1 X190.439 Y191.225 E37.72499
G1 X190.588 Y190.949 E37.73542
G1 X190.635 Y190.871 E37.73845
G1 X190.843 Y190.664 E37.74821
G1 X191.057 Y190.531 E37.75659
G1 X191.195 Y190.469 E37.76162
G1 X191.449 Y190.434 E37.77015
G1 X191.596 Y190.411 E37.7751
G1 X204.3 Y190.41 E38.19763
G1 X204.444 Y190.436 E38.2025
G1 X204.701 Y190.47 E38.21112
G1 X204.84 Y190.532 E38.21619
G1 X205.057 Y190.667 E38.22469
G1 X205.261 Y190.871 E38.23428
G1 X205.395 Y191.087 E38.24274
G1 X205.457 Y191.225 E38.24777
G1 X205.491 Y191.479 E38.25629
G1 X205.514 Y191.626 E38.26124
G1 X205.515 Y204.331 E38.68381
G1 X205.49 Y204.475 E38.68867
G1 X205.456 Y204.731 E38.69726
G1 X205.307 Y205.007 E38.70769
G1 X205.052 Y205.293 E38.72044
G1 X204.697 Y205.487 E38.73389
G1 X204.447 Y205.522 E38.74229
G1 X204.3 Y205.545 E38.74724
G1 X191.596 Y205.546 E39.16977
G1 X191.452 Y205.52 E39.17464
G1 X191.194 Y205.486 E39.1833
G1 X191.055 Y205.424 E39.18836
G1 X190.838 Y205.289 E39.19686
G1 X190.634 Y205.085 E39.20645
G1 X190.5 Y204.869 E39.21491
G1 X190.438 Y204.731 E39.21994
G0 F10500 X190.861 Y204.611
G0 X191.217 Y204.511
;TYPE:SKIN
G1 F2100 X191.171 Y204.266 E39.22823
G1 X191.17 Y191.69 E39.64651
G1 X191.202 Y191.475 E39.65374
G1 X191.257 Y191.375 E39.65754
G1 X191.415 Y191.248 E39.66428
G1 X191.662 Y191.201 E39.67264
G1 X204.233 Y191.2 E40.09075
G1 X204.463 Y191.234 E40.09849
G1 X204.678 Y191.445 E40.10851
G1 X204.724 Y191.691 E40.11683
G1 X204.725 Y204.266 E40.53508
G1 X204.657 Y204.55 E40.54479
G1 X204.445 Y204.725 E40.55393
G1 X204.24 Y204.755 E40.56082
G1 X191.662 Y204.756 E40.97917
G1 X191.432 Y204.722 E40.9869
G1 X191.217 Y204.511 E40.99692
G0 F10500 X191.341 Y191.627
G1 F2100 X191.593 Y191.375 E41.00877
G0 F10500 X192.174 Y191.36
G1 F2100 X191.331 Y192.203 E41.04843
G0 F10500 X191.331 Y192.769
G1 F2100 X192.74 Y191.36 E41.1147
G0 F10500 X193.306 Y191.36
G1 F2100 X191.331 Y193.335 E41.2076
G0 F10500 X191.331 Y193.9
G1 F2100 X193.871 Y191.36 E41.32707
G0 F10500 X194.437 Y191.36
G1 F2100 X191.331 Y194.466 E41.47317
G0 F10500 X191.331 Y195.032
G1 F2100 X195.003 Y191.36 E41.64589
G0 F10500 X195.568 Y191.36
G1 F2100 X191.331 Y195.597 E41.84519
G0 F10500 X191.331 Y196.163
G1 F2100 X196.134 Y191.36 E42.0711
G0 F10500 X196.7 Y191.36
G1 F2100 X191.331 Y196.729 E42.32365
G0 F10500 X191.331 Y197.294
G1 F2100 X197.265 Y191.36 E42.60276
G0 F10500 X197.831 Y191.36
G1 F2100 X191.331 Y197.86 E42.9085
G0 F10500 X191.331 Y198.426
G1 F2100 X198.397 Y191.36 E43.24087
G0 F10500 X198.962 Y191.36
G1 F2100 X191.331 Y198.991 E43.5998
G0 F10500 X191.331 Y199.557
G1 F2100 X199.528 Y191.36 E43.98537
G0 F10500 X200.094 Y191.36
G1 F2100 X191.331 Y200.123 E44.39755
G0 F10500 X191.331 Y200.688
G1 F2100 X200.659 Y191.36 E44.83631
G0 F10500 X201.225 Y191.36
G1 F2100 X191.331 Y201.254 E45.30169
G0 F10500 X191.331 Y201.82
G1 F2100 X201.791 Y191.36 E45.7937
G0 F10500 X202.356 Y191.36
G1 F2100 X191.331 Y202.385 E46.31228
G0 F10500 X191.331 Y202.951
G1 F2100 X202.922 Y191.36 E46.85749
G0 F10500 X203.488 Y191.36
G1 F2100 X191.331 Y203.517 E47.42932
G0 F10500 X191.331 Y204.083
G1 F2100 X204.054 Y191.36 E48.02777
G0 F10500 X204.492 Y191.487
G1 F2100 X191.456 Y204.522 E48.64092
G0 F10500 X191.949 Y204.595
G1 F2100 X204.563 Y191.982 E49.23422
G0 F10500 X204.563 Y192.548
G1 F2100 X192.515 Y204.595 E49.80089
G0 F10500 X193.081 Y204.595
G1 F2100 X204.563 Y193.113 E50.34097
G0 F10500 X204.563 Y193.679
G1 F2100 X193.646 Y204.595 E50.85445
G0 F10500 X194.212 Y204.595
G1 F2100 X204.563 Y194.245 E51.34131
G0 F10500 X204.563 Y194.81
G1 F2100 X194.778 Y204.595 E51.80156
G0 F10500 X195.343 Y204.595
G1 F2100 X204.563 Y195.376 E52.23522
G0 F10500 X204.563 Y195.942
G1 F2100 X195.909 Y204.595 E52.64226
G0 F10500 X196.475 Y204.595
G1 F2100 X204.563 Y196.507 E53.02269
G0 F10500 X204.563 Y197.073
G1 F2100 X197.04 Y204.595 E53.37653
G0 F10500 X197.606 Y204.595
G1 F2100 X204.563 Y197.639 E53.70374
G0 F10500 X204.563 Y198.204
G1 F2100 X198.173 Y204.594 E54.0043
G0 F10500 X198.738 Y204.594
G1 F2100 X204.563 Y198.769 E54.27829
G0 F10500 X204.563 Y199.335
G1 F2100 X199.304 Y204.594 E54.52566
G0 F10500 X199.87 Y204.594
G1 F2100 X204.563 Y199.901 E54.74641
G0 F10500 X204.563 Y200.466
G1 F2100 X200.435 Y204.594 E54.94057
G0 F10500 X201.001 Y204.594
G1 F2100 X204.563 Y201.032 E55.10812
G0 F10500 X204.563 Y201.598
G1 F2100 X201.567 Y204.594 E55.24904
G0 F10500 X202.132 Y204.594
G1 F2100 X204.563 Y202.163 E55.36339
G0 F10500 X204.563 Y202.729
G1 F2100 X202.698 Y204.594 E55.45111
