;FLAVOR:Marlin
;TIME:6192
;Filament used: 4.74284m
;Layer height: 0.2
;MINX:10.005
;MINY:9.081
;MINZ:0.3
;MAXX:211.194
;MAXY:211.478
;MAXZ:10.691
;Generated with Cura_SteamEngine 4.9.1
M140 S70
M105
M190 S70
M104 S200
M105
M109 S200
M82 ;absolute extrusion mode
; Ender 3 Custom Start G-code
G92 E0 ; Reset Extruder
G28 ; Home all axes
G1 Z2.0 F3000 ; Move Z Axis up little to prevent scratching of Heat Bed
G1 X0.1 Y20 Z0.3 F5000.0 ; Move to start position
G1 X0.1 Y200.0 Z0.3 F1500.0 E15 ; Draw the first line
G1 X0.4 Y200.0 Z0.3 F5000.0 ; Move to side a little
G1 X0.4 Y20 Z0.3 F1500.0 E30 ; Draw the second line
G92 E0 ; Reset Extruder
G1 Z2.0 F3000 ; Move Z Axis up little to prevent scratching of Heat Bed
G1 X5 Y20 Z0.3 F5000.0 ; Move over to prevent blob squish
G92 E0
G92 E0
G1 F3000 E-6
;LAYER_COUNT:27
;LAYER:0
M106 S255
G0 F6000 X186.839 Y186.69 Z0.3
;TYPE:SKIRT
G1 F3000 E0
G1 F1200 X186.998 Y186.538 E0.01097
G1 X187.525 Y186.089 E0.04551
G1 X188.101 Y185.704 E0.08008
G1 X188.717 Y185.388 E0.11462
G1 X189.127 Y185.224 E0.13665
G1 X189.41 Y185.123 E0.15164
G1 X190.185 Y184.904 E0.19182
G1 X190.341 Y184.871 E0.19978
G1 X191.026 Y184.767 E0.23434
G1 X191.413 Y184.743 E0.25369
G1 X191.765 Y184.733 E0.27126
G1 X191.934 Y184.731 E0.27969
G1 X203.605 Y184.73 E0.86196
G1 X204.413 Y184.742 E0.90227
G1 X205.104 Y184.792 E0.93684
G1 X205.849 Y184.939 E0.97472
G1 X206.092 Y185.003 E0.98726
G1 X206.629 Y185.171 E1.01533
G1 X206.82 Y185.241 E1.02548
G1 X207.455 Y185.517 E1.06002
G1 X208.054 Y185.864 E1.09456
G1 X208.61 Y186.277 E1.12911
G1 X208.953 Y186.588 E1.15221
G1 X209.223 Y186.857 E1.17123
G1 X209.376 Y187.016 E1.18223
G1 X209.827 Y187.542 E1.2168
G1 X210.214 Y188.116 E1.25134
G1 X210.532 Y188.731 E1.28588
G1 X210.708 Y189.17 E1.30948
G1 X210.813 Y189.466 E1.32515
G1 X211.057 Y190.376 E1.37215
G1 X211.083 Y190.516 E1.37926
G1 X211.181 Y191.438 E1.42551
G1 X211.194 Y191.955 E1.45131
G1 X211.194 Y203.682 E2.03638
G1 X211.184 Y204.398 E2.0721
G1 X211.135 Y205.089 E2.10666
G1 X211.013 Y205.742 E2.1398
G1 X210.938 Y206.048 E2.15552
G1 X210.734 Y206.71 E2.19008
G1 X210.456 Y207.344 E2.22462
G1 X210.212 Y207.778 E2.24946
G1 X210.035 Y208.064 E2.26624
G1 X209.637 Y208.63 E2.30076
G1 X209.112 Y209.211 E2.33983
G1 X208.942 Y209.376 E2.35165
G1 X208.418 Y209.829 E2.3862
G1 X207.845 Y210.219 E2.42078
G1 X207.232 Y210.54 E2.45531
G1 X206.909 Y210.674 E2.47275
G1 X206.627 Y210.782 E2.48782
G1 X205.717 Y211.05 E2.53515
G1 X205.546 Y211.086 E2.54386
G1 X204.861 Y211.19 E2.57843
G1 X204.487 Y211.212 E2.59712
G1 X204.149 Y211.222 E2.61399
G1 X203.973 Y211.225 E2.62277
G1 X192.197 Y211.225 E3.21028
G1 X191.483 Y211.214 E3.24591
G1 X190.792 Y211.164 E3.28047
G1 X190.024 Y211.011 E3.31954
G1 X189.755 Y210.939 E3.33343
G1 X189.097 Y210.722 E3.368
G1 X188.469 Y210.43 E3.40255
G1 X188.015 Y210.16 E3.4289
G1 X187.704 Y209.956 E3.44746
G1 X187.148 Y209.543 E3.48202
G1 X186.684 Y209.112 E3.51361
G1 X186.532 Y208.955 E3.52451
G1 X186.08 Y208.431 E3.55904
G1 X185.691 Y207.858 E3.59359
G1 X185.371 Y207.244 E3.62813
G1 X185.18 Y206.765 E3.65386
G1 X185.069 Y206.448 E3.67062
G1 X184.815 Y205.459 E3.72156
G1 X184.794 Y205.334 E3.72788
G1 X184.713 Y204.512 E3.76909
G1 X184.703 Y204.163 E3.78651
G1 X184.701 Y203.992 E3.79504
G1 X184.701 Y192.22 E4.38235
G1 X184.711 Y191.549 E4.41583
G1 X184.761 Y190.858 E4.45039
G1 X184.9 Y190.141 E4.48683
G1 X184.985 Y189.811 E4.50383
G1 X185.196 Y189.152 E4.53835
G1 X185.482 Y188.521 E4.57292
G1 X185.825 Y187.947 E4.60628
G1 X186.015 Y187.666 E4.6232
G1 X186.435 Y187.116 E4.65773
G1 X186.839 Y186.69 E4.68702
G0 F6000 X187.115 Y186.979
G1 F1200 X187.274 Y186.827 E4.69799
G1 X187.785 Y186.395 E4.73137
G1 X188.343 Y186.026 E4.76475
G1 X188.941 Y185.726 E4.79813
G1 X189.262 Y185.601 E4.81531
G1 X189.545 Y185.5 E4.8303
G1 X190.268 Y185.295 E4.8678
G1 X190.424 Y185.262 E4.87575
G1 X191.086 Y185.163 E4.90915
G1 X191.424 Y185.143 E4.92604
G1 X191.776 Y185.133 E4.94361
G1 X191.935 Y185.131 E4.95154
G1 X203.606 Y185.13 E5.53381
G1 X204.407 Y185.142 E5.57378
G1 X205.074 Y185.192 E5.60715
G1 X205.747 Y185.326 E5.64138
G1 X205.99 Y185.39 E5.65392
G1 X206.491 Y185.547 E5.68011
G1 X206.682 Y185.617 E5.69026
G1 X207.295 Y185.884 E5.72362
G1 X207.872 Y186.223 E5.75701
G1 X208.405 Y186.628 E5.7904
G1 X208.673 Y186.874 E5.80855
G1 X208.935 Y187.134 E5.82697
G1 X209.088 Y187.293 E5.83798
G1 X209.522 Y187.802 E5.87135
G1 X209.893 Y188.359 E5.90474
G1 X210.194 Y188.956 E5.93809
G1 X210.331 Y189.304 E5.95675
G1 X210.436 Y189.6 E5.97242
G1 X210.664 Y190.449 E6.01628
G1 X210.69 Y190.589 E6.02338
G1 X210.782 Y191.449 E6.06653
G1 X210.792 Y191.793 E6.0837
G1 X210.794 Y191.956 E6.09183
G1 X210.794 Y203.676 E6.67655
G1 X210.784 Y204.392 E6.71227
G1 X210.735 Y205.059 E6.74564
G1 X210.624 Y205.647 E6.77549
G1 X210.549 Y205.953 E6.79121
G1 X210.351 Y206.592 E6.82459
G1 X210.079 Y207.203 E6.85795
G1 X209.872 Y207.567 E6.87884
G1 X209.695 Y207.853 E6.89562
G1 X209.309 Y208.4 E6.92903
G1 X208.833 Y208.924 E6.96434
G1 X208.663 Y209.089 E6.97616
G1 X208.156 Y209.526 E7.00956
G1 X207.601 Y209.899 E7.04292
G1 X206.766 Y210.301 E7.08915
G1 X206.484 Y210.409 E7.10422
G1 X205.635 Y210.659 E7.14837
G1 X205.464 Y210.695 E7.15709
G1 X204.476 Y210.813 E7.20673
G1 X204.138 Y210.823 E7.2236
G1 X203.972 Y210.825 E7.23189
G1 X192.203 Y210.825 E7.81904
G1 X191.489 Y210.814 E7.85467
G1 X190.822 Y210.764 E7.88804
G1 X190.127 Y210.625 E7.9234
G1 X189.858 Y210.553 E7.93729
G1 X189.223 Y210.341 E7.97069
G1 X188.618 Y210.056 E8.00406
G1 X188.235 Y209.826 E8.02635
G1 X187.924 Y209.622 E8.0449
G1 X187.387 Y209.222 E8.07831
G1 X186.972 Y208.834 E8.10665
G1 X186.82 Y208.677 E8.11755
G1 X186.384 Y208.17 E8.15092
G1 X186.012 Y207.614 E8.18429
G1 X185.708 Y207.017 E8.21771
G1 X185.558 Y206.633 E8.23828
G1 X185.447 Y206.316 E8.25504
G1 X185.209 Y205.393 E8.30259
G1 X185.188 Y205.268 E8.30892
G1 X185.113 Y204.5 E8.34741
G1 X185.103 Y204.151 E8.36483
G1 X185.101 Y203.991 E8.37282
G1 X185.101 Y192.226 E8.95977
G1 X185.111 Y191.555 E8.99325
G1 X185.161 Y190.887 E9.02667
G1 X185.287 Y190.241 E9.05951
G1 X185.372 Y189.911 E9.07651
G1 X185.577 Y189.274 E9.1099
G1 X185.857 Y188.667 E9.14325
G1 X186.156 Y188.171 E9.17214
G1 X186.346 Y187.89 E9.18906
G1 X186.753 Y187.359 E9.22244
G1 X187.115 Y186.979 E9.24863
G0 F6000 X187.392 Y187.268
G1 F1200 X187.551 Y187.116 E9.2596
G1 X188.043 Y186.701 E9.29171
G1 X188.584 Y186.349 E9.32391
G1 X189.396 Y185.978 E9.36845
G1 X189.679 Y185.877 E9.38344
G1 X190.351 Y185.687 E9.41828
G1 X190.507 Y185.654 E9.42624
G1 X191.435 Y185.543 E9.47287
G1 X191.787 Y185.533 E9.49044
G1 X191.935 Y185.531 E9.49782
G1 X203.606 Y185.53 E10.08009
G1 X204.401 Y185.542 E10.11976
G1 X205.044 Y185.591 E10.15193
G1 X205.645 Y185.712 E10.18251
G1 X205.888 Y185.776 E10.19505
G1 X206.353 Y185.923 E10.21938
G1 X206.544 Y185.993 E10.22953
G1 X207.135 Y186.251 E10.2617
G1 X207.689 Y186.581 E10.29387
G1 X208.393 Y187.16 E10.33935
G1 X208.647 Y187.411 E10.35716
G1 X208.8 Y187.57 E10.36817
G1 X209.217 Y188.062 E10.40035
G1 X209.571 Y188.601 E10.43252
G1 X209.954 Y189.438 E10.47844
G1 X210.059 Y189.734 E10.49411
G1 X210.271 Y190.523 E10.53487
G1 X210.297 Y190.663 E10.54198
G1 X210.382 Y191.461 E10.58201
G1 X210.392 Y191.805 E10.59918
G1 X210.394 Y191.956 E10.60672
G1 X210.394 Y203.671 E11.19118
G1 X210.384 Y204.387 E11.22691
G1 X210.336 Y205.029 E11.25903
G1 X210.236 Y205.552 E11.28559
G1 X210.161 Y205.858 E11.30131
G1 X209.969 Y206.473 E11.33345
G1 X209.702 Y207.06 E11.36562
G1 X209.532 Y207.357 E11.3827
G1 X209.355 Y207.643 E11.39948
G1 X208.982 Y208.169 E11.43165
G1 X208.555 Y208.637 E11.46326
G1 X208.385 Y208.802 E11.47507
G1 X207.895 Y209.222 E11.50727
G1 X207.357 Y209.578 E11.53946
G1 X206.623 Y209.927 E11.58001
G1 X206.341 Y210.035 E11.59507
G1 X205.552 Y210.267 E11.6361
G1 X205.381 Y210.303 E11.64482
G1 X204.464 Y210.413 E11.6909
G1 X204.126 Y210.423 E11.70777
G1 X203.972 Y210.425 E11.71545
G1 X192.209 Y210.425 E12.30231
G1 X191.495 Y210.414 E12.33793
G1 X190.852 Y210.365 E12.37011
G1 X190.231 Y210.238 E12.40173
G1 X189.962 Y210.166 E12.41562
G1 X189.35 Y209.961 E12.44782
G1 X188.769 Y209.682 E12.47998
G1 X188.454 Y209.491 E12.49836
G1 X188.143 Y209.287 E12.51691
G1 X187.627 Y208.901 E12.54906
G1 X187.259 Y208.556 E12.57423
G1 X187.107 Y208.399 E12.58513
G1 X186.688 Y207.909 E12.6173
G1 X186.333 Y207.371 E12.64945
G1 X185.935 Y206.501 E12.69718
G1 X185.824 Y206.184 E12.71394
G1 X185.604 Y205.327 E12.75808
G1 X185.583 Y205.202 E12.76441
G1 X185.513 Y204.489 E12.80015
G1 X185.503 Y204.14 E12.81757
G1 X185.501 Y203.991 E12.825
G1 X185.501 Y192.232 E13.41166
G1 X185.511 Y191.561 E13.44514
G1 X185.56 Y190.918 E13.47731
G1 X185.674 Y190.341 E13.50666
G1 X185.759 Y190.011 E13.52366
G1 X185.959 Y189.398 E13.55583
G1 X186.232 Y188.814 E13.58799
G1 X186.487 Y188.395 E13.61246
G1 X186.677 Y188.114 E13.62938
G1 X187.071 Y187.604 E13.66154
G1 X187.392 Y187.268 E13.68472
G1 F3000 E7.68472
;MESH:16 CE3_choc v1.1.3mf(15)
G0 F6000 X190.176 Y191.053
G0 X191.319 Y191.696
G0 X191.399 Y204.277
G0 X191.301 Y204.292
;TYPE:WALL-INNER
G1 F3000 E13.68472
G1 F1200 X191.3 Y191.693 E14.31329
G1 X191.352 Y191.526 E14.32201
G1 X191.481 Y191.382 E14.33166
G1 X191.637 Y191.331 E14.33985
G1 X204.23 Y191.33 E14.96811
G1 X204.399 Y191.382 E14.97693
G1 X204.544 Y191.511 E14.98662
G1 X204.594 Y191.664 E14.99465
G1 X204.595 Y204.263 E15.62321
G1 X204.543 Y204.43 E15.63194
G1 X204.413 Y204.576 E15.64169
G1 X204.259 Y204.625 E15.64976
G1 X191.665 Y204.626 E16.27807
G1 X191.495 Y204.574 E16.28694
G1 X191.351 Y204.445 E16.29659
G1 X191.301 Y204.292 E16.30462
G0 F6000 X190.92 Y204.43
;TYPE:WALL-OUTER
G1 F1200 X190.901 Y204.327 E16.30984
G1 X190.9 Y191.63 E16.9433
G1 X190.996 Y191.324 E16.9593
G1 X191.25 Y191.04 E16.97831
G1 X191.494 Y190.951 E16.99127
G1 X191.599 Y190.931 E16.9966
G1 X204.29 Y190.93 E17.62976
G1 X204.601 Y191.026 E17.64599
G1 X204.887 Y191.28 E17.66508
G1 X204.975 Y191.526 E17.67811
G1 X204.994 Y191.629 E17.68334
G1 X204.995 Y204.326 E18.31679
G1 X204.899 Y204.632 E18.33279
G1 X204.645 Y204.917 E18.35184
G1 X204.402 Y205.005 E18.36473
G1 X204.297 Y205.025 E18.37007
G1 X191.606 Y205.026 E19.00322
G1 X191.294 Y204.93 E19.01951
G1 X191.008 Y204.676 E19.03859
G1 X190.92 Y204.43 E19.05163
G0 F6000 X191.344 Y204.316
G0 X191.691 Y204.226
;TYPE:SKIN
G1 F1200 X191.69 Y191.751 E19.67401
G1 X191.7 Y191.721 E19.67558
G1 X204.171 Y191.72 E20.29777
G1 X204.204 Y191.73 E20.29949
G1 X204.205 Y204.202 E20.92172
G1 X204.196 Y204.235 E20.92342
G1 X191.723 Y204.236 E21.5457
G1 X191.691 Y204.226 E21.54738
G0 F6000 X192.195 Y204.074
G1 F1200 X191.85 Y203.729 E21.57172
G0 F6000 X191.85 Y203.163
G1 F1200 X192.76 Y204.074 E21.63596
G0 F6000 X193.326 Y204.074
G1 F1200 X191.85 Y202.598 E21.7401
G0 F6000 X191.85 Y202.032
G1 F1200 X193.892 Y204.074 E21.88417
G0 F6000 X194.457 Y204.074
G1 F1200 X191.85 Y201.466 E22.06815
G0 F6000 X191.85 Y200.901
G1 F1200 X195.023 Y204.074 E22.29202
G0 F6000 X195.589 Y204.074
G1 F1200 X191.85 Y200.335 E22.55582
G0 F6000 X191.85 Y199.769
G1 F1200 X196.154 Y204.074 E22.85953
G0 F6000 X196.72 Y204.074
G1 F1200 X191.85 Y199.204 E23.20313
G0 F6000 X191.85 Y198.638
G1 F1200 X197.286 Y204.074 E23.58667
G0 F6000 X197.852 Y204.074
G1 F1200 X191.85 Y198.072 E24.01015
G0 F6000 X191.85 Y197.506
G1 F1200 X198.417 Y204.074 E24.47352
G0 F6000 X198.983 Y204.074
G1 F1200 X191.85 Y196.941 E24.97679
G0 F6000 X191.85 Y196.375
G1 F1200 X199.549 Y204.074 E25.52
G0 F6000 X200.114 Y204.074
G1 F1200 X191.85 Y195.809 E26.1031
G0 F6000 X191.85 Y195.244
G1 F1200 X200.68 Y204.074 E26.72611
G0 F6000 X201.246 Y204.074
G1 F1200 X191.85 Y194.678 E27.38905
G0 F6000 X191.85 Y194.112
G1 F1200 X201.811 Y204.074 E28.09188
G0 F6000 X202.377 Y204.074
G1 F1200 X191.85 Y193.547 E28.83462
G0 F6000 X191.85 Y192.981
G1 F1200 X202.943 Y204.074 E29.61729
G0 F6000 X203.508 Y204.074
G1 F1200 X191.85 Y192.415 E30.43986
G0 F6000 X191.879 Y191.879
G1 F1200 X204.044 Y204.044 E31.29817
G0 F6000 X204.044 Y203.479
G1 F1200 X192.445 Y191.879 E32.11657
G0 F6000 X193.011 Y191.879
G1 F1200 X204.044 Y202.913 E32.89505
G0 F6000 X204.044 Y202.347
G1 F1200 X193.576 Y191.879 E33.63362
G0 F6000 X194.142 Y191.879
G1 F1200 X204.044 Y201.782 E34.3323
G0 F6000 X204.044 Y201.216
G1 F1200 X194.708 Y191.879 E34.99104
G0 F6000 X195.273 Y191.879
G1 F1200 X204.044 Y200.65 E35.60988
G0 F6000 X204.044 Y200.085
G1 F1200 X195.839 Y191.879 E36.18882
G0 F6000 X196.405 Y191.879
G1 F1200 X204.044 Y199.519 E36.72783
G0 F6000 X204.044 Y198.953
G1 F1200 X196.97 Y191.879 E37.22694
G0 F6000 X197.536 Y191.879
G1 F1200 X204.044 Y198.387 E37.68611
G0 F6000 X204.044 Y197.821
G1 F1200 X198.102 Y191.879 E38.10535
G0 F6000 X198.668 Y191.879
G1 F1200 X204.044 Y197.255 E38.48466
G0 F6000 X204.044 Y196.69
G1 F1200 X199.233 Y191.879 E38.8241
G0 F6000 X199.799 Y191.879
G1 F1200 X204.044 Y196.124 E39.12361
G0 F6000 X204.044 Y195.558
G1 F1200 X200.365 Y191.879 E39.38318
G0 F6000 X200.93 Y191.879
G1 F1200 X204.044 Y194.993 E39.60289
G0 F6000 X204.044 Y194.427
G1 F1200 X201.496 Y191.879 E39.78267
G0 F6000 X202.062 Y191.879
G1 F1200 X204.044 Y193.861 E39.92251
G0 F6000 X204.044 Y193.296
G1 F1200 X202.627 Y191.879 E40.02248
G0 F6000 X203.193 Y191.879
G1 F1200 X204.044 Y192.73 E40.08253
G0 F6000 X204.044 Y192.164
G1 F1200 X203.759 Y191.879 E40.10263
;MESH:NONMESH
G0 F300 X203.759 Y191.879 Z0.5
G0 F6000 X191.434 Y204.391
G0 X190.854 Y204.681
;TIME_ELAPSED:50.037266
;LAYER:1
;TYPE:WALL-INNER
;MESH:16 CE3_choc v1.1.3mf(15)
G1 F2100 X190.8 Y204.42 E40.1115
G1 X190.781 Y204.3 E40.11554
G1 X190.78 Y191.658 E40.53602
G1 X190.826 Y191.35 E40.54637
G1 X190.952 Y191.12 E40.5551
G1 X191.245 Y190.885 E40.56759
G1 X191.507 Y190.83 E40.57649
G1 X191.627 Y190.811 E40.58053
G1 X204.263 Y190.81 E41.00081
G1 X204.593 Y190.859 E41.0119
G1 X204.806 Y190.982 E41.02008
G1 X205.041 Y191.275 E41.03258
G1 X205.095 Y191.536 E41.04144
G1 X205.114 Y191.656 E41.04548
G1 X205.115 Y204.298 E41.46596
G1 X205.069 Y204.606 E41.47632
G1 X204.978 Y204.775 E41.4827
G1 X204.799 Y204.975 E41.49163
G1 X204.569 Y205.101 E41.50035
G1 X204.269 Y205.145 E41.51043
G1 X191.633 Y205.146 E41.93071
G1 X191.302 Y205.097 E41.94184
G1 X191.089 Y204.974 E41.95002
G1 X190.854 Y204.681 E41.96251
G0 F10500 X190.438 Y204.731
;TYPE:WALL-OUTER
G1 F2100 X190.404 Y204.477 E41.97103
G1 X190.381 Y204.33 E41.97598
G1 X190.38 Y191.625 E42.39855
G1 X190.405 Y191.481 E42.40341
G1 X190.439 Y191.225 E42.412
G1 X190.588 Y190.949 E42.42244
G1 X190.635 Y190.871 E42.42546
G1 X190.843 Y190.664 E42.43522
G1 X191.057 Y190.531 E42.44361
G1 X191.195 Y190.469 E42.44864
G1 X191.449 Y190.434 E42.45717
G1 X191.596 Y190.411 E42.46211
G1 X204.3 Y190.41 E42.88465
G1 X204.444 Y190.436 E42.88952
G1 X204.701 Y190.47 E42.89814
G1 X204.84 Y190.532 E42.9032
G1 X205.057 Y190.667 E42.9117
G1 X205.261 Y190.871 E42.9213
G1 X205.395 Y191.087 E42.92975
G1 X205.457 Y191.225 E42.93478
G1 X205.491 Y191.479 E42.94331
G1 X205.514 Y191.626 E42.94826
G1 X205.515 Y204.331 E43.37083
G1 X205.49 Y204.475 E43.37569
G1 X205.456 Y204.731 E43.38428
G1 X205.307 Y205.007 E43.39471
G1 X205.052 Y205.293 E43.40745
G1 X204.697 Y205.487 E43.42091
G1 X204.447 Y205.522 E43.4293
G1 X204.3 Y205.545 E43.43425
G1 X191.596 Y205.546 E43.85679
G1 X191.452 Y205.52 E43.86166
G1 X191.194 Y205.486 E43.87031
G1 X191.055 Y205.424 E43.87537
G1 X190.838 Y205.289 E43.88387
G1 X190.634 Y205.085 E43.89347
G1 X190.5 Y204.869 E43.90192
G1 X190.438 Y204.731 E43.90696
G0 F10500 X190.861 Y204.611
G0 X191.217 Y204.511
;TYPE:SKIN
G1 F2100 X191.171 Y204.266 E43.91525
G1 X191.17 Y191.69 E44.33353
G1 X191.202 Y191.475 E44.34076
G1 X191.257 Y191.375 E44.34455
G1 X191.415 Y191.248 E44.35129
G1 X191.662 Y191.201 E44.35966
G1 X204.233 Y191.2 E44.77777
G1 X204.463 Y191.234 E44.7855
G1 X204.678 Y191.445 E44.79552
G1 X204.724 Y191.691 E44.80385
G1 X204.725 Y204.266 E45.22209
G1 X204.657 Y204.55 E45.23181
G1 X204.445 Y204.725 E45.24095
G1 X204.24 Y204.755 E45.24784
G1 X191.662 Y204.756 E45.66619
G1 X191.432 Y204.722 E45.67392
G1 X191.217 Y204.511 E45.68394
G0 F10500 X191.341 Y191.627
G1 F2100 X191.593 Y191.375 E45.69579
